(.../eagle/upl/pcb-gcode/pcb-gcode.ulp)
(Copyright 2005 - 2012 by John Johnson)
(See readme.txt for licensing terms.)
(This file generated from the board:)
(.../End mill tests/Ref_pcb_lite.brd)
(Current profile is .../upl/pcb-gcode/profiles/mach.pp  )
(This file generated 18/01/2018 13:59)
(Settings from pcb-machine.h)
(  Tool Size)
(0.2000  )
(Z Axis Settings)
(  High     Up        Down     Drill)
(12.0000 	3.0000  	-0.0400 	-1.4800 )
(spindle on time = 3.0000)
(milling depth = -1.4500)
(text depth = -0.1270)
(tool change at 12.7000 15.2400 45.0000 )
(feed rate xy = F100   )
(feed rate z  = F100   )
(Settings from pcb-defaults.h)
(isolate min = 0.0254)
(isolate max = 0.1000)
(isolate step = 0.1270)
(Generated top outlines, )
(Unit of measure: mm)
(Metric Mode)
G21
(Absolute Coordinates)
G90
G00 X0.0000  Y0.0000  
M03
G04 P3.000000
G00 Z3.0000  
G00 X36.8394 Y22.5050 
G01 Z-0.0400 F100   
G01 X36.8394 Y22.7070 F100   
G01 X36.8000 Y22.9051 
G01 X36.7227 Y23.0917 
G01 X36.6105 Y23.2597 
G01 X36.4677 Y23.4025 
G01 X36.2997 Y23.5147 
G01 X36.1131 Y23.5920 
G01 X35.9150 Y23.6314 
G01 X35.7130 Y23.6314 
G01 X35.5149 Y23.5920 
G01 X35.3283 Y23.5147 
G01 X35.1603 Y23.4025 
G01 X35.0175 Y23.2597 
G01 X34.9053 Y23.0917 
G01 X34.8280 Y22.9051 
G01 X34.7886 Y22.7070 
G01 X34.7886 Y22.5050 
G01 X34.8280 Y22.3069 
G01 X34.9053 Y22.1203 
G01 X35.0175 Y21.9523 
G01 X35.1603 Y21.8095 
G01 X35.3283 Y21.6973 
G01 X35.5149 Y21.6200 
G01 X35.7130 Y21.5806 
G01 X35.9150 Y21.5806 
G01 X36.1131 Y21.6200 
G01 X36.2997 Y21.6973 
G01 X36.4677 Y21.8095 
G01 X36.6105 Y21.9523 
G01 X36.7227 Y22.1203 
G01 X36.8000 Y22.3069 
G01 X36.8394 Y22.5050 
G00 Z3.0000  
G00 X36.7776 Y16.9231 
G01 Z-0.0400 F100   
G01 X36.7776 Y17.1129 F100   
G01 X36.7406 Y17.2991 
G01 X36.6679 Y17.4744 
G01 X36.5625 Y17.6323 
G01 X36.4283 Y17.7665 
G01 X36.2704 Y17.8719 
G01 X36.0951 Y17.9446 
G01 X35.9089 Y17.9816 
G01 X35.7191 Y17.9816 
G01 X35.5329 Y17.9446 
G01 X35.3576 Y17.8719 
G01 X35.1997 Y17.7665 
G01 X35.0655 Y17.6323 
G01 X34.9601 Y17.4744 
G01 X34.8874 Y17.2991 
G01 X34.8504 Y17.1129 
G01 X34.8504 Y16.9231 
G01 X34.8874 Y16.7369 
G01 X34.9601 Y16.5616 
G01 X35.0655 Y16.4037 
G01 X35.1997 Y16.2695 
G01 X35.3576 Y16.1641 
G01 X35.5329 Y16.0914 
G01 X35.7191 Y16.0544 
G01 X35.9089 Y16.0544 
G01 X36.0951 Y16.0914 
G01 X36.2704 Y16.1641 
G01 X36.4283 Y16.2695 
G01 X36.5625 Y16.4037 
G01 X36.6679 Y16.5616 
G01 X36.7406 Y16.7369 
G01 X36.7776 Y16.9231 
G00 Z3.0000  
G00 X36.7776 Y27.8451 
G01 Z-0.0400 F100   
G01 X36.7776 Y28.0349 F100   
G01 X36.7406 Y28.2211 
G01 X36.6679 Y28.3964 
G01 X36.5625 Y28.5543 
G01 X36.4283 Y28.6885 
G01 X36.2704 Y28.7939 
G01 X36.0951 Y28.8666 
G01 X35.9089 Y28.9036 
G01 X35.7191 Y28.9036 
G01 X35.5329 Y28.8666 
G01 X35.3576 Y28.7939 
G01 X35.1997 Y28.6885 
G01 X35.0655 Y28.5543 
G01 X34.9601 Y28.3964 
G01 X34.8874 Y28.2211 
G01 X34.8504 Y28.0349 
G01 X34.8504 Y27.8451 
G01 X34.8874 Y27.6589 
G01 X34.9601 Y27.4836 
G01 X35.0655 Y27.3257 
G01 X35.1997 Y27.1915 
G01 X35.3576 Y27.0861 
G01 X35.5329 Y27.0134 
G01 X35.7191 Y26.9764 
G01 X35.9089 Y26.9764 
G01 X36.0951 Y27.0134 
G01 X36.2704 Y27.0861 
G01 X36.4283 Y27.1915 
G01 X36.5625 Y27.3257 
G01 X36.6679 Y27.4836 
G01 X36.7406 Y27.6589 
G01 X36.7776 Y27.8451 
G00 Z3.0000  
G00 X1.9887  Y36.7554 
G01 Z-0.0400 F100   
G01 X33.8253 Y36.7554 F100   
G01 X33.9088 Y36.7778 
G01 X33.9838 Y36.8211 
G01 X34.0449 Y36.8822 
G01 X34.0882 Y36.9572 
G01 X34.1106 Y37.0407 
G01 X34.1106 Y37.1273 
G01 X34.0882 Y37.2108 
G01 X34.0449 Y37.2858 
G01 X33.9838 Y37.3469 
G01 X33.9088 Y37.3902 
G01 X33.8253 Y37.4126 
G01 X1.9887  Y37.4126 
G01 X1.9052  Y37.3902 
G01 X1.8302  Y37.3469 
G01 X1.7691  Y37.2858 
G01 X1.7258  Y37.2108 
G01 X1.7034  Y37.1273 
G01 X1.7034  Y37.0407 
G01 X1.7258  Y36.9572 
G01 X1.7691  Y36.8822 
G01 X1.8302  Y36.8211 
G01 X1.9052  Y36.7778 
G01 X1.9887  Y36.7554 
G00 Z3.0000  
G00 X2.6991  Y16.5624 
G01 Z-0.0400 F100   
G01 X11.5249 Y16.5624 F100   
G01 X11.7111 Y16.5994 
G01 X11.8864 Y16.6721 
G01 X12.0443 Y16.7775 
G01 X12.1785 Y16.9117 
G01 X12.2839 Y17.0696 
G01 X12.3566 Y17.2449 
G01 X12.3936 Y17.4311 
G01 X12.3936 Y17.6209 
G01 X12.3566 Y17.8071 
G01 X12.2839 Y17.9824 
G01 X12.1785 Y18.1403 
G01 X12.0443 Y18.2745 
G01 X11.8864 Y18.3799 
G01 X11.7111 Y18.4526 
G01 X11.5249 Y18.4896 
G01 X2.6991  Y18.4896 
G01 X2.5129  Y18.4526 
G01 X2.3376  Y18.3799 
G01 X2.1797  Y18.2745 
G01 X2.0455  Y18.1403 
G01 X1.9401  Y17.9824 
G01 X1.8674  Y17.8071 
G01 X1.8304  Y17.6209 
G01 X1.8304  Y17.4311 
G01 X1.8674  Y17.2449 
G01 X1.9401  Y17.0696 
G01 X2.0455  Y16.9117 
G01 X2.1797  Y16.7775 
G01 X2.3376  Y16.6721 
G01 X2.5129  Y16.5994 
G01 X2.6991  Y16.5624 
G00 Z3.0000  
G00 X2.4651  Y21.5916 
G01 Z-0.0400 F100   
G01 X17.6009 Y21.5916 F100   
G01 X17.7478 Y21.6208 
G01 X17.8862 Y21.6781 
G01 X18.0107 Y21.7614 
G01 X18.1166 Y21.8673 
G01 X18.1999 Y21.9918 
G01 X18.2572 Y22.1302 
G01 X18.2864 Y22.2771 
G01 X18.2864 Y22.4269 
G01 X18.2572 Y22.5738 
G01 X18.1999 Y22.7122 
G01 X18.1166 Y22.8367 
G01 X18.0107 Y22.9426 
G01 X17.8862 Y23.0259 
G01 X17.7478 Y23.0832 
G01 X17.6009 Y23.1124 
G01 X2.4651  Y23.1124 
G01 X2.3182  Y23.0832 
G01 X2.1798  Y23.0259 
G01 X2.0553  Y22.9426 
G01 X1.9494  Y22.8367 
G01 X1.8661  Y22.7122 
G01 X1.8088  Y22.5738 
G01 X1.7796  Y22.4269 
G01 X1.7796  Y22.2771 
G01 X1.8088  Y22.1302 
G01 X1.8661  Y21.9918 
G01 X1.9494  Y21.8673 
G01 X2.0553  Y21.7614 
G01 X2.1798  Y21.6781 
G01 X2.3182  Y21.6208 
G01 X2.4651  Y21.5916 
G00 Z3.0000  
G00 X2.2236  Y27.0526 
G01 Z-0.0400 F100   
G01 X22.1604 Y27.0526 F100   
G01 X22.2828 Y27.0769 
G01 X22.3980 Y27.1247 
G01 X22.5018 Y27.1940 
G01 X22.5900 Y27.2822 
G01 X22.6593 Y27.3860 
G01 X22.7071 Y27.5012 
G01 X22.7314 Y27.6236 
G01 X22.7314 Y27.7484 
G01 X22.7071 Y27.8708 
G01 X22.6593 Y27.9860 
G01 X22.5900 Y28.0898 
G01 X22.5018 Y28.1780 
G01 X22.3980 Y28.2473 
G01 X22.2828 Y28.2951 
G01 X22.1604 Y28.3194 
G01 X2.2236  Y28.3194 
G01 X2.1012  Y28.2951 
G01 X1.9860  Y28.2473 
G01 X1.8822  Y28.1780 
G01 X1.7940  Y28.0898 
G01 X1.7247  Y27.9860 
G01 X1.6769  Y27.8708 
G01 X1.6526  Y27.7484 
G01 X1.6526  Y27.6236 
G01 X1.6769  Y27.5012 
G01 X1.7247  Y27.3860 
G01 X1.7940  Y27.2822 
G01 X1.8822  Y27.1940 
G01 X1.9860  Y27.1247 
G01 X2.1012  Y27.0769 
G01 X2.2236  Y27.0526 
G00 Z3.0000  
G00 X2.2294  Y32.5898 
G01 Z-0.0400 F100   
G01 X27.2346 Y32.5898 F100   
G01 X27.3441 Y32.6191 
G01 X27.4421 Y32.6758 
G01 X27.5222 Y32.7559 
G01 X27.5789 Y32.8539 
G01 X27.6082 Y32.9634 
G01 X27.6082 Y33.0766 
G01 X27.5789 Y33.1861 
G01 X27.5222 Y33.2841 
G01 X27.4421 Y33.3642 
G01 X27.3441 Y33.4209 
G01 X27.2346 Y33.4502 
G01 X2.2294  Y33.4502 
G01 X2.1199  Y33.4209 
G01 X2.0219  Y33.3642 
G01 X1.9418  Y33.2841 
G01 X1.8851  Y33.1861 
G01 X1.8558  Y33.0766 
G01 X1.8558  Y32.9634 
G01 X1.8851  Y32.8539 
G01 X1.9418  Y32.7559 
G01 X2.0219  Y32.6758 
G01 X2.1199  Y32.6191 
G01 X2.2294  Y32.5898 
G00 Z3.0000  
G00 X26.1096 Y44.8631 
G01 Z-0.0400 F100   
G01 X26.1096 Y45.0529 F100   
G01 X26.0726 Y45.2391 
G01 X25.9999 Y45.4144 
G01 X25.8945 Y45.5723 
G01 X25.7603 Y45.7065 
G01 X25.6024 Y45.8119 
G01 X25.4271 Y45.8846 
G01 X25.2409 Y45.9216 
G01 X25.0511 Y45.9216 
G01 X24.8649 Y45.8846 
G01 X24.6896 Y45.8119 
G01 X24.5317 Y45.7065 
G01 X24.3975 Y45.5723 
G01 X24.2921 Y45.4144 
G01 X24.2194 Y45.2391 
G01 X24.1824 Y45.0529 
G01 X24.1824 Y44.8631 
G01 X24.2194 Y44.6769 
G01 X24.2921 Y44.5016 
G01 X24.3975 Y44.3437 
G01 X24.5317 Y44.2095 
G01 X24.6896 Y44.1041 
G01 X24.8649 Y44.0314 
G01 X25.0511 Y43.9944 
G01 X25.2409 Y43.9944 
G01 X25.4271 Y44.0314 
G01 X25.6024 Y44.1041 
G01 X25.7603 Y44.2095 
G01 X25.8945 Y44.3437 
G01 X25.9999 Y44.5016 
G01 X26.0726 Y44.6769 
G01 X26.1096 Y44.8631 
G00 Z3.0000  
G00 X23.5696 Y44.8631 
G01 Z-0.0400 F100   
G01 X23.5696 Y45.0529 F100   
G01 X23.5326 Y45.2391 
G01 X23.4599 Y45.4144 
G01 X23.3545 Y45.5723 
G01 X23.2203 Y45.7065 
G01 X23.0624 Y45.8119 
G01 X22.8871 Y45.8846 
G01 X22.7009 Y45.9216 
G01 X22.5111 Y45.9216 
G01 X22.3249 Y45.8846 
G01 X22.1496 Y45.8119 
G01 X21.9917 Y45.7065 
G01 X21.8575 Y45.5723 
G01 X21.7521 Y45.4144 
G01 X21.6794 Y45.2391 
G01 X21.6424 Y45.0529 
G01 X21.6424 Y44.8631 
G01 X21.6794 Y44.6769 
G01 X21.7521 Y44.5016 
G01 X21.8575 Y44.3437 
G01 X21.9917 Y44.2095 
G01 X22.1496 Y44.1041 
G01 X22.3249 Y44.0314 
G01 X22.5111 Y43.9944 
G01 X22.7009 Y43.9944 
G01 X22.8871 Y44.0314 
G01 X23.0624 Y44.1041 
G01 X23.2203 Y44.2095 
G01 X23.3545 Y44.3437 
G01 X23.4599 Y44.5016 
G01 X23.5326 Y44.6769 
G01 X23.5696 Y44.8631 
G00 Z3.0000  
G00 X21.0296 Y44.8631 
G01 Z-0.0400 F100   
G01 X21.0296 Y45.0529 F100   
G01 X20.9926 Y45.2391 
G01 X20.9199 Y45.4144 
G01 X20.8145 Y45.5723 
G01 X20.6803 Y45.7065 
G01 X20.5224 Y45.8119 
G01 X20.3471 Y45.8846 
G01 X20.1609 Y45.9216 
G01 X19.9711 Y45.9216 
G01 X19.7849 Y45.8846 
G01 X19.6096 Y45.8119 
G01 X19.4517 Y45.7065 
G01 X19.3175 Y45.5723 
G01 X19.2121 Y45.4144 
G01 X19.1394 Y45.2391 
G01 X19.1024 Y45.0529 
G01 X19.1024 Y44.8631 
G01 X19.1394 Y44.6769 
G01 X19.2121 Y44.5016 
G01 X19.3175 Y44.3437 
G01 X19.4517 Y44.2095 
G01 X19.6096 Y44.1041 
G01 X19.7849 Y44.0314 
G01 X19.9711 Y43.9944 
G01 X20.1609 Y43.9944 
G01 X20.3471 Y44.0314 
G01 X20.5224 Y44.1041 
G01 X20.6803 Y44.2095 
G01 X20.8145 Y44.3437 
G01 X20.9199 Y44.5016 
G01 X20.9926 Y44.6769 
G01 X21.0296 Y44.8631 
G00 Z3.0000  
G00 X18.4896 Y44.8631 
G01 Z-0.0400 F100   
G01 X18.4896 Y45.0529 F100   
G01 X18.4526 Y45.2391 
G01 X18.3799 Y45.4144 
G01 X18.2745 Y45.5723 
G01 X18.1403 Y45.7065 
G01 X17.9824 Y45.8119 
G01 X17.8071 Y45.8846 
G01 X17.6209 Y45.9216 
G01 X17.4311 Y45.9216 
G01 X17.2449 Y45.8846 
G01 X17.0696 Y45.8119 
G01 X16.9117 Y45.7065 
G01 X16.7775 Y45.5723 
G01 X16.6721 Y45.4144 
G01 X16.5994 Y45.2391 
G01 X16.5624 Y45.0529 
G01 X16.5624 Y44.8631 
G01 X16.5994 Y44.6769 
G01 X16.6721 Y44.5016 
G01 X16.7775 Y44.3437 
G01 X16.9117 Y44.2095 
G01 X17.0696 Y44.1041 
G01 X17.2449 Y44.0314 
G01 X17.4311 Y43.9944 
G01 X17.6209 Y43.9944 
G01 X17.8071 Y44.0314 
G01 X17.9824 Y44.1041 
G01 X18.1403 Y44.2095 
G01 X18.2745 Y44.3437 
G01 X18.3799 Y44.5016 
G01 X18.4526 Y44.6769 
G01 X18.4896 Y44.8631 
G00 Z3.0000  
G00 X26.1096 Y47.4031 
G01 Z-0.0400 F100   
G01 X26.1096 Y47.5929 F100   
G01 X26.0726 Y47.7791 
G01 X25.9999 Y47.9544 
G01 X25.8945 Y48.1123 
G01 X25.7603 Y48.2465 
G01 X25.6024 Y48.3519 
G01 X25.4271 Y48.4246 
G01 X25.2409 Y48.4616 
G01 X25.0511 Y48.4616 
G01 X24.8649 Y48.4246 
G01 X24.6896 Y48.3519 
G01 X24.5317 Y48.2465 
G01 X24.3975 Y48.1123 
G01 X24.2921 Y47.9544 
G01 X24.2194 Y47.7791 
G01 X24.1824 Y47.5929 
G01 X24.1824 Y47.4031 
G01 X24.2194 Y47.2169 
G01 X24.2921 Y47.0416 
G01 X24.3975 Y46.8837 
G01 X24.5317 Y46.7495 
G01 X24.6896 Y46.6441 
G01 X24.8649 Y46.5714 
G01 X25.0511 Y46.5344 
G01 X25.2409 Y46.5344 
G01 X25.4271 Y46.5714 
G01 X25.6024 Y46.6441 
G01 X25.7603 Y46.7495 
G01 X25.8945 Y46.8837 
G01 X25.9999 Y47.0416 
G01 X26.0726 Y47.2169 
G01 X26.1096 Y47.4031 
G00 Z3.0000  
G00 X23.5696 Y47.4031 
G01 Z-0.0400 F100   
G01 X23.5696 Y47.5929 F100   
G01 X23.5326 Y47.7791 
G01 X23.4599 Y47.9544 
G01 X23.3545 Y48.1123 
G01 X23.2203 Y48.2465 
G01 X23.0624 Y48.3519 
G01 X22.8871 Y48.4246 
G01 X22.7009 Y48.4616 
G01 X22.5111 Y48.4616 
G01 X22.3249 Y48.4246 
G01 X22.1496 Y48.3519 
G01 X21.9917 Y48.2465 
G01 X21.8575 Y48.1123 
G01 X21.7521 Y47.9544 
G01 X21.6794 Y47.7791 
G01 X21.6424 Y47.5929 
G01 X21.6424 Y47.4031 
G01 X21.6794 Y47.2169 
G01 X21.7521 Y47.0416 
G01 X21.8575 Y46.8837 
G01 X21.9917 Y46.7495 
G01 X22.1496 Y46.6441 
G01 X22.3249 Y46.5714 
G01 X22.5111 Y46.5344 
G01 X22.7009 Y46.5344 
G01 X22.8871 Y46.5714 
G01 X23.0624 Y46.6441 
G01 X23.2203 Y46.7495 
G01 X23.3545 Y46.8837 
G01 X23.4599 Y47.0416 
G01 X23.5326 Y47.2169 
G01 X23.5696 Y47.4031 
G00 Z3.0000  
G00 X21.0296 Y47.4031 
G01 Z-0.0400 F100   
G01 X21.0296 Y47.5929 F100   
G01 X20.9926 Y47.7791 
G01 X20.9199 Y47.9544 
G01 X20.8145 Y48.1123 
G01 X20.6803 Y48.2465 
G01 X20.5224 Y48.3519 
G01 X20.3471 Y48.4246 
G01 X20.1609 Y48.4616 
G01 X19.9711 Y48.4616 
G01 X19.7849 Y48.4246 
G01 X19.6096 Y48.3519 
G01 X19.4517 Y48.2465 
G01 X19.3175 Y48.1123 
G01 X19.2121 Y47.9544 
G01 X19.1394 Y47.7791 
G01 X19.1024 Y47.5929 
G01 X19.1024 Y47.4031 
G01 X19.1394 Y47.2169 
G01 X19.2121 Y47.0416 
G01 X19.3175 Y46.8837 
G01 X19.4517 Y46.7495 
G01 X19.6096 Y46.6441 
G01 X19.7849 Y46.5714 
G01 X19.9711 Y46.5344 
G01 X20.1609 Y46.5344 
G01 X20.3471 Y46.5714 
G01 X20.5224 Y46.6441 
G01 X20.6803 Y46.7495 
G01 X20.8145 Y46.8837 
G01 X20.9199 Y47.0416 
G01 X20.9926 Y47.2169 
G01 X21.0296 Y47.4031 
G00 Z3.0000  
G00 X18.4896 Y47.4031 
G01 Z-0.0400 F100   
G01 X18.4896 Y47.5929 F100   
G01 X18.4526 Y47.7791 
G01 X18.3799 Y47.9544 
G01 X18.2745 Y48.1123 
G01 X18.1403 Y48.2465 
G01 X17.9824 Y48.3519 
G01 X17.8071 Y48.4246 
G01 X17.6209 Y48.4616 
G01 X17.4311 Y48.4616 
G01 X17.2449 Y48.4246 
G01 X17.0696 Y48.3519 
G01 X16.9117 Y48.2465 
G01 X16.7775 Y48.1123 
G01 X16.6721 Y47.9544 
G01 X16.5994 Y47.7791 
G01 X16.5624 Y47.5929 
G01 X16.5624 Y47.4031 
G01 X16.5994 Y47.2169 
G01 X16.6721 Y47.0416 
G01 X16.7775 Y46.8837 
G01 X16.9117 Y46.7495 
G01 X17.0696 Y46.6441 
G01 X17.2449 Y46.5714 
G01 X17.4311 Y46.5344 
G01 X17.6209 Y46.5344 
G01 X17.8071 Y46.5714 
G01 X17.9824 Y46.6441 
G01 X18.1403 Y46.7495 
G01 X18.2745 Y46.8837 
G01 X18.3799 Y47.0416 
G01 X18.4526 Y47.2169 
G01 X18.4896 Y47.4031 
G00 Z3.0000  
G00 X26.1096 Y49.9431 
G01 Z-0.0400 F100   
G01 X26.1096 Y50.1329 F100   
G01 X26.0726 Y50.3191 
G01 X25.9999 Y50.4944 
G01 X25.8945 Y50.6523 
G01 X25.7603 Y50.7865 
G01 X25.6024 Y50.8919 
G01 X25.4271 Y50.9646 
G01 X25.2409 Y51.0016 
G01 X25.0511 Y51.0016 
G01 X24.8649 Y50.9646 
G01 X24.6896 Y50.8919 
G01 X24.5317 Y50.7865 
G01 X24.3975 Y50.6523 
G01 X24.2921 Y50.4944 
G01 X24.2194 Y50.3191 
G01 X24.1824 Y50.1329 
G01 X24.1824 Y49.9431 
G01 X24.2194 Y49.7569 
G01 X24.2921 Y49.5816 
G01 X24.3975 Y49.4237 
G01 X24.5317 Y49.2895 
G01 X24.6896 Y49.1841 
G01 X24.8649 Y49.1114 
G01 X25.0511 Y49.0744 
G01 X25.2409 Y49.0744 
G01 X25.4271 Y49.1114 
G01 X25.6024 Y49.1841 
G01 X25.7603 Y49.2895 
G01 X25.8945 Y49.4237 
G01 X25.9999 Y49.5816 
G01 X26.0726 Y49.7569 
G01 X26.1096 Y49.9431 
G00 Z3.0000  
G00 X23.5696 Y49.9431 
G01 Z-0.0400 F100   
G01 X23.5696 Y50.1329 F100   
G01 X23.5326 Y50.3191 
G01 X23.4599 Y50.4944 
G01 X23.3545 Y50.6523 
G01 X23.2203 Y50.7865 
G01 X23.0624 Y50.8919 
G01 X22.8871 Y50.9646 
G01 X22.7009 Y51.0016 
G01 X22.5111 Y51.0016 
G01 X22.3249 Y50.9646 
G01 X22.1496 Y50.8919 
G01 X21.9917 Y50.7865 
G01 X21.8575 Y50.6523 
G01 X21.7521 Y50.4944 
G01 X21.6794 Y50.3191 
G01 X21.6424 Y50.1329 
G01 X21.6424 Y49.9431 
G01 X21.6794 Y49.7569 
G01 X21.7521 Y49.5816 
G01 X21.8575 Y49.4237 
G01 X21.9917 Y49.2895 
G01 X22.1496 Y49.1841 
G01 X22.3249 Y49.1114 
G01 X22.5111 Y49.0744 
G01 X22.7009 Y49.0744 
G01 X22.8871 Y49.1114 
G01 X23.0624 Y49.1841 
G01 X23.2203 Y49.2895 
G01 X23.3545 Y49.4237 
G01 X23.4599 Y49.5816 
G01 X23.5326 Y49.7569 
G01 X23.5696 Y49.9431 
G00 Z3.0000  
G00 X21.0296 Y49.9431 
G01 Z-0.0400 F100   
G01 X21.0296 Y50.1329 F100   
G01 X20.9926 Y50.3191 
G01 X20.9199 Y50.4944 
G01 X20.8145 Y50.6523 
G01 X20.6803 Y50.7865 
G01 X20.5224 Y50.8919 
G01 X20.3471 Y50.9646 
G01 X20.1609 Y51.0016 
G01 X19.9711 Y51.0016 
G01 X19.7849 Y50.9646 
G01 X19.6096 Y50.8919 
G01 X19.4517 Y50.7865 
G01 X19.3175 Y50.6523 
G01 X19.2121 Y50.4944 
G01 X19.1394 Y50.3191 
G01 X19.1024 Y50.1329 
G01 X19.1024 Y49.9431 
G01 X19.1394 Y49.7569 
G01 X19.2121 Y49.5816 
G01 X19.3175 Y49.4237 
G01 X19.4517 Y49.2895 
G01 X19.6096 Y49.1841 
G01 X19.7849 Y49.1114 
G01 X19.9711 Y49.0744 
G01 X20.1609 Y49.0744 
G01 X20.3471 Y49.1114 
G01 X20.5224 Y49.1841 
G01 X20.6803 Y49.2895 
G01 X20.8145 Y49.4237 
G01 X20.9199 Y49.5816 
G01 X20.9926 Y49.7569 
G01 X21.0296 Y49.9431 
G00 Z3.0000  
G00 X18.4896 Y49.9431 
G01 Z-0.0400 F100   
G01 X18.4896 Y50.1329 F100   
G01 X18.4526 Y50.3191 
G01 X18.3799 Y50.4944 
G01 X18.2745 Y50.6523 
G01 X18.1403 Y50.7865 
G01 X17.9824 Y50.8919 
G01 X17.8071 Y50.9646 
G01 X17.6209 Y51.0016 
G01 X17.4311 Y51.0016 
G01 X17.2449 Y50.9646 
G01 X17.0696 Y50.8919 
G01 X16.9117 Y50.7865 
G01 X16.7775 Y50.6523 
G01 X16.6721 Y50.4944 
G01 X16.5994 Y50.3191 
G01 X16.5624 Y50.1329 
G01 X16.5624 Y49.9431 
G01 X16.5994 Y49.7569 
G01 X16.6721 Y49.5816 
G01 X16.7775 Y49.4237 
G01 X16.9117 Y49.2895 
G01 X17.0696 Y49.1841 
G01 X17.2449 Y49.1114 
G01 X17.4311 Y49.0744 
G01 X17.6209 Y49.0744 
G01 X17.8071 Y49.1114 
G01 X17.9824 Y49.1841 
G01 X18.1403 Y49.2895 
G01 X18.2745 Y49.4237 
G01 X18.3799 Y49.5816 
G01 X18.4526 Y49.7569 
G01 X18.4896 Y49.9431 
G00 Z3.0000  
G00 X26.1096 Y52.4831 
G01 Z-0.0400 F100   
G01 X26.1096 Y52.6729 F100   
G01 X26.0726 Y52.8591 
G01 X25.9999 Y53.0344 
G01 X25.8945 Y53.1923 
G01 X25.7603 Y53.3265 
G01 X25.6024 Y53.4319 
G01 X25.4271 Y53.5046 
G01 X25.2409 Y53.5416 
G01 X25.0511 Y53.5416 
G01 X24.8649 Y53.5046 
G01 X24.6896 Y53.4319 
G01 X24.5317 Y53.3265 
G01 X24.3975 Y53.1923 
G01 X24.2921 Y53.0344 
G01 X24.2194 Y52.8591 
G01 X24.1824 Y52.6729 
G01 X24.1824 Y52.4831 
G01 X24.2194 Y52.2969 
G01 X24.2921 Y52.1216 
G01 X24.3975 Y51.9637 
G01 X24.5317 Y51.8295 
G01 X24.6896 Y51.7241 
G01 X24.8649 Y51.6514 
G01 X25.0511 Y51.6144 
G01 X25.2409 Y51.6144 
G01 X25.4271 Y51.6514 
G01 X25.6024 Y51.7241 
G01 X25.7603 Y51.8295 
G01 X25.8945 Y51.9637 
G01 X25.9999 Y52.1216 
G01 X26.0726 Y52.2969 
G01 X26.1096 Y52.4831 
G00 Z3.0000  
G00 X23.5696 Y52.4831 
G01 Z-0.0400 F100   
G01 X23.5696 Y52.6729 F100   
G01 X23.5326 Y52.8591 
G01 X23.4599 Y53.0344 
G01 X23.3545 Y53.1923 
G01 X23.2203 Y53.3265 
G01 X23.0624 Y53.4319 
G01 X22.8871 Y53.5046 
G01 X22.7009 Y53.5416 
G01 X22.5111 Y53.5416 
G01 X22.3249 Y53.5046 
G01 X22.1496 Y53.4319 
G01 X21.9917 Y53.3265 
G01 X21.8575 Y53.1923 
G01 X21.7521 Y53.0344 
G01 X21.6794 Y52.8591 
G01 X21.6424 Y52.6729 
G01 X21.6424 Y52.4831 
G01 X21.6794 Y52.2969 
G01 X21.7521 Y52.1216 
G01 X21.8575 Y51.9637 
G01 X21.9917 Y51.8295 
G01 X22.1496 Y51.7241 
G01 X22.3249 Y51.6514 
G01 X22.5111 Y51.6144 
G01 X22.7009 Y51.6144 
G01 X22.8871 Y51.6514 
G01 X23.0624 Y51.7241 
G01 X23.2203 Y51.8295 
G01 X23.3545 Y51.9637 
G01 X23.4599 Y52.1216 
G01 X23.5326 Y52.2969 
G01 X23.5696 Y52.4831 
G00 Z3.0000  
G00 X21.0296 Y52.4831 
G01 Z-0.0400 F100   
G01 X21.0296 Y52.6729 F100   
G01 X20.9926 Y52.8591 
G01 X20.9199 Y53.0344 
G01 X20.8145 Y53.1923 
G01 X20.6803 Y53.3265 
G01 X20.5224 Y53.4319 
G01 X20.3471 Y53.5046 
G01 X20.1609 Y53.5416 
G01 X19.9711 Y53.5416 
G01 X19.7849 Y53.5046 
G01 X19.6096 Y53.4319 
G01 X19.4517 Y53.3265 
G01 X19.3175 Y53.1923 
G01 X19.2121 Y53.0344 
G01 X19.1394 Y52.8591 
G01 X19.1024 Y52.6729 
G01 X19.1024 Y52.4831 
G01 X19.1394 Y52.2969 
G01 X19.2121 Y52.1216 
G01 X19.3175 Y51.9637 
G01 X19.4517 Y51.8295 
G01 X19.6096 Y51.7241 
G01 X19.7849 Y51.6514 
G01 X19.9711 Y51.6144 
G01 X20.1609 Y51.6144 
G01 X20.3471 Y51.6514 
G01 X20.5224 Y51.7241 
G01 X20.6803 Y51.8295 
G01 X20.8145 Y51.9637 
G01 X20.9199 Y52.1216 
G01 X20.9926 Y52.2969 
G01 X21.0296 Y52.4831 
G00 Z3.0000  
G00 X18.4896 Y52.4831 
G01 Z-0.0400 F100   
G01 X18.4896 Y52.6729 F100   
G01 X18.4526 Y52.8591 
G01 X18.3799 Y53.0344 
G01 X18.2745 Y53.1923 
G01 X18.1403 Y53.3265 
G01 X17.9824 Y53.4319 
G01 X17.8071 Y53.5046 
G01 X17.6209 Y53.5416 
G01 X17.4311 Y53.5416 
G01 X17.2449 Y53.5046 
G01 X17.0696 Y53.4319 
G01 X16.9117 Y53.3265 
G01 X16.7775 Y53.1923 
G01 X16.6721 Y53.0344 
G01 X16.5994 Y52.8591 
G01 X16.5624 Y52.6729 
G01 X16.5624 Y52.4831 
G01 X16.5994 Y52.2969 
G01 X16.6721 Y52.1216 
G01 X16.7775 Y51.9637 
G01 X16.9117 Y51.8295 
G01 X17.0696 Y51.7241 
G01 X17.2449 Y51.6514 
G01 X17.4311 Y51.6144 
G01 X17.6209 Y51.6144 
G01 X17.8071 Y51.6514 
G01 X17.9824 Y51.7241 
G01 X18.1403 Y51.8295 
G01 X18.2745 Y51.9637 
G01 X18.3799 Y52.1216 
G01 X18.4526 Y52.2969 
G01 X18.4896 Y52.4831 
G00 Z3.0000  
G00 X37.1618 Y13.5186 
G01 Z-0.0400 F100   
G01 X37.1618 Y0.9594  F100   
G01 X37.1911 Y0.8499  
G01 X37.2478 Y0.7519  
G01 X37.3279 Y0.6718  
G01 X37.4259 Y0.6151  
G01 X37.5354 Y0.5858  
G01 X37.6486 Y0.5858  
G01 X37.7581 Y0.6151  
G01 X37.8561 Y0.6718  
G01 X37.9362 Y0.7519  
G01 X37.9929 Y0.8499  
G01 X38.0222 Y0.9594  
G01 X38.0222 Y13.5186 
G01 X37.9929 Y13.6280 
G01 X37.9362 Y13.7261 
G01 X37.8561 Y13.8062 
G01 X37.7581 Y13.8629 
G01 X37.6486 Y13.8922 
G01 X37.5354 Y13.8922 
G01 X37.4259 Y13.8629 
G01 X37.3279 Y13.8062 
G01 X37.2478 Y13.7261 
G01 X37.1911 Y13.6280 
G01 X37.1618 Y13.5186 
G00 Z3.0000  
G00 X34.6218 Y7.4226  
G01 Z-0.0400 F100   
G01 X34.6218 Y0.9594  F100   
G01 X34.6511 Y0.8499  
G01 X34.7078 Y0.7519  
G01 X34.7878 Y0.6718  
G01 X34.8859 Y0.6151  
G01 X34.9954 Y0.5858  
G01 X35.1086 Y0.5858  
G01 X35.2181 Y0.6151  
G01 X35.3161 Y0.6718  
G01 X35.3962 Y0.7519  
G01 X35.4529 Y0.8499  
G01 X35.4822 Y0.9594  
G01 X35.4822 Y7.4226  
G01 X35.4529 Y7.5321  
G01 X35.3962 Y7.6301  
G01 X35.3161 Y7.7102  
G01 X35.2181 Y7.7669  
G01 X35.1086 Y7.7962  
G01 X34.9954 Y7.7962  
G01 X34.8859 Y7.7669  
G01 X34.7878 Y7.7102  
G01 X34.7078 Y7.6301  
G01 X34.6511 Y7.5321  
G01 X34.6218 Y7.4226  
G00 Z3.0000  
G00 X32.0818 Y7.4226  
G01 Z-0.0400 F100   
G01 X32.0818 Y0.9594  F100   
G01 X32.1111 Y0.8499  
G01 X32.1678 Y0.7519  
G01 X32.2478 Y0.6718  
G01 X32.3459 Y0.6151  
G01 X32.4554 Y0.5858  
G01 X32.5686 Y0.5858  
G01 X32.6780 Y0.6151  
G01 X32.7761 Y0.6718  
G01 X32.8562 Y0.7519  
G01 X32.9129 Y0.8499  
G01 X32.9422 Y0.9594  
G01 X32.9422 Y7.4226  
G01 X32.9129 Y7.5321  
G01 X32.8562 Y7.6301  
G01 X32.7761 Y7.7102  
G01 X32.6780 Y7.7669  
G01 X32.5686 Y7.7962  
G01 X32.4554 Y7.7962  
G01 X32.3459 Y7.7669  
G01 X32.2478 Y7.7102  
G01 X32.1678 Y7.6301  
G01 X32.1111 Y7.5321  
G01 X32.0818 Y7.4226  
G00 Z3.0000  
G00 X29.5418 Y7.4226  
G01 Z-0.0400 F100   
G01 X29.5418 Y1.2134  F100   
G01 X29.5711 Y1.1039  
G01 X29.6278 Y1.0059  
G01 X29.7079 Y0.9258  
G01 X29.8059 Y0.8691  
G01 X29.9154 Y0.8398  
G01 X30.0286 Y0.8398  
G01 X30.1380 Y0.8691  
G01 X30.2361 Y0.9258  
G01 X30.3162 Y1.0059  
G01 X30.3729 Y1.1039  
G01 X30.4022 Y1.2134  
G01 X30.4022 Y7.4226  
G01 X30.3729 Y7.5321  
G01 X30.3162 Y7.6301  
G01 X30.2361 Y7.7102  
G01 X30.1380 Y7.7669  
G01 X30.0286 Y7.7962  
G01 X29.9154 Y7.7962  
G01 X29.8059 Y7.7669  
G01 X29.7079 Y7.7102  
G01 X29.6278 Y7.6301  
G01 X29.5711 Y7.5321  
G01 X29.5418 Y7.4226  
G00 Z3.0000  
G00 X27.0018 Y7.4226  
G01 Z-0.0400 F100   
G01 X27.0018 Y0.9594  F100   
G01 X27.0311 Y0.8499  
G01 X27.0878 Y0.7519  
G01 X27.1679 Y0.6718  
G01 X27.2659 Y0.6151  
G01 X27.3754 Y0.5858  
G01 X27.4886 Y0.5858  
G01 X27.5981 Y0.6151  
G01 X27.6961 Y0.6718  
G01 X27.7762 Y0.7519  
G01 X27.8329 Y0.8499  
G01 X27.8622 Y0.9594  
G01 X27.8622 Y7.4226  
G01 X27.8329 Y7.5321  
G01 X27.7762 Y7.6301  
G01 X27.6961 Y7.7102  
G01 X27.5981 Y7.7669  
G01 X27.4886 Y7.7962  
G01 X27.3754 Y7.7962  
G01 X27.2659 Y7.7669  
G01 X27.1679 Y7.7102  
G01 X27.0878 Y7.6301  
G01 X27.0311 Y7.5321  
G01 X27.0018 Y7.4226  
G00 Z3.0000  
G00 X24.4618 Y13.7726 
G01 Z-0.0400 F100   
G01 X24.4618 Y0.9594  F100   
G01 X24.4911 Y0.8499  
G01 X24.5478 Y0.7519  
G01 X24.6279 Y0.6718  
G01 X24.7259 Y0.6151  
G01 X24.8354 Y0.5858  
G01 X24.9486 Y0.5858  
G01 X25.0581 Y0.6151  
G01 X25.1561 Y0.6718  
G01 X25.2362 Y0.7519  
G01 X25.2929 Y0.8499  
G01 X25.3222 Y0.9594  
G01 X25.3222 Y13.7726 
G01 X25.2929 Y13.8821 
G01 X25.2362 Y13.9801 
G01 X25.1561 Y14.0602 
G01 X25.0581 Y14.1169 
G01 X24.9486 Y14.1462 
G01 X24.8354 Y14.1462 
G01 X24.7259 Y14.1169 
G01 X24.6279 Y14.0602 
G01 X24.5478 Y13.9801 
G01 X24.4911 Y13.8821 
G01 X24.4618 Y13.7726 
G00 Z3.0000  
G00 X21.9218 Y7.6766  
G01 Z-0.0400 F100   
G01 X21.9218 Y0.9594  F100   
G01 X21.9511 Y0.8499  
G01 X22.0078 Y0.7519  
G01 X22.0878 Y0.6718  
G01 X22.1859 Y0.6151  
G01 X22.2954 Y0.5858  
G01 X22.4086 Y0.5858  
G01 X22.5181 Y0.6151  
G01 X22.6161 Y0.6718  
G01 X22.6962 Y0.7519  
G01 X22.7529 Y0.8499  
G01 X22.7822 Y0.9594  
G01 X22.7822 Y7.6766  
G01 X22.7529 Y7.7861  
G01 X22.6962 Y7.8841  
G01 X22.6161 Y7.9642  
G01 X22.5181 Y8.0209  
G01 X22.4086 Y8.0502  
G01 X22.2954 Y8.0502  
G01 X22.1859 Y8.0209  
G01 X22.0878 Y7.9642  
G01 X22.0078 Y7.8841  
G01 X21.9511 Y7.7861  
G01 X21.9218 Y7.6766  
G00 Z3.0000  
G00 X19.3818 Y7.4226  
G01 Z-0.0400 F100   
G01 X19.3818 Y0.9594  F100   
G01 X19.4111 Y0.8499  
G01 X19.4678 Y0.7519  
G01 X19.5479 Y0.6718  
G01 X19.6459 Y0.6151  
G01 X19.7554 Y0.5858  
G01 X19.8686 Y0.5858  
G01 X19.9780 Y0.6151  
G01 X20.0761 Y0.6718  
G01 X20.1562 Y0.7519  
G01 X20.2129 Y0.8499  
G01 X20.2422 Y0.9594  
G01 X20.2422 Y7.4226  
G01 X20.2129 Y7.5321  
G01 X20.1562 Y7.6301  
G01 X20.0761 Y7.7102  
G01 X19.9780 Y7.7669  
G01 X19.8686 Y7.7962  
G01 X19.7554 Y7.7962  
G01 X19.6459 Y7.7669  
G01 X19.5479 Y7.7102  
G01 X19.4678 Y7.6301  
G01 X19.4111 Y7.5321  
G01 X19.3818 Y7.4226  
G00 Z3.0000  
G00 X16.8418 Y7.4226  
G01 Z-0.0400 F100   
G01 X16.8418 Y1.2134  F100   
G01 X16.8711 Y1.1039  
G01 X16.9278 Y1.0059  
G01 X17.0079 Y0.9258  
G01 X17.1059 Y0.8691  
G01 X17.2154 Y0.8398  
G01 X17.3286 Y0.8398  
G01 X17.4381 Y0.8691  
G01 X17.5361 Y0.9258  
G01 X17.6162 Y1.0059  
G01 X17.6729 Y1.1039  
G01 X17.7022 Y1.2134  
G01 X17.7022 Y7.4226  
G01 X17.6729 Y7.5321  
G01 X17.6162 Y7.6301  
G01 X17.5361 Y7.7102  
G01 X17.4381 Y7.7669  
G01 X17.3286 Y7.7962  
G01 X17.2154 Y7.7962  
G01 X17.1059 Y7.7669  
G01 X17.0079 Y7.7102  
G01 X16.9278 Y7.6301  
G01 X16.8711 Y7.5321  
G01 X16.8418 Y7.4226  
G00 Z3.0000  
G00 X14.3018 Y7.4226  
G01 Z-0.0400 F100   
G01 X14.3018 Y0.9594  F100   
G01 X14.3311 Y0.8499  
G01 X14.3878 Y0.7519  
G01 X14.4679 Y0.6718  
G01 X14.5659 Y0.6151  
G01 X14.6754 Y0.5858  
G01 X14.7886 Y0.5858  
G01 X14.8981 Y0.6151  
G01 X14.9961 Y0.6718  
G01 X15.0762 Y0.7519  
G01 X15.1329 Y0.8499  
G01 X15.1622 Y0.9594  
G01 X15.1622 Y7.4226  
G01 X15.1329 Y7.5321  
G01 X15.0762 Y7.6301  
G01 X14.9961 Y7.7102  
G01 X14.8981 Y7.7669  
G01 X14.7886 Y7.7962  
G01 X14.6754 Y7.7962  
G01 X14.5659 Y7.7669  
G01 X14.4679 Y7.7102  
G01 X14.3878 Y7.6301  
G01 X14.3311 Y7.5321  
G01 X14.3018 Y7.4226  
G00 Z3.0000  
G00 X11.7618 Y13.5186 
G01 Z-0.0400 F100   
G01 X11.7618 Y0.9594  F100   
G01 X11.7911 Y0.8499  
G01 X11.8478 Y0.7519  
G01 X11.9279 Y0.6718  
G01 X12.0259 Y0.6151  
G01 X12.1354 Y0.5858  
G01 X12.2486 Y0.5858  
G01 X12.3581 Y0.6151  
G01 X12.4561 Y0.6718  
G01 X12.5362 Y0.7519  
G01 X12.5929 Y0.8499  
G01 X12.6222 Y0.9594  
G01 X12.6222 Y13.5186 
G01 X12.5929 Y13.6280 
G01 X12.5362 Y13.7261 
G01 X12.4561 Y13.8062 
G01 X12.3581 Y13.8629 
G01 X12.2486 Y13.8922 
G01 X12.1354 Y13.8922 
G01 X12.0259 Y13.8629 
G01 X11.9279 Y13.8062 
G01 X11.8478 Y13.7261 
G01 X11.7911 Y13.6280 
G01 X11.7618 Y13.5186 
G00 Z3.0000  
G00 X9.2218  Y7.4226  
G01 Z-0.0400 F100   
G01 X9.2218  Y0.9594  F100   
G01 X9.2511  Y0.8499  
G01 X9.3078  Y0.7519  
G01 X9.3879  Y0.6718  
G01 X9.4859  Y0.6151  
G01 X9.5954  Y0.5858  
G01 X9.7086  Y0.5858  
G01 X9.8181  Y0.6151  
G01 X9.9161  Y0.6718  
G01 X9.9962  Y0.7519  
G01 X10.0529 Y0.8499  
G01 X10.0822 Y0.9594  
G01 X10.0822 Y7.4226  
G01 X10.0529 Y7.5321  
G01 X9.9962  Y7.6301  
G01 X9.9161  Y7.7102  
G01 X9.8181  Y7.7669  
G01 X9.7086  Y7.7962  
G01 X9.5954  Y7.7962  
G01 X9.4859  Y7.7669  
G01 X9.3879  Y7.7102  
G01 X9.3078  Y7.6301  
G01 X9.2511  Y7.5321  
G01 X9.2218  Y7.4226  
G00 Z3.0000  
G00 X6.6818  Y7.4226  
G01 Z-0.0400 F100   
G01 X6.6818  Y0.9594  F100   
G01 X6.7111  Y0.8499  
G01 X6.7678  Y0.7519  
G01 X6.8479  Y0.6718  
G01 X6.9459  Y0.6151  
G01 X7.0554  Y0.5858  
G01 X7.1686  Y0.5858  
G01 X7.2781  Y0.6151  
G01 X7.3761  Y0.6718  
G01 X7.4562  Y0.7519  
G01 X7.5129  Y0.8499  
G01 X7.5422  Y0.9594  
G01 X7.5422  Y7.4226  
G01 X7.5129  Y7.5321  
G01 X7.4562  Y7.6301  
G01 X7.3761  Y7.7102  
G01 X7.2781  Y7.7669  
G01 X7.1686  Y7.7962  
G01 X7.0554  Y7.7962  
G01 X6.9459  Y7.7669  
G01 X6.8479  Y7.7102  
G01 X6.7678  Y7.6301  
G01 X6.7111  Y7.5321  
G01 X6.6818  Y7.4226  
G00 Z3.0000  
G00 X4.1418  Y7.4226  
G01 Z-0.0400 F100   
G01 X4.1418  Y1.2134  F100   
G01 X4.1711  Y1.1039  
G01 X4.2278  Y1.0059  
G01 X4.3079  Y0.9258  
G01 X4.4059  Y0.8691  
G01 X4.5154  Y0.8398  
G01 X4.6286  Y0.8398  
G01 X4.7381  Y0.8691  
G01 X4.8361  Y0.9258  
G01 X4.9162  Y1.0059  
G01 X4.9729  Y1.1039  
G01 X5.0022  Y1.2134  
G01 X5.0022  Y7.4226  
G01 X4.9729  Y7.5321  
G01 X4.9162  Y7.6301  
G01 X4.8361  Y7.7102  
G01 X4.7381  Y7.7669  
G01 X4.6286  Y7.7962  
G01 X4.5154  Y7.7962  
G01 X4.4059  Y7.7669  
G01 X4.3079  Y7.7102  
G01 X4.2278  Y7.6301  
G01 X4.1711  Y7.5321  
G01 X4.1418  Y7.4226  
G00 Z3.0000  
G00 X1.6018  Y7.4226  
G01 Z-0.0400 F100   
G01 X1.6018  Y0.9594  F100   
G01 X1.6311  Y0.8499  
G01 X1.6878  Y0.7519  
G01 X1.7679  Y0.6718  
G01 X1.8659  Y0.6151  
G01 X1.9754  Y0.5858  
G01 X2.0886  Y0.5858  
G01 X2.1981  Y0.6151  
G01 X2.2961  Y0.6718  
G01 X2.3762  Y0.7519  
G01 X2.4329  Y0.8499  
G01 X2.4622  Y0.9594  
G01 X2.4622  Y7.4226  
G01 X2.4329  Y7.5321  
G01 X2.3762  Y7.6301  
G01 X2.2961  Y7.7102  
G01 X2.1981  Y7.7669  
G01 X2.0886  Y7.7962  
G01 X1.9754  Y7.7962  
G01 X1.8659  Y7.7669  
G01 X1.7679  Y7.7102  
G01 X1.6878  Y7.6301  
G01 X1.6311  Y7.5321  
G01 X1.6018  Y7.4226  
G00 Z3.0000  
G00 X13.0169 Y42.8734 
G01 Z-0.0400 F100   
G01 X12.9714 Y42.8734 F100   
G01 X12.9714 Y45.0866 
G01 X15.2649 Y45.0866 
G01 X15.3110 Y45.1057 
G01 X15.3463 Y45.1410 
G01 X15.3654 Y45.1871 
G01 X15.3654 Y53.6189 
G01 X15.3463 Y53.6650 
G01 X15.3110 Y53.7003 
G01 X15.2649 Y53.7194 
G01 X10.6431 Y53.7194 
G01 X10.5970 Y53.7003 
G01 X10.5617 Y53.6650 
G01 X10.5426 Y53.6189 
G01 X10.5426 Y45.1871 
G01 X10.5617 Y45.1410 
G01 X10.5970 Y45.1057 
G01 X10.6431 Y45.0866 
G01 X11.9206 Y45.0866 
G01 X11.9206 Y42.8734 
G01 X11.3671 Y42.8734 
G01 X11.3210 Y42.8543 
G01 X11.2857 Y42.8190 
G01 X11.2666 Y42.7729 
G01 X11.2666 Y41.4231 
G01 X11.2857 Y41.3770 
G01 X11.3210 Y41.3417 
G01 X11.3671 Y41.3226 
G01 X13.0169 Y41.3226 
G01 X13.0630 Y41.3417 
G01 X13.0983 Y41.3770 
G01 X13.1174 Y41.4231 
G01 X13.1174 Y42.7729 
G01 X13.0983 Y42.8190 
G01 X13.0630 Y42.8543 
G01 X13.0169 Y42.8734 
G00 Z3.0000  
G00 X7.9369  Y42.8734 
G01 Z-0.0400 F100   
G01 X7.3834  Y42.8734 F100   
G01 X7.3834  Y45.0866 
G01 X7.6449  Y45.0866 
G01 X7.6910  Y45.1057 
G01 X7.7263  Y45.1410 
G01 X7.7454  Y45.1871 
G01 X7.7454  Y53.6189 
G01 X7.7263  Y53.6650 
G01 X7.6910  Y53.7003 
G01 X7.6449  Y53.7194 
G01 X3.0231  Y53.7194 
G01 X2.9770  Y53.7003 
G01 X2.9417  Y53.6650 
G01 X2.9226  Y53.6189 
G01 X2.9226  Y45.1871 
G01 X2.9417  Y45.1410 
G01 X2.9770  Y45.1057 
G01 X3.0231  Y45.0866 
G01 X6.3326  Y45.0866 
G01 X6.3326  Y42.8734 
G01 X6.2871  Y42.8734 
G01 X6.2410  Y42.8543 
G01 X6.2057  Y42.8190 
G01 X6.1866  Y42.7729 
G01 X6.1866  Y41.4231 
G01 X6.2057  Y41.3770 
G01 X6.2410  Y41.3417 
G01 X6.2871  Y41.3226 
G01 X7.9369  Y41.3226 
G01 X7.9830  Y41.3417 
G01 X8.0183  Y41.3770 
G01 X8.0374  Y41.4231 
G01 X8.0374  Y42.7729 
G01 X8.0183  Y42.8190 
G01 X7.9830  Y42.8543 
G01 X7.9369  Y42.8734 
G00 Z3.0000  
G00 X7.9369  Y40.9734 
G01 Z-0.0400 F100   
G01 X6.2871  Y40.9734 F100   
G01 X6.2410  Y40.9543 
G01 X6.2057  Y40.9190 
G01 X6.1866  Y40.8729 
G01 X6.1866  Y39.5231 
G01 X6.2057  Y39.4770 
G01 X6.2410  Y39.4417 
G01 X6.2871  Y39.4226 
G01 X7.9369  Y39.4226 
G01 X7.9830  Y39.4417 
G01 X8.0183  Y39.4770 
G01 X8.0374  Y39.5231 
G01 X8.0374  Y39.6066 
G01 X11.2666 Y39.6066 
G01 X11.2666 Y39.5231 
G01 X11.2857 Y39.4770 
G01 X11.3210 Y39.4417 
G01 X11.3671 Y39.4226 
G01 X13.0169 Y39.4226 
G01 X13.0630 Y39.4417 
G01 X13.0983 Y39.4770 
G01 X13.1174 Y39.5231 
G01 X13.1174 Y40.8729 
G01 X13.0983 Y40.9190 
G01 X13.0630 Y40.9543 
G01 X13.0169 Y40.9734 
G01 X11.3671 Y40.9734 
G01 X11.3210 Y40.9543 
G01 X11.2857 Y40.9190 
G01 X11.2666 Y40.8729 
G01 X11.2666 Y40.6574 
G01 X8.0374  Y40.6574 
G01 X8.0374  Y40.8729 
G01 X8.0183  Y40.9190 
G01 X7.9830  Y40.9543 
G01 X7.9369  Y40.9734 
G00 Z3.0000  
G00 X28.7414 Y26.3111 
G01 Z-0.0400 F100   
G01 X28.7414 Y29.0609 F100   
G01 X28.7223 Y29.1070 
G01 X28.6870 Y29.1423 
G01 X28.6409 Y29.1614 
G01 X26.9911 Y29.1614 
G01 X26.9450 Y29.1423 
G01 X26.9097 Y29.1070 
G01 X26.8906 Y29.0609 
G01 X26.8906 Y26.3111 
G01 X26.9097 Y26.2650 
G01 X26.9450 Y26.2297 
G01 X26.9911 Y26.2106 
G01 X28.6409 Y26.2106 
G01 X28.6870 Y26.2297 
G01 X28.7223 Y26.2650 
G01 X28.7414 Y26.3111 
G00 Z3.0000  
G00 X25.9414 Y26.3111 
G01 Z-0.0400 F100   
G01 X25.9414 Y29.0609 F100   
G01 X25.9223 Y29.1070 
G01 X25.8870 Y29.1423 
G01 X25.8409 Y29.1614 
G01 X24.1911 Y29.1614 
G01 X24.1450 Y29.1423 
G01 X24.1097 Y29.1070 
G01 X24.0906 Y29.0609 
G01 X24.0906 Y26.3111 
G01 X24.1097 Y26.2650 
G01 X24.1450 Y26.2297 
G01 X24.1911 Y26.2106 
G01 X25.8409 Y26.2106 
G01 X25.8870 Y26.2297 
G01 X25.9223 Y26.2650 
G01 X25.9414 Y26.3111 
G00 Z3.0000  
G00 X27.6334 Y16.4971 
G01 Z-0.0400 F100   
G01 X27.6334 Y18.0469 F100   
G01 X27.6143 Y18.0930 
G01 X27.5790 Y18.1283 
G01 X27.5329 Y18.1474 
G01 X26.1831 Y18.1474 
G01 X26.1370 Y18.1283 
G01 X26.1017 Y18.0930 
G01 X26.0826 Y18.0469 
G01 X26.0826 Y16.4971 
G01 X26.1017 Y16.4510 
G01 X26.1370 Y16.4157 
G01 X26.1831 Y16.3966 
G01 X27.5329 Y16.3966 
G01 X27.5790 Y16.4157 
G01 X27.6143 Y16.4510 
G01 X27.6334 Y16.4971 
G00 Z3.0000  
G00 X25.7334 Y16.4971 
G01 Z-0.0400 F100   
G01 X25.7334 Y18.0469 F100   
G01 X25.7143 Y18.0930 
G01 X25.6790 Y18.1283 
G01 X25.6329 Y18.1474 
G01 X24.2831 Y18.1474 
G01 X24.2370 Y18.1283 
G01 X24.2017 Y18.0930 
G01 X24.1826 Y18.0469 
G01 X24.1826 Y16.4971 
G01 X24.2017 Y16.4510 
G01 X24.2370 Y16.4157 
G01 X24.2831 Y16.3966 
G01 X25.6329 Y16.3966 
G01 X25.6790 Y16.4157 
G01 X25.7143 Y16.4510 
G01 X25.7334 Y16.4971 
G00 Z3.0000  
G00 X28.7414 Y21.4271 
G01 Z-0.0400 F100   
G01 X28.7414 Y23.2769 F100   
G01 X28.7223 Y23.3230 
G01 X28.6870 Y23.3583 
G01 X28.6409 Y23.3774 
G01 X26.9911 Y23.3774 
G01 X26.9450 Y23.3583 
G01 X26.9097 Y23.3230 
G01 X26.8906 Y23.2769 
G01 X26.8906 Y21.4271 
G01 X26.9097 Y21.3810 
G01 X26.9450 Y21.3457 
G01 X26.9911 Y21.3266 
G01 X28.6409 Y21.3266 
G01 X28.6870 Y21.3457 
G01 X28.7223 Y21.3810 
G01 X28.7414 Y21.4271 
G00 Z3.0000  
G00 X25.9414 Y21.4271 
G01 Z-0.0400 F100   
G01 X25.9414 Y23.2769 F100   
G01 X25.9223 Y23.3230 
G01 X25.8870 Y23.3583 
G01 X25.8409 Y23.3774 
G01 X24.1911 Y23.3774 
G01 X24.1450 Y23.3583 
G01 X24.1097 Y23.3230 
G01 X24.0906 Y23.2769 
G01 X24.0906 Y21.4271 
G01 X24.1097 Y21.3810 
G01 X24.1450 Y21.3457 
G01 X24.1911 Y21.3266 
G01 X25.8409 Y21.3266 
G01 X25.8870 Y21.3457 
G01 X25.9223 Y21.3810 
G01 X25.9414 Y21.4271 
G00 Z3.0000  
G00 X36.9664 Y22.5153 
G01 Z-0.0400 F100   
G01 X36.9664 Y22.6967 F100   
G01 X36.9380 Y22.8759 
G01 X36.8820 Y23.0484 
G01 X36.7996 Y23.2100 
G01 X36.6930 Y23.3567 
G01 X36.5647 Y23.4850 
G01 X36.4180 Y23.5916 
G01 X36.2564 Y23.6740 
G01 X36.0839 Y23.7300 
G01 X35.9047 Y23.7584 
G01 X35.7233 Y23.7584 
G01 X35.5441 Y23.7300 
G01 X35.3716 Y23.6740 
G01 X35.2100 Y23.5916 
G01 X35.0633 Y23.4850 
G01 X34.9350 Y23.3567 
G01 X34.8284 Y23.2100 
G01 X34.7460 Y23.0484 
G01 X34.6900 Y22.8759 
G01 X34.6616 Y22.6967 
G01 X34.6616 Y22.5153 
G01 X34.6900 Y22.3361 
G01 X34.7460 Y22.1636 
G01 X34.8284 Y22.0020 
G01 X34.9350 Y21.8553 
G01 X35.0633 Y21.7270 
G01 X35.2100 Y21.6204 
G01 X35.3716 Y21.5380 
G01 X35.5441 Y21.4820 
G01 X35.7233 Y21.4536 
G01 X35.9047 Y21.4536 
G01 X36.0839 Y21.4820 
G01 X36.2564 Y21.5380 
G01 X36.4180 Y21.6204 
G01 X36.5647 Y21.7270 
G01 X36.6930 Y21.8553 
G01 X36.7996 Y22.0020 
G01 X36.8820 Y22.1636 
G01 X36.9380 Y22.3361 
G01 X36.9664 Y22.5153 
G00 Z3.0000  
G00 X36.9046 Y16.9322 
G01 Z-0.0400 F100   
G01 X36.9046 Y17.1038 F100   
G01 X36.8777 Y17.2734 
G01 X36.8247 Y17.4366 
G01 X36.7468 Y17.5896 
G01 X36.6459 Y17.7285 
G01 X36.5245 Y17.8499 
G01 X36.3856 Y17.9508 
G01 X36.2326 Y18.0287 
G01 X36.0694 Y18.0817 
G01 X35.8998 Y18.1086 
G01 X35.7282 Y18.1086 
G01 X35.5586 Y18.0817 
G01 X35.3954 Y18.0287 
G01 X35.2424 Y17.9508 
G01 X35.1035 Y17.8499 
G01 X34.9821 Y17.7285 
G01 X34.8812 Y17.5896 
G01 X34.8033 Y17.4366 
G01 X34.7503 Y17.2734 
G01 X34.7234 Y17.1038 
G01 X34.7234 Y16.9322 
G01 X34.7503 Y16.7626 
G01 X34.8033 Y16.5994 
G01 X34.8812 Y16.4464 
G01 X34.9821 Y16.3075 
G01 X35.1035 Y16.1861 
G01 X35.2424 Y16.0852 
G01 X35.3954 Y16.0073 
G01 X35.5586 Y15.9543 
G01 X35.7282 Y15.9274 
G01 X35.8998 Y15.9274 
G01 X36.0694 Y15.9543 
G01 X36.2326 Y16.0073 
G01 X36.3856 Y16.0852 
G01 X36.5245 Y16.1861 
G01 X36.6459 Y16.3075 
G01 X36.7468 Y16.4464 
G01 X36.8247 Y16.5994 
G01 X36.8777 Y16.7626 
G01 X36.9046 Y16.9322 
G00 Z3.0000  
G00 X36.9046 Y27.8542 
G01 Z-0.0400 F100   
G01 X36.9046 Y28.0258 F100   
G01 X36.8777 Y28.1954 
G01 X36.8247 Y28.3586 
G01 X36.7468 Y28.5116 
G01 X36.6459 Y28.6505 
G01 X36.5245 Y28.7719 
G01 X36.3856 Y28.8728 
G01 X36.2326 Y28.9507 
G01 X36.0694 Y29.0037 
G01 X35.8998 Y29.0306 
G01 X35.7282 Y29.0306 
G01 X35.5586 Y29.0037 
G01 X35.3954 Y28.9507 
G01 X35.2424 Y28.8728 
G01 X35.1035 Y28.7719 
G01 X34.9821 Y28.6505 
G01 X34.8812 Y28.5116 
G01 X34.8033 Y28.3586 
G01 X34.7503 Y28.1954 
G01 X34.7234 Y28.0258 
G01 X34.7234 Y27.8542 
G01 X34.7503 Y27.6846 
G01 X34.8033 Y27.5214 
G01 X34.8812 Y27.3684 
G01 X34.9821 Y27.2295 
G01 X35.1035 Y27.1081 
G01 X35.2424 Y27.0072 
G01 X35.3954 Y26.9293 
G01 X35.5586 Y26.8763 
G01 X35.7282 Y26.8494 
G01 X35.8998 Y26.8494 
G01 X36.0694 Y26.8763 
G01 X36.2326 Y26.9293 
G01 X36.3856 Y27.0072 
G01 X36.5245 Y27.1081 
G01 X36.6459 Y27.2295 
G01 X36.7468 Y27.3684 
G01 X36.8247 Y27.5214 
G01 X36.8777 Y27.6846 
G01 X36.9046 Y27.8542 
G00 Z3.0000  
G00 X1.9720  Y36.6284 
G01 Z-0.0400 F100   
G01 X33.8420 Y36.6284 F100   
G01 X33.9579 Y36.6594 
G01 X34.0617 Y36.7194 
G01 X34.1466 Y36.8043 
G01 X34.2066 Y36.9081 
G01 X34.2376 Y37.0240 
G01 X34.2376 Y37.1440 
G01 X34.2066 Y37.2599 
G01 X34.1466 Y37.3637 
G01 X34.0617 Y37.4486 
G01 X33.9579 Y37.5085 
G01 X33.8420 Y37.5396 
G01 X1.9720  Y37.5396 
G01 X1.8561  Y37.5085 
G01 X1.7523  Y37.4486 
G01 X1.6674  Y37.3637 
G01 X1.6074  Y37.2599 
G01 X1.5764  Y37.1440 
G01 X1.5764  Y37.0240 
G01 X1.6074  Y36.9081 
G01 X1.6674  Y36.8043 
G01 X1.7523  Y36.7194 
G01 X1.8561  Y36.6594 
G01 X1.9720  Y36.6284 
G00 Z3.0000  
G00 X2.7082  Y16.4354 
G01 Z-0.0400 F100   
G01 X11.5158 Y16.4354 F100   
G01 X11.6854 Y16.4623 
G01 X11.8486 Y16.5153 
G01 X12.0016 Y16.5932 
G01 X12.1405 Y16.6941 
G01 X12.2619 Y16.8155 
G01 X12.3628 Y16.9544 
G01 X12.4407 Y17.1074 
G01 X12.4937 Y17.2706 
G01 X12.5206 Y17.4402 
G01 X12.5206 Y17.6118 
G01 X12.4937 Y17.7814 
G01 X12.4407 Y17.9446 
G01 X12.3628 Y18.0976 
G01 X12.2619 Y18.2365 
G01 X12.1405 Y18.3579 
G01 X12.0016 Y18.4588 
G01 X11.8486 Y18.5367 
G01 X11.6854 Y18.5897 
G01 X11.5158 Y18.6166 
G01 X2.7082  Y18.6166 
G01 X2.5386  Y18.5897 
G01 X2.3754  Y18.5367 
G01 X2.2224  Y18.4588 
G01 X2.0835  Y18.3579 
G01 X1.9621  Y18.2365 
G01 X1.8612  Y18.0976 
G01 X1.7833  Y17.9446 
G01 X1.7303  Y17.7814 
G01 X1.7034  Y17.6118 
G01 X1.7034  Y17.4402 
G01 X1.7303  Y17.2706 
G01 X1.7833  Y17.1074 
G01 X1.8612  Y16.9544 
G01 X1.9621  Y16.8155 
G01 X2.0835  Y16.6941 
G01 X2.2224  Y16.5932 
G01 X2.3754  Y16.5153 
G01 X2.5386  Y16.4623 
G01 X2.7082  Y16.4354 
G00 Z3.0000  
G00 X2.4526  Y21.4646 
G01 Z-0.0400 F100   
G01 X17.6134 Y21.4646 F100   
G01 X17.7848 Y21.4987 
G01 X17.9463 Y21.5656 
G01 X18.0917 Y21.6627 
G01 X18.2153 Y21.7863 
G01 X18.3124 Y21.9317 
G01 X18.3793 Y22.0932 
G01 X18.4134 Y22.2646 
G01 X18.4134 Y22.4394 
G01 X18.3793 Y22.6108 
G01 X18.3124 Y22.7723 
G01 X18.2153 Y22.9177 
G01 X18.0917 Y23.0413 
G01 X17.9463 Y23.1384 
G01 X17.7848 Y23.2053 
G01 X17.6134 Y23.2394 
G01 X2.4526  Y23.2394 
G01 X2.2812  Y23.2053 
G01 X2.1197  Y23.1384 
G01 X1.9743  Y23.0413 
G01 X1.8507  Y22.9177 
G01 X1.7536  Y22.7723 
G01 X1.6867  Y22.6108 
G01 X1.6526  Y22.4394 
G01 X1.6526  Y22.2646 
G01 X1.6867  Y22.0932 
G01 X1.7536  Y21.9317 
G01 X1.8507  Y21.7863 
G01 X1.9743  Y21.6627 
G01 X2.1197  Y21.5656 
G01 X2.2812  Y21.4987 
G01 X2.4526  Y21.4646 
G00 Z3.0000  
G00 X2.2111  Y26.9256 
G01 Z-0.0400 F100   
G01 X22.1729 Y26.9256 F100   
G01 X22.3198 Y26.9548 
G01 X22.4582 Y27.0121 
G01 X22.5827 Y27.0954 
G01 X22.6886 Y27.2013 
G01 X22.7719 Y27.3258 
G01 X22.8292 Y27.4642 
G01 X22.8584 Y27.6111 
G01 X22.8584 Y27.7609 
G01 X22.8292 Y27.9078 
G01 X22.7719 Y28.0462 
G01 X22.6886 Y28.1707 
G01 X22.5827 Y28.2766 
G01 X22.4582 Y28.3599 
G01 X22.3198 Y28.4172 
G01 X22.1729 Y28.4464 
G01 X2.2111  Y28.4464 
G01 X2.0642  Y28.4172 
G01 X1.9258  Y28.3599 
G01 X1.8013  Y28.2766 
G01 X1.6954  Y28.1707 
G01 X1.6121  Y28.0462 
G01 X1.5548  Y27.9078 
G01 X1.5256  Y27.7609 
G01 X1.5256  Y27.6111 
G01 X1.5548  Y27.4642 
G01 X1.6121  Y27.3258 
G01 X1.6954  Y27.2013 
G01 X1.8013  Y27.0954 
G01 X1.9258  Y27.0121 
G01 X2.0642  Y26.9548 
G01 X2.2111  Y26.9256 
G00 Z3.0000  
G00 X2.2126  Y32.4628 
G01 Z-0.0400 F100   
G01 X27.2514 Y32.4628 F100   
G01 X27.3931 Y32.5008 
G01 X27.5201 Y32.5741 
G01 X27.6239 Y32.6779 
G01 X27.6972 Y32.8049 
G01 X27.7352 Y32.9466 
G01 X27.7352 Y33.0934 
G01 X27.6972 Y33.2351 
G01 X27.6239 Y33.3621 
G01 X27.5201 Y33.4659 
G01 X27.3931 Y33.5392 
G01 X27.2514 Y33.5772 
G01 X2.2126  Y33.5772 
G01 X2.0709  Y33.5392 
G01 X1.9439  Y33.4659 
G01 X1.8401  Y33.3621 
G01 X1.7668  Y33.2351 
G01 X1.7288  Y33.0934 
G01 X1.7288  Y32.9466 
G01 X1.7668  Y32.8049 
G01 X1.8401  Y32.6779 
G01 X1.9439  Y32.5741 
G01 X2.0709  Y32.5008 
G01 X2.2126  Y32.4628 
G00 Z3.0000  
G00 X26.2366 Y44.8722 
G01 Z-0.0400 F100   
G01 X26.2366 Y45.0438 F100   
G01 X26.2097 Y45.2134 
G01 X26.1567 Y45.3766 
G01 X26.0788 Y45.5296 
G01 X25.9779 Y45.6685 
G01 X25.8565 Y45.7899 
G01 X25.7176 Y45.8908 
G01 X25.5646 Y45.9687 
G01 X25.4014 Y46.0217 
G01 X25.2318 Y46.0486 
G01 X25.0602 Y46.0486 
G01 X24.8906 Y46.0217 
G01 X24.7274 Y45.9687 
G01 X24.5744 Y45.8908 
G01 X24.4355 Y45.7899 
G01 X24.3141 Y45.6685 
G01 X24.2132 Y45.5296 
G01 X24.1353 Y45.3766 
G01 X24.0823 Y45.2134 
G01 X24.0554 Y45.0438 
G01 X24.0554 Y44.8722 
G01 X24.0823 Y44.7026 
G01 X24.1353 Y44.5394 
G01 X24.2132 Y44.3864 
G01 X24.3141 Y44.2475 
G01 X24.4355 Y44.1261 
G01 X24.5744 Y44.0252 
G01 X24.7274 Y43.9473 
G01 X24.8906 Y43.8943 
G01 X25.0602 Y43.8674 
G01 X25.2318 Y43.8674 
G01 X25.4014 Y43.8943 
G01 X25.5646 Y43.9473 
G01 X25.7176 Y44.0252 
G01 X25.8565 Y44.1261 
G01 X25.9779 Y44.2475 
G01 X26.0788 Y44.3864 
G01 X26.1567 Y44.5394 
G01 X26.2097 Y44.7026 
G01 X26.2366 Y44.8722 
G00 Z3.0000  
G00 X23.6966 Y44.8722 
G01 Z-0.0400 F100   
G01 X23.6966 Y45.0438 F100   
G01 X23.6697 Y45.2134 
G01 X23.6167 Y45.3766 
G01 X23.5388 Y45.5296 
G01 X23.4379 Y45.6685 
G01 X23.3165 Y45.7899 
G01 X23.1776 Y45.8908 
G01 X23.0246 Y45.9687 
G01 X22.8614 Y46.0217 
G01 X22.6918 Y46.0486 
G01 X22.5202 Y46.0486 
G01 X22.3506 Y46.0217 
G01 X22.1874 Y45.9687 
G01 X22.0344 Y45.8908 
G01 X21.8955 Y45.7899 
G01 X21.7741 Y45.6685 
G01 X21.6732 Y45.5296 
G01 X21.5953 Y45.3766 
G01 X21.5423 Y45.2134 
G01 X21.5154 Y45.0438 
G01 X21.5154 Y44.8722 
G01 X21.5423 Y44.7026 
G01 X21.5953 Y44.5394 
G01 X21.6732 Y44.3864 
G01 X21.7741 Y44.2475 
G01 X21.8955 Y44.1261 
G01 X22.0344 Y44.0252 
G01 X22.1874 Y43.9473 
G01 X22.3506 Y43.8943 
G01 X22.5202 Y43.8674 
G01 X22.6918 Y43.8674 
G01 X22.8614 Y43.8943 
G01 X23.0246 Y43.9473 
G01 X23.1776 Y44.0252 
G01 X23.3165 Y44.1261 
G01 X23.4379 Y44.2475 
G01 X23.5388 Y44.3864 
G01 X23.6167 Y44.5394 
G01 X23.6697 Y44.7026 
G01 X23.6966 Y44.8722 
G00 Z3.0000  
G00 X21.1566 Y44.8722 
G01 Z-0.0400 F100   
G01 X21.1566 Y45.0438 F100   
G01 X21.1297 Y45.2134 
G01 X21.0767 Y45.3766 
G01 X20.9988 Y45.5296 
G01 X20.8979 Y45.6685 
G01 X20.7765 Y45.7899 
G01 X20.6376 Y45.8908 
G01 X20.4846 Y45.9687 
G01 X20.3214 Y46.0217 
G01 X20.1518 Y46.0486 
G01 X19.9802 Y46.0486 
G01 X19.8106 Y46.0217 
G01 X19.6474 Y45.9687 
G01 X19.4944 Y45.8908 
G01 X19.3555 Y45.7899 
G01 X19.2341 Y45.6685 
G01 X19.1332 Y45.5296 
G01 X19.0553 Y45.3766 
G01 X19.0023 Y45.2134 
G01 X18.9754 Y45.0438 
G01 X18.9754 Y44.8722 
G01 X19.0023 Y44.7026 
G01 X19.0553 Y44.5394 
G01 X19.1332 Y44.3864 
G01 X19.2341 Y44.2475 
G01 X19.3555 Y44.1261 
G01 X19.4944 Y44.0252 
G01 X19.6474 Y43.9473 
G01 X19.8106 Y43.8943 
G01 X19.9802 Y43.8674 
G01 X20.1518 Y43.8674 
G01 X20.3214 Y43.8943 
G01 X20.4846 Y43.9473 
G01 X20.6376 Y44.0252 
G01 X20.7765 Y44.1261 
G01 X20.8979 Y44.2475 
G01 X20.9988 Y44.3864 
G01 X21.0767 Y44.5394 
G01 X21.1297 Y44.7026 
G01 X21.1566 Y44.8722 
G00 Z3.0000  
G00 X18.6166 Y44.8722 
G01 Z-0.0400 F100   
G01 X18.6166 Y45.0438 F100   
G01 X18.5897 Y45.2134 
G01 X18.5367 Y45.3766 
G01 X18.4588 Y45.5296 
G01 X18.3579 Y45.6685 
G01 X18.2365 Y45.7899 
G01 X18.0976 Y45.8908 
G01 X17.9446 Y45.9687 
G01 X17.7814 Y46.0217 
G01 X17.6118 Y46.0486 
G01 X17.4402 Y46.0486 
G01 X17.2706 Y46.0217 
G01 X17.1074 Y45.9687 
G01 X16.9544 Y45.8908 
G01 X16.8155 Y45.7899 
G01 X16.6941 Y45.6685 
G01 X16.5932 Y45.5296 
G01 X16.5153 Y45.3766 
G01 X16.4623 Y45.2134 
G01 X16.4354 Y45.0438 
G01 X16.4354 Y44.8722 
G01 X16.4623 Y44.7026 
G01 X16.5153 Y44.5394 
G01 X16.5932 Y44.3864 
G01 X16.6941 Y44.2475 
G01 X16.8155 Y44.1261 
G01 X16.9544 Y44.0252 
G01 X17.1074 Y43.9473 
G01 X17.2706 Y43.8943 
G01 X17.4402 Y43.8674 
G01 X17.6118 Y43.8674 
G01 X17.7814 Y43.8943 
G01 X17.9446 Y43.9473 
G01 X18.0976 Y44.0252 
G01 X18.2365 Y44.1261 
G01 X18.3579 Y44.2475 
G01 X18.4588 Y44.3864 
G01 X18.5367 Y44.5394 
G01 X18.5897 Y44.7026 
G01 X18.6166 Y44.8722 
G00 Z3.0000  
G00 X26.2366 Y47.4122 
G01 Z-0.0400 F100   
G01 X26.2366 Y47.5838 F100   
G01 X26.2097 Y47.7534 
G01 X26.1567 Y47.9166 
G01 X26.0788 Y48.0696 
G01 X25.9779 Y48.2085 
G01 X25.8565 Y48.3299 
G01 X25.7176 Y48.4308 
G01 X25.5646 Y48.5087 
G01 X25.4014 Y48.5617 
G01 X25.2318 Y48.5886 
G01 X25.0602 Y48.5886 
G01 X24.8906 Y48.5617 
G01 X24.7274 Y48.5087 
G01 X24.5744 Y48.4308 
G01 X24.4355 Y48.3299 
G01 X24.3141 Y48.2085 
G01 X24.2132 Y48.0696 
G01 X24.1353 Y47.9166 
G01 X24.0823 Y47.7534 
G01 X24.0554 Y47.5838 
G01 X24.0554 Y47.4122 
G01 X24.0823 Y47.2426 
G01 X24.1353 Y47.0794 
G01 X24.2132 Y46.9264 
G01 X24.3141 Y46.7875 
G01 X24.4355 Y46.6661 
G01 X24.5744 Y46.5652 
G01 X24.7274 Y46.4873 
G01 X24.8906 Y46.4343 
G01 X25.0602 Y46.4074 
G01 X25.2318 Y46.4074 
G01 X25.4014 Y46.4343 
G01 X25.5646 Y46.4873 
G01 X25.7176 Y46.5652 
G01 X25.8565 Y46.6661 
G01 X25.9779 Y46.7875 
G01 X26.0788 Y46.9264 
G01 X26.1567 Y47.0794 
G01 X26.2097 Y47.2426 
G01 X26.2366 Y47.4122 
G00 Z3.0000  
G00 X23.6966 Y47.4122 
G01 Z-0.0400 F100   
G01 X23.6966 Y47.5838 F100   
G01 X23.6697 Y47.7534 
G01 X23.6167 Y47.9166 
G01 X23.5388 Y48.0696 
G01 X23.4379 Y48.2085 
G01 X23.3165 Y48.3299 
G01 X23.1776 Y48.4308 
G01 X23.0246 Y48.5087 
G01 X22.8614 Y48.5617 
G01 X22.6918 Y48.5886 
G01 X22.5202 Y48.5886 
G01 X22.3506 Y48.5617 
G01 X22.1874 Y48.5087 
G01 X22.0344 Y48.4308 
G01 X21.8955 Y48.3299 
G01 X21.7741 Y48.2085 
G01 X21.6732 Y48.0696 
G01 X21.5953 Y47.9166 
G01 X21.5423 Y47.7534 
G01 X21.5154 Y47.5838 
G01 X21.5154 Y47.4122 
G01 X21.5423 Y47.2426 
G01 X21.5953 Y47.0794 
G01 X21.6732 Y46.9264 
G01 X21.7741 Y46.7875 
G01 X21.8955 Y46.6661 
G01 X22.0344 Y46.5652 
G01 X22.1874 Y46.4873 
G01 X22.3506 Y46.4343 
G01 X22.5202 Y46.4074 
G01 X22.6918 Y46.4074 
G01 X22.8614 Y46.4343 
G01 X23.0246 Y46.4873 
G01 X23.1776 Y46.5652 
G01 X23.3165 Y46.6661 
G01 X23.4379 Y46.7875 
G01 X23.5388 Y46.9264 
G01 X23.6167 Y47.0794 
G01 X23.6697 Y47.2426 
G01 X23.6966 Y47.4122 
G00 Z3.0000  
G00 X21.1566 Y47.4122 
G01 Z-0.0400 F100   
G01 X21.1566 Y47.5838 F100   
G01 X21.1297 Y47.7534 
G01 X21.0767 Y47.9166 
G01 X20.9988 Y48.0696 
G01 X20.8979 Y48.2085 
G01 X20.7765 Y48.3299 
G01 X20.6376 Y48.4308 
G01 X20.4846 Y48.5087 
G01 X20.3214 Y48.5617 
G01 X20.1518 Y48.5886 
G01 X19.9802 Y48.5886 
G01 X19.8106 Y48.5617 
G01 X19.6474 Y48.5087 
G01 X19.4944 Y48.4308 
G01 X19.3555 Y48.3299 
G01 X19.2341 Y48.2085 
G01 X19.1332 Y48.0696 
G01 X19.0553 Y47.9166 
G01 X19.0023 Y47.7534 
G01 X18.9754 Y47.5838 
G01 X18.9754 Y47.4122 
G01 X19.0023 Y47.2426 
G01 X19.0553 Y47.0794 
G01 X19.1332 Y46.9264 
G01 X19.2341 Y46.7875 
G01 X19.3555 Y46.6661 
G01 X19.4944 Y46.5652 
G01 X19.6474 Y46.4873 
G01 X19.8106 Y46.4343 
G01 X19.9802 Y46.4074 
G01 X20.1518 Y46.4074 
G01 X20.3214 Y46.4343 
G01 X20.4846 Y46.4873 
G01 X20.6376 Y46.5652 
G01 X20.7765 Y46.6661 
G01 X20.8979 Y46.7875 
G01 X20.9988 Y46.9264 
G01 X21.0767 Y47.0794 
G01 X21.1297 Y47.2426 
G01 X21.1566 Y47.4122 
G00 Z3.0000  
G00 X18.6166 Y47.4122 
G01 Z-0.0400 F100   
G01 X18.6166 Y47.5838 F100   
G01 X18.5897 Y47.7534 
G01 X18.5367 Y47.9166 
G01 X18.4588 Y48.0696 
G01 X18.3579 Y48.2085 
G01 X18.2365 Y48.3299 
G01 X18.0976 Y48.4308 
G01 X17.9446 Y48.5087 
G01 X17.7814 Y48.5617 
G01 X17.6118 Y48.5886 
G01 X17.4402 Y48.5886 
G01 X17.2706 Y48.5617 
G01 X17.1074 Y48.5087 
G01 X16.9544 Y48.4308 
G01 X16.8155 Y48.3299 
G01 X16.6941 Y48.2085 
G01 X16.5932 Y48.0696 
G01 X16.5153 Y47.9166 
G01 X16.4623 Y47.7534 
G01 X16.4354 Y47.5838 
G01 X16.4354 Y47.4122 
G01 X16.4623 Y47.2426 
G01 X16.5153 Y47.0794 
G01 X16.5932 Y46.9264 
G01 X16.6941 Y46.7875 
G01 X16.8155 Y46.6661 
G01 X16.9544 Y46.5652 
G01 X17.1074 Y46.4873 
G01 X17.2706 Y46.4343 
G01 X17.4402 Y46.4074 
G01 X17.6118 Y46.4074 
G01 X17.7814 Y46.4343 
G01 X17.9446 Y46.4873 
G01 X18.0976 Y46.5652 
G01 X18.2365 Y46.6661 
G01 X18.3579 Y46.7875 
G01 X18.4588 Y46.9264 
G01 X18.5367 Y47.0794 
G01 X18.5897 Y47.2426 
G01 X18.6166 Y47.4122 
G00 Z3.0000  
G00 X26.2366 Y49.9522 
G01 Z-0.0400 F100   
G01 X26.2366 Y50.1238 F100   
G01 X26.2097 Y50.2934 
G01 X26.1567 Y50.4566 
G01 X26.0788 Y50.6096 
G01 X25.9779 Y50.7485 
G01 X25.8565 Y50.8699 
G01 X25.7176 Y50.9708 
G01 X25.5646 Y51.0487 
G01 X25.4014 Y51.1017 
G01 X25.2318 Y51.1286 
G01 X25.0602 Y51.1286 
G01 X24.8906 Y51.1017 
G01 X24.7274 Y51.0487 
G01 X24.5744 Y50.9708 
G01 X24.4355 Y50.8699 
G01 X24.3141 Y50.7485 
G01 X24.2132 Y50.6096 
G01 X24.1353 Y50.4566 
G01 X24.0823 Y50.2934 
G01 X24.0554 Y50.1238 
G01 X24.0554 Y49.9522 
G01 X24.0823 Y49.7826 
G01 X24.1353 Y49.6194 
G01 X24.2132 Y49.4664 
G01 X24.3141 Y49.3275 
G01 X24.4355 Y49.2061 
G01 X24.5744 Y49.1052 
G01 X24.7274 Y49.0273 
G01 X24.8906 Y48.9743 
G01 X25.0602 Y48.9474 
G01 X25.2318 Y48.9474 
G01 X25.4014 Y48.9743 
G01 X25.5646 Y49.0273 
G01 X25.7176 Y49.1052 
G01 X25.8565 Y49.2061 
G01 X25.9779 Y49.3275 
G01 X26.0788 Y49.4664 
G01 X26.1567 Y49.6194 
G01 X26.2097 Y49.7826 
G01 X26.2366 Y49.9522 
G00 Z3.0000  
G00 X23.6966 Y49.9522 
G01 Z-0.0400 F100   
G01 X23.6966 Y50.1238 F100   
G01 X23.6697 Y50.2934 
G01 X23.6167 Y50.4566 
G01 X23.5388 Y50.6096 
G01 X23.4379 Y50.7485 
G01 X23.3165 Y50.8699 
G01 X23.1776 Y50.9708 
G01 X23.0246 Y51.0487 
G01 X22.8614 Y51.1017 
G01 X22.6918 Y51.1286 
G01 X22.5202 Y51.1286 
G01 X22.3506 Y51.1017 
G01 X22.1874 Y51.0487 
G01 X22.0344 Y50.9708 
G01 X21.8955 Y50.8699 
G01 X21.7741 Y50.7485 
G01 X21.6732 Y50.6096 
G01 X21.5953 Y50.4566 
G01 X21.5423 Y50.2934 
G01 X21.5154 Y50.1238 
G01 X21.5154 Y49.9522 
G01 X21.5423 Y49.7826 
G01 X21.5953 Y49.6194 
G01 X21.6732 Y49.4664 
G01 X21.7741 Y49.3275 
G01 X21.8955 Y49.2061 
G01 X22.0344 Y49.1052 
G01 X22.1874 Y49.0273 
G01 X22.3506 Y48.9743 
G01 X22.5202 Y48.9474 
G01 X22.6918 Y48.9474 
G01 X22.8614 Y48.9743 
G01 X23.0246 Y49.0273 
G01 X23.1776 Y49.1052 
G01 X23.3165 Y49.2061 
G01 X23.4379 Y49.3275 
G01 X23.5388 Y49.4664 
G01 X23.6167 Y49.6194 
G01 X23.6697 Y49.7826 
G01 X23.6966 Y49.9522 
G00 Z3.0000  
G00 X21.1566 Y49.9522 
G01 Z-0.0400 F100   
G01 X21.1566 Y50.1238 F100   
G01 X21.1297 Y50.2934 
G01 X21.0767 Y50.4566 
G01 X20.9988 Y50.6096 
G01 X20.8979 Y50.7485 
G01 X20.7765 Y50.8699 
G01 X20.6376 Y50.9708 
G01 X20.4846 Y51.0487 
G01 X20.3214 Y51.1017 
G01 X20.1518 Y51.1286 
G01 X19.9802 Y51.1286 
G01 X19.8106 Y51.1017 
G01 X19.6474 Y51.0487 
G01 X19.4944 Y50.9708 
G01 X19.3555 Y50.8699 
G01 X19.2341 Y50.7485 
G01 X19.1332 Y50.6096 
G01 X19.0553 Y50.4566 
G01 X19.0023 Y50.2934 
G01 X18.9754 Y50.1238 
G01 X18.9754 Y49.9522 
G01 X19.0023 Y49.7826 
G01 X19.0553 Y49.6194 
G01 X19.1332 Y49.4664 
G01 X19.2341 Y49.3275 
G01 X19.3555 Y49.2061 
G01 X19.4944 Y49.1052 
G01 X19.6474 Y49.0273 
G01 X19.8106 Y48.9743 
G01 X19.9802 Y48.9474 
G01 X20.1518 Y48.9474 
G01 X20.3214 Y48.9743 
G01 X20.4846 Y49.0273 
G01 X20.6376 Y49.1052 
G01 X20.7765 Y49.2061 
G01 X20.8979 Y49.3275 
G01 X20.9988 Y49.4664 
G01 X21.0767 Y49.6194 
G01 X21.1297 Y49.7826 
G01 X21.1566 Y49.9522 
G00 Z3.0000  
G00 X18.6166 Y49.9522 
G01 Z-0.0400 F100   
G01 X18.6166 Y50.1238 F100   
G01 X18.5897 Y50.2934 
G01 X18.5367 Y50.4566 
G01 X18.4588 Y50.6096 
G01 X18.3579 Y50.7485 
G01 X18.2365 Y50.8699 
G01 X18.0976 Y50.9708 
G01 X17.9446 Y51.0487 
G01 X17.7814 Y51.1017 
G01 X17.6118 Y51.1286 
G01 X17.4402 Y51.1286 
G01 X17.2706 Y51.1017 
G01 X17.1074 Y51.0487 
G01 X16.9544 Y50.9708 
G01 X16.8155 Y50.8699 
G01 X16.6941 Y50.7485 
G01 X16.5932 Y50.6096 
G01 X16.5153 Y50.4566 
G01 X16.4623 Y50.2934 
G01 X16.4354 Y50.1238 
G01 X16.4354 Y49.9522 
G01 X16.4623 Y49.7826 
G01 X16.5153 Y49.6194 
G01 X16.5932 Y49.4664 
G01 X16.6941 Y49.3275 
G01 X16.8155 Y49.2061 
G01 X16.9544 Y49.1052 
G01 X17.1074 Y49.0273 
G01 X17.2706 Y48.9743 
G01 X17.4402 Y48.9474 
G01 X17.6118 Y48.9474 
G01 X17.7814 Y48.9743 
G01 X17.9446 Y49.0273 
G01 X18.0976 Y49.1052 
G01 X18.2365 Y49.2061 
G01 X18.3579 Y49.3275 
G01 X18.4588 Y49.4664 
G01 X18.5367 Y49.6194 
G01 X18.5897 Y49.7826 
G01 X18.6166 Y49.9522 
G00 Z3.0000  
G00 X26.2366 Y52.4922 
G01 Z-0.0400 F100   
G01 X26.2366 Y52.6638 F100   
G01 X26.2097 Y52.8334 
G01 X26.1567 Y52.9966 
G01 X26.0788 Y53.1496 
G01 X25.9779 Y53.2885 
G01 X25.8565 Y53.4099 
G01 X25.7176 Y53.5108 
G01 X25.5646 Y53.5887 
G01 X25.4014 Y53.6417 
G01 X25.2318 Y53.6686 
G01 X25.0602 Y53.6686 
G01 X24.8906 Y53.6417 
G01 X24.7274 Y53.5887 
G01 X24.5744 Y53.5108 
G01 X24.4355 Y53.4099 
G01 X24.3141 Y53.2885 
G01 X24.2132 Y53.1496 
G01 X24.1353 Y52.9966 
G01 X24.0823 Y52.8334 
G01 X24.0554 Y52.6638 
G01 X24.0554 Y52.4922 
G01 X24.0823 Y52.3226 
G01 X24.1353 Y52.1594 
G01 X24.2132 Y52.0064 
G01 X24.3141 Y51.8675 
G01 X24.4355 Y51.7461 
G01 X24.5744 Y51.6452 
G01 X24.7274 Y51.5673 
G01 X24.8906 Y51.5143 
G01 X25.0602 Y51.4874 
G01 X25.2318 Y51.4874 
G01 X25.4014 Y51.5143 
G01 X25.5646 Y51.5673 
G01 X25.7176 Y51.6452 
G01 X25.8565 Y51.7461 
G01 X25.9779 Y51.8675 
G01 X26.0788 Y52.0064 
G01 X26.1567 Y52.1594 
G01 X26.2097 Y52.3226 
G01 X26.2366 Y52.4922 
G00 Z3.0000  
G00 X23.6966 Y52.4922 
G01 Z-0.0400 F100   
G01 X23.6966 Y52.6638 F100   
G01 X23.6697 Y52.8334 
G01 X23.6167 Y52.9966 
G01 X23.5388 Y53.1496 
G01 X23.4379 Y53.2885 
G01 X23.3165 Y53.4099 
G01 X23.1776 Y53.5108 
G01 X23.0246 Y53.5887 
G01 X22.8614 Y53.6417 
G01 X22.6918 Y53.6686 
G01 X22.5202 Y53.6686 
G01 X22.3506 Y53.6417 
G01 X22.1874 Y53.5887 
G01 X22.0344 Y53.5108 
G01 X21.8955 Y53.4099 
G01 X21.7741 Y53.2885 
G01 X21.6732 Y53.1496 
G01 X21.5953 Y52.9966 
G01 X21.5423 Y52.8334 
G01 X21.5154 Y52.6638 
G01 X21.5154 Y52.4922 
G01 X21.5423 Y52.3226 
G01 X21.5953 Y52.1594 
G01 X21.6732 Y52.0064 
G01 X21.7741 Y51.8675 
G01 X21.8955 Y51.7461 
G01 X22.0344 Y51.6452 
G01 X22.1874 Y51.5673 
G01 X22.3506 Y51.5143 
G01 X22.5202 Y51.4874 
G01 X22.6918 Y51.4874 
G01 X22.8614 Y51.5143 
G01 X23.0246 Y51.5673 
G01 X23.1776 Y51.6452 
G01 X23.3165 Y51.7461 
G01 X23.4379 Y51.8675 
G01 X23.5388 Y52.0064 
G01 X23.6167 Y52.1594 
G01 X23.6697 Y52.3226 
G01 X23.6966 Y52.4922 
G00 Z3.0000  
G00 X21.1566 Y52.4922 
G01 Z-0.0400 F100   
G01 X21.1566 Y52.6638 F100   
G01 X21.1297 Y52.8334 
G01 X21.0767 Y52.9966 
G01 X20.9988 Y53.1496 
G01 X20.8979 Y53.2885 
G01 X20.7765 Y53.4099 
G01 X20.6376 Y53.5108 
G01 X20.4846 Y53.5887 
G01 X20.3214 Y53.6417 
G01 X20.1518 Y53.6686 
G01 X19.9802 Y53.6686 
G01 X19.8106 Y53.6417 
G01 X19.6474 Y53.5887 
G01 X19.4944 Y53.5108 
G01 X19.3555 Y53.4099 
G01 X19.2341 Y53.2885 
G01 X19.1332 Y53.1496 
G01 X19.0553 Y52.9966 
G01 X19.0023 Y52.8334 
G01 X18.9754 Y52.6638 
G01 X18.9754 Y52.4922 
G01 X19.0023 Y52.3226 
G01 X19.0553 Y52.1594 
G01 X19.1332 Y52.0064 
G01 X19.2341 Y51.8675 
G01 X19.3555 Y51.7461 
G01 X19.4944 Y51.6452 
G01 X19.6474 Y51.5673 
G01 X19.8106 Y51.5143 
G01 X19.9802 Y51.4874 
G01 X20.1518 Y51.4874 
G01 X20.3214 Y51.5143 
G01 X20.4846 Y51.5673 
G01 X20.6376 Y51.6452 
G01 X20.7765 Y51.7461 
G01 X20.8979 Y51.8675 
G01 X20.9988 Y52.0064 
G01 X21.0767 Y52.1594 
G01 X21.1297 Y52.3226 
G01 X21.1566 Y52.4922 
G00 Z3.0000  
G00 X18.6166 Y52.4922 
G01 Z-0.0400 F100   
G01 X18.6166 Y52.6638 F100   
G01 X18.5897 Y52.8334 
G01 X18.5367 Y52.9966 
G01 X18.4588 Y53.1496 
G01 X18.3579 Y53.2885 
G01 X18.2365 Y53.4099 
G01 X18.0976 Y53.5108 
G01 X17.9446 Y53.5887 
G01 X17.7814 Y53.6417 
G01 X17.6118 Y53.6686 
G01 X17.4402 Y53.6686 
G01 X17.2706 Y53.6417 
G01 X17.1074 Y53.5887 
G01 X16.9544 Y53.5108 
G01 X16.8155 Y53.4099 
G01 X16.6941 Y53.2885 
G01 X16.5932 Y53.1496 
G01 X16.5153 Y52.9966 
G01 X16.4623 Y52.8334 
G01 X16.4354 Y52.6638 
G01 X16.4354 Y52.4922 
G01 X16.4623 Y52.3226 
G01 X16.5153 Y52.1594 
G01 X16.5932 Y52.0064 
G01 X16.6941 Y51.8675 
G01 X16.8155 Y51.7461 
G01 X16.9544 Y51.6452 
G01 X17.1074 Y51.5673 
G01 X17.2706 Y51.5143 
G01 X17.4402 Y51.4874 
G01 X17.6118 Y51.4874 
G01 X17.7814 Y51.5143 
G01 X17.9446 Y51.5673 
G01 X18.0976 Y51.6452 
G01 X18.2365 Y51.7461 
G01 X18.3579 Y51.8675 
G01 X18.4588 Y52.0064 
G01 X18.5367 Y52.1594 
G01 X18.5897 Y52.3226 
G01 X18.6166 Y52.4922 
G00 Z3.0000  
G00 X37.0348 Y13.5354 
G01 Z-0.0400 F100   
G01 X37.0348 Y0.9426  F100   
G01 X37.0728 Y0.8009  
G01 X37.1461 Y0.6739  
G01 X37.2499 Y0.5701  
G01 X37.3769 Y0.4968  
G01 X37.5186 Y0.4588  
G01 X37.6654 Y0.4588  
G01 X37.8071 Y0.4968  
G01 X37.9341 Y0.5701  
G01 X38.0379 Y0.6739  
G01 X38.1112 Y0.8009  
G01 X38.1492 Y0.9426  
G01 X38.1492 Y13.5354 
G01 X38.1112 Y13.6771 
G01 X38.0379 Y13.8041 
G01 X37.9341 Y13.9079 
G01 X37.8071 Y13.9812 
G01 X37.6654 Y14.0192 
G01 X37.5186 Y14.0192 
G01 X37.3769 Y13.9812 
G01 X37.2499 Y13.9079 
G01 X37.1461 Y13.8041 
G01 X37.0728 Y13.6771 
G01 X37.0348 Y13.5354 
G00 Z3.0000  
G00 X34.4948 Y7.4394  
G01 Z-0.0400 F100   
G01 X34.4948 Y0.9426  F100   
G01 X34.5328 Y0.8009  
G01 X34.6061 Y0.6739  
G01 X34.7099 Y0.5701  
G01 X34.8369 Y0.4968  
G01 X34.9786 Y0.4588  
G01 X35.1254 Y0.4588  
G01 X35.2671 Y0.4968  
G01 X35.3941 Y0.5701  
G01 X35.4979 Y0.6739  
G01 X35.5712 Y0.8009  
G01 X35.6092 Y0.9426  
G01 X35.6092 Y7.4394  
G01 X35.5712 Y7.5811  
G01 X35.4979 Y7.7081  
G01 X35.3941 Y7.8119  
G01 X35.2671 Y7.8852  
G01 X35.1254 Y7.9232  
G01 X34.9786 Y7.9232  
G01 X34.8369 Y7.8852  
G01 X34.7099 Y7.8119  
G01 X34.6061 Y7.7081  
G01 X34.5328 Y7.5811  
G01 X34.4948 Y7.4394  
G00 Z3.0000  
G00 X31.9548 Y7.4394  
G01 Z-0.0400 F100   
G01 X31.9548 Y0.9426  F100   
G01 X31.9928 Y0.8009  
G01 X32.0661 Y0.6739  
G01 X32.1699 Y0.5701  
G01 X32.2969 Y0.4968  
G01 X32.4386 Y0.4588  
G01 X32.5854 Y0.4588  
G01 X32.7271 Y0.4968  
G01 X32.8541 Y0.5701  
G01 X32.9579 Y0.6739  
G01 X33.0312 Y0.8009  
G01 X33.0692 Y0.9426  
G01 X33.0692 Y7.4394  
G01 X33.0312 Y7.5811  
G01 X32.9579 Y7.7081  
G01 X32.8541 Y7.8119  
G01 X32.7271 Y7.8852  
G01 X32.5854 Y7.9232  
G01 X32.4386 Y7.9232  
G01 X32.2969 Y7.8852  
G01 X32.1699 Y7.8119  
G01 X32.0661 Y7.7081  
G01 X31.9928 Y7.5811  
G01 X31.9548 Y7.4394  
G00 Z3.0000  
G00 X29.4148 Y7.4394  
G01 Z-0.0400 F100   
G01 X29.4148 Y1.1966  F100   
G01 X29.4528 Y1.0549  
G01 X29.5261 Y0.9279  
G01 X29.6299 Y0.8241  
G01 X29.7569 Y0.7508  
G01 X29.8986 Y0.7128  
G01 X30.0454 Y0.7128  
G01 X30.1871 Y0.7508  
G01 X30.3141 Y0.8241  
G01 X30.4179 Y0.9279  
G01 X30.4912 Y1.0549  
G01 X30.5292 Y1.1966  
G01 X30.5292 Y7.4394  
G01 X30.4912 Y7.5811  
G01 X30.4179 Y7.7081  
G01 X30.3141 Y7.8119  
G01 X30.1871 Y7.8852  
G01 X30.0454 Y7.9232  
G01 X29.8986 Y7.9232  
G01 X29.7569 Y7.8852  
G01 X29.6299 Y7.8119  
G01 X29.5261 Y7.7081  
G01 X29.4528 Y7.5811  
G01 X29.4148 Y7.4394  
G00 Z3.0000  
G00 X26.8748 Y7.4394  
G01 Z-0.0400 F100   
G01 X26.8748 Y0.9426  F100   
G01 X26.9128 Y0.8009  
G01 X26.9861 Y0.6739  
G01 X27.0899 Y0.5701  
G01 X27.2169 Y0.4968  
G01 X27.3586 Y0.4588  
G01 X27.5054 Y0.4588  
G01 X27.6471 Y0.4968  
G01 X27.7741 Y0.5701  
G01 X27.8779 Y0.6739  
G01 X27.9512 Y0.8009  
G01 X27.9892 Y0.9426  
G01 X27.9892 Y7.4394  
G01 X27.9512 Y7.5811  
G01 X27.8779 Y7.7081  
G01 X27.7741 Y7.8119  
G01 X27.6471 Y7.8852  
G01 X27.5054 Y7.9232  
G01 X27.3586 Y7.9232  
G01 X27.2169 Y7.8852  
G01 X27.0899 Y7.8119  
G01 X26.9861 Y7.7081  
G01 X26.9128 Y7.5811  
G01 X26.8748 Y7.4394  
G00 Z3.0000  
G00 X24.3348 Y13.7894 
G01 Z-0.0400 F100   
G01 X24.3348 Y0.9426  F100   
G01 X24.3728 Y0.8009  
G01 X24.4461 Y0.6739  
G01 X24.5499 Y0.5701  
G01 X24.6769 Y0.4968  
G01 X24.8186 Y0.4588  
G01 X24.9654 Y0.4588  
G01 X25.1071 Y0.4968  
G01 X25.2341 Y0.5701  
G01 X25.3379 Y0.6739  
G01 X25.4112 Y0.8009  
G01 X25.4492 Y0.9426  
G01 X25.4492 Y13.7894 
G01 X25.4112 Y13.9311 
G01 X25.3379 Y14.0581 
G01 X25.2341 Y14.1619 
G01 X25.1071 Y14.2352 
G01 X24.9654 Y14.2732 
G01 X24.8186 Y14.2732 
G01 X24.6769 Y14.2352 
G01 X24.5499 Y14.1619 
G01 X24.4461 Y14.0581 
G01 X24.3728 Y13.9311 
G01 X24.3348 Y13.7894 
G00 Z3.0000  
G00 X21.7948 Y7.6934  
G01 Z-0.0400 F100   
G01 X21.7948 Y0.9426  F100   
G01 X21.8328 Y0.8009  
G01 X21.9061 Y0.6739  
G01 X22.0099 Y0.5701  
G01 X22.1369 Y0.4968  
G01 X22.2786 Y0.4588  
G01 X22.4254 Y0.4588  
G01 X22.5671 Y0.4968  
G01 X22.6941 Y0.5701  
G01 X22.7979 Y0.6739  
G01 X22.8712 Y0.8009  
G01 X22.9092 Y0.9426  
G01 X22.9092 Y7.6934  
G01 X22.8712 Y7.8351  
G01 X22.7979 Y7.9621  
G01 X22.6941 Y8.0659  
G01 X22.5671 Y8.1392  
G01 X22.4254 Y8.1772  
G01 X22.2786 Y8.1772  
G01 X22.1369 Y8.1392  
G01 X22.0099 Y8.0659  
G01 X21.9061 Y7.9621  
G01 X21.8328 Y7.8351  
G01 X21.7948 Y7.6934  
G00 Z3.0000  
G00 X19.2548 Y7.4394  
G01 Z-0.0400 F100   
G01 X19.2548 Y0.9426  F100   
G01 X19.2928 Y0.8009  
G01 X19.3661 Y0.6739  
G01 X19.4699 Y0.5701  
G01 X19.5969 Y0.4968  
G01 X19.7386 Y0.4588  
G01 X19.8854 Y0.4588  
G01 X20.0271 Y0.4968  
G01 X20.1541 Y0.5701  
G01 X20.2579 Y0.6739  
G01 X20.3312 Y0.8009  
G01 X20.3692 Y0.9426  
G01 X20.3692 Y7.4394  
G01 X20.3312 Y7.5811  
G01 X20.2579 Y7.7081  
G01 X20.1541 Y7.8119  
G01 X20.0271 Y7.8852  
G01 X19.8854 Y7.9232  
G01 X19.7386 Y7.9232  
G01 X19.5969 Y7.8852  
G01 X19.4699 Y7.8119  
G01 X19.3661 Y7.7081  
G01 X19.2928 Y7.5811  
G01 X19.2548 Y7.4394  
G00 Z3.0000  
G00 X16.7148 Y7.4394  
G01 Z-0.0400 F100   
G01 X16.7148 Y1.1966  F100   
G01 X16.7528 Y1.0549  
G01 X16.8261 Y0.9279  
G01 X16.9299 Y0.8241  
G01 X17.0569 Y0.7508  
G01 X17.1986 Y0.7128  
G01 X17.3454 Y0.7128  
G01 X17.4871 Y0.7508  
G01 X17.6141 Y0.8241  
G01 X17.7179 Y0.9279  
G01 X17.7912 Y1.0549  
G01 X17.8292 Y1.1966  
G01 X17.8292 Y7.4394  
G01 X17.7912 Y7.5811  
G01 X17.7179 Y7.7081  
G01 X17.6141 Y7.8119  
G01 X17.4871 Y7.8852  
G01 X17.3454 Y7.9232  
G01 X17.1986 Y7.9232  
G01 X17.0569 Y7.8852  
G01 X16.9299 Y7.8119  
G01 X16.8261 Y7.7081  
G01 X16.7528 Y7.5811  
G01 X16.7148 Y7.4394  
G00 Z3.0000  
G00 X14.1748 Y7.4394  
G01 Z-0.0400 F100   
G01 X14.1748 Y0.9426  F100   
G01 X14.2128 Y0.8009  
G01 X14.2861 Y0.6739  
G01 X14.3899 Y0.5701  
G01 X14.5169 Y0.4968  
G01 X14.6586 Y0.4588  
G01 X14.8054 Y0.4588  
G01 X14.9471 Y0.4968  
G01 X15.0741 Y0.5701  
G01 X15.1779 Y0.6739  
G01 X15.2512 Y0.8009  
G01 X15.2892 Y0.9426  
G01 X15.2892 Y7.4394  
G01 X15.2512 Y7.5811  
G01 X15.1779 Y7.7081  
G01 X15.0741 Y7.8119  
G01 X14.9471 Y7.8852  
G01 X14.8054 Y7.9232  
G01 X14.6586 Y7.9232  
G01 X14.5169 Y7.8852  
G01 X14.3899 Y7.8119  
G01 X14.2861 Y7.7081  
G01 X14.2128 Y7.5811  
G01 X14.1748 Y7.4394  
G00 Z3.0000  
G00 X11.6348 Y13.5354 
G01 Z-0.0400 F100   
G01 X11.6348 Y0.9426  F100   
G01 X11.6728 Y0.8009  
G01 X11.7461 Y0.6739  
G01 X11.8499 Y0.5701  
G01 X11.9769 Y0.4968  
G01 X12.1186 Y0.4588  
G01 X12.2654 Y0.4588  
G01 X12.4071 Y0.4968  
G01 X12.5341 Y0.5701  
G01 X12.6379 Y0.6739  
G01 X12.7112 Y0.8009  
G01 X12.7492 Y0.9426  
G01 X12.7492 Y13.5354 
G01 X12.7112 Y13.6771 
G01 X12.6379 Y13.8041 
G01 X12.5341 Y13.9079 
G01 X12.4071 Y13.9812 
G01 X12.2654 Y14.0192 
G01 X12.1186 Y14.0192 
G01 X11.9769 Y13.9812 
G01 X11.8499 Y13.9079 
G01 X11.7461 Y13.8041 
G01 X11.6728 Y13.6771 
G01 X11.6348 Y13.5354 
G00 Z3.0000  
G00 X9.0948  Y7.4394  
G01 Z-0.0400 F100   
G01 X9.0948  Y0.9426  F100   
G01 X9.1328  Y0.8009  
G01 X9.2061  Y0.6739  
G01 X9.3099  Y0.5701  
G01 X9.4369  Y0.4968  
G01 X9.5786  Y0.4588  
G01 X9.7254  Y0.4588  
G01 X9.8671  Y0.4968  
G01 X9.9941  Y0.5701  
G01 X10.0979 Y0.6739  
G01 X10.1712 Y0.8009  
G01 X10.2092 Y0.9426  
G01 X10.2092 Y7.4394  
G01 X10.1712 Y7.5811  
G01 X10.0979 Y7.7081  
G01 X9.9941  Y7.8119  
G01 X9.8671  Y7.8852  
G01 X9.7254  Y7.9232  
G01 X9.5786  Y7.9232  
G01 X9.4369  Y7.8852  
G01 X9.3099  Y7.8119  
G01 X9.2061  Y7.7081  
G01 X9.1328  Y7.5811  
G01 X9.0948  Y7.4394  
G00 Z3.0000  
G00 X6.5548  Y7.4394  
G01 Z-0.0400 F100   
G01 X6.5548  Y0.9426  F100   
G01 X6.5928  Y0.8009  
G01 X6.6661  Y0.6739  
G01 X6.7699  Y0.5701  
G01 X6.8969  Y0.4968  
G01 X7.0386  Y0.4588  
G01 X7.1854  Y0.4588  
G01 X7.3271  Y0.4968  
G01 X7.4541  Y0.5701  
G01 X7.5579  Y0.6739  
G01 X7.6312  Y0.8009  
G01 X7.6692  Y0.9426  
G01 X7.6692  Y7.4394  
G01 X7.6312  Y7.5811  
G01 X7.5579  Y7.7081  
G01 X7.4541  Y7.8119  
G01 X7.3271  Y7.8852  
G01 X7.1854  Y7.9232  
G01 X7.0386  Y7.9232  
G01 X6.8969  Y7.8852  
G01 X6.7699  Y7.8119  
G01 X6.6661  Y7.7081  
G01 X6.5928  Y7.5811  
G01 X6.5548  Y7.4394  
G00 Z3.0000  
G00 X4.0148  Y7.4394  
G01 Z-0.0400 F100   
G01 X4.0148  Y1.1966  F100   
G01 X4.0528  Y1.0549  
G01 X4.1261  Y0.9279  
G01 X4.2299  Y0.8241  
G01 X4.3569  Y0.7508  
G01 X4.4986  Y0.7128  
G01 X4.6454  Y0.7128  
G01 X4.7871  Y0.7508  
G01 X4.9141  Y0.8241  
G01 X5.0179  Y0.9279  
G01 X5.0912  Y1.0549  
G01 X5.1292  Y1.1966  
G01 X5.1292  Y7.4394  
G01 X5.0912  Y7.5811  
G01 X5.0179  Y7.7081  
G01 X4.9141  Y7.8119  
G01 X4.7871  Y7.8852  
G01 X4.6454  Y7.9232  
G01 X4.4986  Y7.9232  
G01 X4.3569  Y7.8852  
G01 X4.2299  Y7.8119  
G01 X4.1261  Y7.7081  
G01 X4.0528  Y7.5811  
G01 X4.0148  Y7.4394  
G00 Z3.0000  
G00 X1.4748  Y7.4394  
G01 Z-0.0400 F100   
G01 X1.4748  Y0.9426  F100   
G01 X1.5128  Y0.8009  
G01 X1.5861  Y0.6739  
G01 X1.6899  Y0.5701  
G01 X1.8169  Y0.4968  
G01 X1.9586  Y0.4588  
G01 X2.1054  Y0.4588  
G01 X2.2471  Y0.4968  
G01 X2.3741  Y0.5701  
G01 X2.4779  Y0.6739  
G01 X2.5512  Y0.8009  
G01 X2.5892  Y0.9426  
G01 X2.5892  Y7.4394  
G01 X2.5512  Y7.5811  
G01 X2.4779  Y7.7081  
G01 X2.3741  Y7.8119  
G01 X2.2471  Y7.8852  
G01 X2.1054  Y7.9232  
G01 X1.9586  Y7.9232  
G01 X1.8169  Y7.8852  
G01 X1.6899  Y7.8119  
G01 X1.5861  Y7.7081  
G01 X1.5128  Y7.5811  
G01 X1.4748  Y7.4394  
G00 Z3.0000  
G00 X11.3418 Y43.0004 
G01 Z-0.0400 F100   
G01 X11.2490 Y42.9620 F100   
G01 X11.1780 Y42.8910 
G01 X11.1396 Y42.7982 
G01 X11.1396 Y41.3978 
G01 X11.1780 Y41.3050 
G01 X11.2490 Y41.2340 
G01 X11.3418 Y41.1956 
G01 X13.0422 Y41.1956 
G01 X13.1350 Y41.2340 
G01 X13.2060 Y41.3050 
G01 X13.2444 Y41.3978 
G01 X13.2444 Y42.7982 
G01 X13.2060 Y42.8910 
G01 X13.1350 Y42.9620 
G01 X13.0984 Y42.9771 
G01 X13.0984 Y44.9596 
G01 X15.2902 Y44.9596 
G01 X15.3830 Y44.9980 
G01 X15.4540 Y45.0690 
G01 X15.4924 Y45.1618 
G01 X15.4924 Y53.6442 
G01 X15.4540 Y53.7370 
G01 X15.3830 Y53.8080 
G01 X15.2902 Y53.8464 
G01 X10.6178 Y53.8464 
G01 X10.5250 Y53.8080 
G01 X10.4540 Y53.7370 
G01 X10.4156 Y53.6442 
G01 X10.4156 Y45.1618 
G01 X10.4540 Y45.0690 
G01 X10.5250 Y44.9980 
G01 X10.6178 Y44.9596 
G01 X11.7936 Y44.9596 
G01 X11.7936 Y43.0004 
G01 X11.3418 Y43.0004 
G00 Z3.0000  
G00 X7.9622  Y43.0004 
G01 Z-0.0400 F100   
G01 X7.5104  Y43.0004 F100   
G01 X7.5104  Y44.9596 
G01 X7.6702  Y44.9596 
G01 X7.7630  Y44.9980 
G01 X7.8340  Y45.0690 
G01 X7.8724  Y45.1618 
G01 X7.8724  Y53.6442 
G01 X7.8340  Y53.7370 
G01 X7.7630  Y53.8080 
G01 X7.6702  Y53.8464 
G01 X2.9978  Y53.8464 
G01 X2.9050  Y53.8080 
G01 X2.8340  Y53.7370 
G01 X2.7956  Y53.6442 
G01 X2.7956  Y45.1618 
G01 X2.8340  Y45.0690 
G01 X2.9050  Y44.9980 
G01 X2.9978  Y44.9596 
G01 X6.2056  Y44.9596 
G01 X6.2056  Y42.9771 
G01 X6.1690  Y42.9620 
G01 X6.0980  Y42.8910 
G01 X6.0596  Y42.7982 
G01 X6.0596  Y41.3978 
G01 X6.0980  Y41.3050 
G01 X6.1690  Y41.2340 
G01 X6.2618  Y41.1956 
G01 X7.9622  Y41.1956 
G01 X8.0550  Y41.2340 
G01 X8.1260  Y41.3050 
G01 X8.1644  Y41.3978 
G01 X8.1644  Y42.7982 
G01 X8.1260  Y42.8910 
G01 X8.0550  Y42.9620 
G01 X7.9622  Y43.0004 
G00 Z3.0000  
G00 X7.9622  Y41.1004 
G01 Z-0.0400 F100   
G01 X6.2618  Y41.1004 F100   
G01 X6.1690  Y41.0620 
G01 X6.0980  Y40.9910 
G01 X6.0596  Y40.8982 
G01 X6.0596  Y39.4978 
G01 X6.0980  Y39.4050 
G01 X6.1690  Y39.3340 
G01 X6.2618  Y39.2956 
G01 X7.9622  Y39.2956 
G01 X8.0550  Y39.3340 
G01 X8.1260  Y39.4050 
G01 X8.1569  Y39.4796 
G01 X11.1471 Y39.4796 
G01 X11.1780 Y39.4050 
G01 X11.2490 Y39.3340 
G01 X11.3418 Y39.2956 
G01 X13.0422 Y39.2956 
G01 X13.1350 Y39.3340 
G01 X13.2060 Y39.4050 
G01 X13.2444 Y39.4978 
G01 X13.2444 Y40.8982 
G01 X13.2060 Y40.9910 
G01 X13.1350 Y41.0620 
G01 X13.0422 Y41.1004 
G01 X11.3418 Y41.1004 
G01 X11.2490 Y41.0620 
G01 X11.1780 Y40.9910 
G01 X11.1396 Y40.8982 
G01 X11.1396 Y40.7844 
G01 X8.1644  Y40.7844 
G01 X8.1644  Y40.8982 
G01 X8.1260  Y40.9910 
G01 X8.0550  Y41.0620 
G01 X7.9622  Y41.1004 
G00 Z3.0000  
G00 X28.8684 Y26.2858 
G01 Z-0.0400 F100   
G01 X28.8684 Y29.0862 F100   
G01 X28.8300 Y29.1790 
G01 X28.7590 Y29.2500 
G01 X28.6662 Y29.2884 
G01 X26.9658 Y29.2884 
G01 X26.8730 Y29.2500 
G01 X26.8020 Y29.1790 
G01 X26.7636 Y29.0862 
G01 X26.7636 Y26.2858 
G01 X26.8020 Y26.1930 
G01 X26.8730 Y26.1220 
G01 X26.9658 Y26.0836 
G01 X28.6662 Y26.0836 
G01 X28.7590 Y26.1220 
G01 X28.8300 Y26.1930 
G01 X28.8684 Y26.2858 
G00 Z3.0000  
G00 X26.0684 Y26.2858 
G01 Z-0.0400 F100   
G01 X26.0684 Y29.0862 F100   
G01 X26.0300 Y29.1790 
G01 X25.9590 Y29.2500 
G01 X25.8662 Y29.2884 
G01 X24.1658 Y29.2884 
G01 X24.0730 Y29.2500 
G01 X24.0020 Y29.1790 
G01 X23.9636 Y29.0862 
G01 X23.9636 Y26.2858 
G01 X24.0020 Y26.1930 
G01 X24.0730 Y26.1220 
G01 X24.1658 Y26.0836 
G01 X25.8662 Y26.0836 
G01 X25.9590 Y26.1220 
G01 X26.0300 Y26.1930 
G01 X26.0684 Y26.2858 
G00 Z3.0000  
G00 X27.7604 Y16.4718 
G01 Z-0.0400 F100   
G01 X27.7604 Y18.0722 F100   
G01 X27.7220 Y18.1650 
G01 X27.6510 Y18.2360 
G01 X27.5582 Y18.2744 
G01 X26.1578 Y18.2744 
G01 X26.0650 Y18.2360 
G01 X25.9940 Y18.1650 
G01 X25.9556 Y18.0722 
G01 X25.9556 Y16.4718 
G01 X25.9940 Y16.3790 
G01 X26.0650 Y16.3080 
G01 X26.1578 Y16.2696 
G01 X27.5582 Y16.2696 
G01 X27.6510 Y16.3080 
G01 X27.7220 Y16.3790 
G01 X27.7604 Y16.4718 
G00 Z3.0000  
G00 X25.8604 Y16.4718 
G01 Z-0.0400 F100   
G01 X25.8604 Y18.0722 F100   
G01 X25.8220 Y18.1650 
G01 X25.7510 Y18.2360 
G01 X25.6582 Y18.2744 
G01 X24.2578 Y18.2744 
G01 X24.1650 Y18.2360 
G01 X24.0940 Y18.1650 
G01 X24.0556 Y18.0722 
G01 X24.0556 Y16.4718 
G01 X24.0940 Y16.3790 
G01 X24.1650 Y16.3080 
G01 X24.2578 Y16.2696 
G01 X25.6582 Y16.2696 
G01 X25.7510 Y16.3080 
G01 X25.8220 Y16.3790 
G01 X25.8604 Y16.4718 
G00 Z3.0000  
G00 X28.8684 Y21.4018 
G01 Z-0.0400 F100   
G01 X28.8684 Y23.3022 F100   
G01 X28.8300 Y23.3950 
G01 X28.7590 Y23.4660 
G01 X28.6662 Y23.5044 
G01 X26.9658 Y23.5044 
G01 X26.8730 Y23.4660 
G01 X26.8020 Y23.3950 
G01 X26.7636 Y23.3022 
G01 X26.7636 Y21.4018 
G01 X26.8020 Y21.3090 
G01 X26.8730 Y21.2380 
G01 X26.9658 Y21.1996 
G01 X28.6662 Y21.1996 
G01 X28.7590 Y21.2380 
G01 X28.8300 Y21.3090 
G01 X28.8684 Y21.4018 
G00 Z3.0000  
G00 X26.0684 Y21.4018 
G01 Z-0.0400 F100   
G01 X26.0684 Y23.3022 F100   
G01 X26.0300 Y23.3950 
G01 X25.9590 Y23.4660 
G01 X25.8662 Y23.5044 
G01 X24.1658 Y23.5044 
G01 X24.0730 Y23.4660 
G01 X24.0020 Y23.3950 
G01 X23.9636 Y23.3022 
G01 X23.9636 Y21.4018 
G01 X24.0020 Y21.3090 
G01 X24.0730 Y21.2380 
G01 X24.1658 Y21.1996 
G01 X25.8662 Y21.1996 
G01 X25.9590 Y21.2380 
G01 X26.0300 Y21.3090 
G01 X26.0684 Y21.4018 
G00 Z3.0000  
G00 Z12.0000 
M05
M02
