(.../eagle/upl/pcb-gcode/pcb-gcode.ulp)
(Copyright 2005 - 2012 by John Johnson)
(See readme.txt for licensing terms.)
(This file generated from the board:)
(.../End mill tests/Ref_pcb_lite.brd)
(Current profile is .../upl/pcb-gcode/profiles/mach.pp  )
(This file generated 17/01/2018 17:37)
(Settings from pcb-machine.h)
(  Tool Size)
(0.1000  )
(Z Axis Settings)
(  High     Up        Down     Drill)
(12.0000 	3.0000  	-0.0600 	-1.4800 )
(spindle on time = 3.0000)
(milling depth = -1.4500)
(text depth = -0.1270)
(tool change at 12.7000 15.2400 45.0000 )
(feed rate xy = F100   )
(feed rate z  = F100   )
(Settings from pcb-defaults.h)
(isolate min = 0.0254)
(isolate max = 0.1000)
(isolate step = 0.1270)
(Generated top outlines, )
(Unit of measure: mm)
(Metric Mode)
G21
(Absolute Coordinates)
G90
G00 X0.0000  Y0.0000  
M03
G04 P3.000000
G00 Z3.0000  
G00 X36.7894 Y22.5099 
G01 Z-0.0600 F100   
G01 X36.7894 Y22.7021 F100   
G01 X36.7519 Y22.8905 
G01 X36.6784 Y23.0680 
G01 X36.5716 Y23.2278 
G01 X36.4358 Y23.3636 
G01 X36.2760 Y23.4704 
G01 X36.0985 Y23.5439 
G01 X35.9101 Y23.5814 
G01 X35.7179 Y23.5814 
G01 X35.5295 Y23.5439 
G01 X35.3520 Y23.4704 
G01 X35.1922 Y23.3636 
G01 X35.0564 Y23.2278 
G01 X34.9496 Y23.0680 
G01 X34.8761 Y22.8905 
G01 X34.8386 Y22.7021 
G01 X34.8386 Y22.5099 
G01 X34.8761 Y22.3215 
G01 X34.9496 Y22.1440 
G01 X35.0564 Y21.9842 
G01 X35.1922 Y21.8484 
G01 X35.3520 Y21.7416 
G01 X35.5295 Y21.6681 
G01 X35.7179 Y21.6306 
G01 X35.9101 Y21.6306 
G01 X36.0985 Y21.6681 
G01 X36.2760 Y21.7416 
G01 X36.4358 Y21.8484 
G01 X36.5716 Y21.9842 
G01 X36.6784 Y22.1440 
G01 X36.7519 Y22.3215 
G01 X36.7894 Y22.5099 
G00 Z3.0000  
G00 X36.7276 Y16.9280 
G01 Z-0.0600 F100   
G01 X36.7276 Y17.1080 F100   
G01 X36.6925 Y17.2845 
G01 X36.6236 Y17.4507 
G01 X36.5236 Y17.6004 
G01 X36.3964 Y17.7276 
G01 X36.2467 Y17.8276 
G01 X36.0805 Y17.8965 
G01 X35.9040 Y17.9316 
G01 X35.7240 Y17.9316 
G01 X35.5475 Y17.8965 
G01 X35.3812 Y17.8276 
G01 X35.2316 Y17.7276 
G01 X35.1044 Y17.6004 
G01 X35.0044 Y17.4507 
G01 X34.9355 Y17.2845 
G01 X34.9004 Y17.1080 
G01 X34.9004 Y16.9280 
G01 X34.9355 Y16.7515 
G01 X35.0044 Y16.5852 
G01 X35.1044 Y16.4356 
G01 X35.2316 Y16.3084 
G01 X35.3812 Y16.2084 
G01 X35.5475 Y16.1395 
G01 X35.7240 Y16.1044 
G01 X35.9040 Y16.1044 
G01 X36.0805 Y16.1395 
G01 X36.2467 Y16.2084 
G01 X36.3964 Y16.3084 
G01 X36.5236 Y16.4356 
G01 X36.6236 Y16.5852 
G01 X36.6925 Y16.7515 
G01 X36.7276 Y16.9280 
G00 Z3.0000  
G00 X36.7276 Y27.8500 
G01 Z-0.0600 F100   
G01 X36.7276 Y28.0300 F100   
G01 X36.6925 Y28.2065 
G01 X36.6236 Y28.3727 
G01 X36.5236 Y28.5224 
G01 X36.3964 Y28.6496 
G01 X36.2467 Y28.7496 
G01 X36.0805 Y28.8185 
G01 X35.9040 Y28.8536 
G01 X35.7240 Y28.8536 
G01 X35.5475 Y28.8185 
G01 X35.3812 Y28.7496 
G01 X35.2316 Y28.6496 
G01 X35.1044 Y28.5224 
G01 X35.0044 Y28.3727 
G01 X34.9355 Y28.2065 
G01 X34.9004 Y28.0300 
G01 X34.9004 Y27.8500 
G01 X34.9355 Y27.6735 
G01 X35.0044 Y27.5072 
G01 X35.1044 Y27.3576 
G01 X35.2316 Y27.2304 
G01 X35.3812 Y27.1304 
G01 X35.5475 Y27.0615 
G01 X35.7240 Y27.0264 
G01 X35.9040 Y27.0264 
G01 X36.0805 Y27.0615 
G01 X36.2467 Y27.1304 
G01 X36.3964 Y27.2304 
G01 X36.5236 Y27.3576 
G01 X36.6236 Y27.5072 
G01 X36.6925 Y27.6735 
G01 X36.7276 Y27.8500 
G00 Z3.0000  
G00 X1.9953  Y36.8054 
G01 Z-0.0600 F100   
G01 X33.8187 Y36.8054 F100   
G01 X33.8895 Y36.8244 
G01 X33.9531 Y36.8611 
G01 X34.0049 Y36.9129 
G01 X34.0416 Y36.9765 
G01 X34.0606 Y37.0473 
G01 X34.0606 Y37.1207 
G01 X34.0416 Y37.1915 
G01 X34.0049 Y37.2551 
G01 X33.9531 Y37.3069 
G01 X33.8895 Y37.3436 
G01 X33.8187 Y37.3626 
G01 X1.9953  Y37.3626 
G01 X1.9245  Y37.3436 
G01 X1.8609  Y37.3069 
G01 X1.8091  Y37.2551 
G01 X1.7724  Y37.1915 
G01 X1.7534  Y37.1207 
G01 X1.7534  Y37.0473 
G01 X1.7724  Y36.9765 
G01 X1.8091  Y36.9129 
G01 X1.8609  Y36.8611 
G01 X1.9245  Y36.8244 
G01 X1.9953  Y36.8054 
G00 Z3.0000  
G00 X2.7040  Y16.6124 
G01 Z-0.0600 F100   
G01 X11.5200 Y16.6124 F100   
G01 X11.6965 Y16.6475 
G01 X11.8628 Y16.7164 
G01 X12.0124 Y16.8164 
G01 X12.1396 Y16.9436 
G01 X12.2396 Y17.0932 
G01 X12.3085 Y17.2595 
G01 X12.3436 Y17.4360 
G01 X12.3436 Y17.6160 
G01 X12.3085 Y17.7925 
G01 X12.2396 Y17.9588 
G01 X12.1396 Y18.1084 
G01 X12.0124 Y18.2356 
G01 X11.8628 Y18.3356 
G01 X11.6965 Y18.4045 
G01 X11.5200 Y18.4396 
G01 X2.7040  Y18.4396 
G01 X2.5275  Y18.4045 
G01 X2.3612  Y18.3356 
G01 X2.2116  Y18.2356 
G01 X2.0844  Y18.1084 
G01 X1.9844  Y17.9588 
G01 X1.9155  Y17.7925 
G01 X1.8804  Y17.6160 
G01 X1.8804  Y17.4360 
G01 X1.9155  Y17.2595 
G01 X1.9844  Y17.0932 
G01 X2.0844  Y16.9436 
G01 X2.2116  Y16.8164 
G01 X2.3612  Y16.7164 
G01 X2.5275  Y16.6475 
G01 X2.7040  Y16.6124 
G00 Z3.0000  
G00 X2.4700  Y21.6416 
G01 Z-0.0600 F100   
G01 X17.5960 Y21.6416 F100   
G01 X17.7332 Y21.6689 
G01 X17.8625 Y21.7225 
G01 X17.9789 Y21.8002 
G01 X18.0778 Y21.8991 
G01 X18.1555 Y22.0155 
G01 X18.2091 Y22.1448 
G01 X18.2364 Y22.2820 
G01 X18.2364 Y22.4220 
G01 X18.2091 Y22.5592 
G01 X18.1555 Y22.6885 
G01 X18.0778 Y22.8049 
G01 X17.9789 Y22.9038 
G01 X17.8625 Y22.9815 
G01 X17.7332 Y23.0351 
G01 X17.5960 Y23.0624 
G01 X2.4700  Y23.0624 
G01 X2.3328  Y23.0351 
G01 X2.2035  Y22.9815 
G01 X2.0871  Y22.9038 
G01 X1.9882  Y22.8049 
G01 X1.9104  Y22.6885 
G01 X1.8569  Y22.5592 
G01 X1.8296  Y22.4220 
G01 X1.8296  Y22.2820 
G01 X1.8569  Y22.1448 
G01 X1.9104  Y22.0155 
G01 X1.9882  Y21.8991 
G01 X2.0871  Y21.8002 
G01 X2.2035  Y21.7225 
G01 X2.3328  Y21.6689 
G01 X2.4700  Y21.6416 
G00 Z3.0000  
G00 X2.2285  Y27.1026 
G01 Z-0.0600 F100   
G01 X22.1555 Y27.1026 F100   
G01 X22.2682 Y27.1250 
G01 X22.3743 Y27.1690 
G01 X22.4699 Y27.2328 
G01 X22.5512 Y27.3141 
G01 X22.6150 Y27.4097 
G01 X22.6590 Y27.5158 
G01 X22.6814 Y27.6285 
G01 X22.6814 Y27.7435 
G01 X22.6590 Y27.8562 
G01 X22.6150 Y27.9623 
G01 X22.5512 Y28.0579 
G01 X22.4699 Y28.1392 
G01 X22.3743 Y28.2030 
G01 X22.2682 Y28.2470 
G01 X22.1555 Y28.2694 
G01 X2.2285  Y28.2694 
G01 X2.1158  Y28.2470 
G01 X2.0097  Y28.2030 
G01 X1.9141  Y28.1392 
G01 X1.8328  Y28.0579 
G01 X1.7690  Y27.9623 
G01 X1.7250  Y27.8562 
G01 X1.7026  Y27.7435 
G01 X1.7026  Y27.6285 
G01 X1.7250  Y27.5158 
G01 X1.7690  Y27.4097 
G01 X1.8328  Y27.3141 
G01 X1.9141  Y27.2328 
G01 X2.0097  Y27.1690 
G01 X2.1158  Y27.1250 
G01 X2.2285  Y27.1026 
G00 Z3.0000  
G00 X2.2359  Y32.6398 
G01 Z-0.0600 F100   
G01 X27.2281 Y32.6398 F100   
G01 X27.3248 Y32.6657 
G01 X27.4114 Y32.7158 
G01 X27.4822 Y32.7865 
G01 X27.5323 Y32.8732 
G01 X27.5582 Y32.9699 
G01 X27.5582 Y33.0701 
G01 X27.5323 Y33.1668 
G01 X27.4822 Y33.2534 
G01 X27.4114 Y33.3242 
G01 X27.3248 Y33.3743 
G01 X27.2281 Y33.4002 
G01 X2.2359  Y33.4002 
G01 X2.1392  Y33.3743 
G01 X2.0526  Y33.3242 
G01 X1.9818  Y33.2534 
G01 X1.9317  Y33.1668 
G01 X1.9058  Y33.0701 
G01 X1.9058  Y32.9699 
G01 X1.9317  Y32.8732 
G01 X1.9818  Y32.7865 
G01 X2.0526  Y32.7158 
G01 X2.1392  Y32.6657 
G01 X2.2359  Y32.6398 
G00 Z3.0000  
G00 X26.0596 Y44.8680 
G01 Z-0.0600 F100   
G01 X26.0596 Y45.0480 F100   
G01 X26.0245 Y45.2245 
G01 X25.9556 Y45.3908 
G01 X25.8556 Y45.5404 
G01 X25.7284 Y45.6676 
G01 X25.5788 Y45.7676 
G01 X25.4125 Y45.8365 
G01 X25.2360 Y45.8716 
G01 X25.0560 Y45.8716 
G01 X24.8795 Y45.8365 
G01 X24.7132 Y45.7676 
G01 X24.5636 Y45.6676 
G01 X24.4364 Y45.5404 
G01 X24.3364 Y45.3908 
G01 X24.2675 Y45.2245 
G01 X24.2324 Y45.0480 
G01 X24.2324 Y44.8680 
G01 X24.2675 Y44.6915 
G01 X24.3364 Y44.5252 
G01 X24.4364 Y44.3756 
G01 X24.5636 Y44.2484 
G01 X24.7132 Y44.1484 
G01 X24.8795 Y44.0795 
G01 X25.0560 Y44.0444 
G01 X25.2360 Y44.0444 
G01 X25.4125 Y44.0795 
G01 X25.5788 Y44.1484 
G01 X25.7284 Y44.2484 
G01 X25.8556 Y44.3756 
G01 X25.9556 Y44.5252 
G01 X26.0245 Y44.6915 
G01 X26.0596 Y44.8680 
G00 Z3.0000  
G00 X23.5196 Y44.8680 
G01 Z-0.0600 F100   
G01 X23.5196 Y45.0480 F100   
G01 X23.4845 Y45.2245 
G01 X23.4156 Y45.3908 
G01 X23.3156 Y45.5404 
G01 X23.1884 Y45.6676 
G01 X23.0388 Y45.7676 
G01 X22.8725 Y45.8365 
G01 X22.6960 Y45.8716 
G01 X22.5160 Y45.8716 
G01 X22.3395 Y45.8365 
G01 X22.1732 Y45.7676 
G01 X22.0236 Y45.6676 
G01 X21.8964 Y45.5404 
G01 X21.7964 Y45.3908 
G01 X21.7275 Y45.2245 
G01 X21.6924 Y45.0480 
G01 X21.6924 Y44.8680 
G01 X21.7275 Y44.6915 
G01 X21.7964 Y44.5252 
G01 X21.8964 Y44.3756 
G01 X22.0236 Y44.2484 
G01 X22.1732 Y44.1484 
G01 X22.3395 Y44.0795 
G01 X22.5160 Y44.0444 
G01 X22.6960 Y44.0444 
G01 X22.8725 Y44.0795 
G01 X23.0388 Y44.1484 
G01 X23.1884 Y44.2484 
G01 X23.3156 Y44.3756 
G01 X23.4156 Y44.5252 
G01 X23.4845 Y44.6915 
G01 X23.5196 Y44.8680 
G00 Z3.0000  
G00 X20.9796 Y44.8680 
G01 Z-0.0600 F100   
G01 X20.9796 Y45.0480 F100   
G01 X20.9445 Y45.2245 
G01 X20.8756 Y45.3908 
G01 X20.7756 Y45.5404 
G01 X20.6484 Y45.6676 
G01 X20.4988 Y45.7676 
G01 X20.3325 Y45.8365 
G01 X20.1560 Y45.8716 
G01 X19.9760 Y45.8716 
G01 X19.7995 Y45.8365 
G01 X19.6332 Y45.7676 
G01 X19.4836 Y45.6676 
G01 X19.3564 Y45.5404 
G01 X19.2564 Y45.3908 
G01 X19.1875 Y45.2245 
G01 X19.1524 Y45.0480 
G01 X19.1524 Y44.8680 
G01 X19.1875 Y44.6915 
G01 X19.2564 Y44.5252 
G01 X19.3564 Y44.3756 
G01 X19.4836 Y44.2484 
G01 X19.6332 Y44.1484 
G01 X19.7995 Y44.0795 
G01 X19.9760 Y44.0444 
G01 X20.1560 Y44.0444 
G01 X20.3325 Y44.0795 
G01 X20.4988 Y44.1484 
G01 X20.6484 Y44.2484 
G01 X20.7756 Y44.3756 
G01 X20.8756 Y44.5252 
G01 X20.9445 Y44.6915 
G01 X20.9796 Y44.8680 
G00 Z3.0000  
G00 X18.4396 Y44.8680 
G01 Z-0.0600 F100   
G01 X18.4396 Y45.0480 F100   
G01 X18.4045 Y45.2245 
G01 X18.3356 Y45.3908 
G01 X18.2356 Y45.5404 
G01 X18.1084 Y45.6676 
G01 X17.9588 Y45.7676 
G01 X17.7925 Y45.8365 
G01 X17.6160 Y45.8716 
G01 X17.4360 Y45.8716 
G01 X17.2595 Y45.8365 
G01 X17.0932 Y45.7676 
G01 X16.9436 Y45.6676 
G01 X16.8164 Y45.5404 
G01 X16.7164 Y45.3908 
G01 X16.6475 Y45.2245 
G01 X16.6124 Y45.0480 
G01 X16.6124 Y44.8680 
G01 X16.6475 Y44.6915 
G01 X16.7164 Y44.5252 
G01 X16.8164 Y44.3756 
G01 X16.9436 Y44.2484 
G01 X17.0932 Y44.1484 
G01 X17.2595 Y44.0795 
G01 X17.4360 Y44.0444 
G01 X17.6160 Y44.0444 
G01 X17.7925 Y44.0795 
G01 X17.9588 Y44.1484 
G01 X18.1084 Y44.2484 
G01 X18.2356 Y44.3756 
G01 X18.3356 Y44.5252 
G01 X18.4045 Y44.6915 
G01 X18.4396 Y44.8680 
G00 Z3.0000  
G00 X26.0596 Y47.4080 
G01 Z-0.0600 F100   
G01 X26.0596 Y47.5880 F100   
G01 X26.0245 Y47.7645 
G01 X25.9556 Y47.9308 
G01 X25.8556 Y48.0804 
G01 X25.7284 Y48.2076 
G01 X25.5788 Y48.3076 
G01 X25.4125 Y48.3765 
G01 X25.2360 Y48.4116 
G01 X25.0560 Y48.4116 
G01 X24.8795 Y48.3765 
G01 X24.7132 Y48.3076 
G01 X24.5636 Y48.2076 
G01 X24.4364 Y48.0804 
G01 X24.3364 Y47.9308 
G01 X24.2675 Y47.7645 
G01 X24.2324 Y47.5880 
G01 X24.2324 Y47.4080 
G01 X24.2675 Y47.2315 
G01 X24.3364 Y47.0652 
G01 X24.4364 Y46.9156 
G01 X24.5636 Y46.7884 
G01 X24.7132 Y46.6884 
G01 X24.8795 Y46.6195 
G01 X25.0560 Y46.5844 
G01 X25.2360 Y46.5844 
G01 X25.4125 Y46.6195 
G01 X25.5788 Y46.6884 
G01 X25.7284 Y46.7884 
G01 X25.8556 Y46.9156 
G01 X25.9556 Y47.0652 
G01 X26.0245 Y47.2315 
G01 X26.0596 Y47.4080 
G00 Z3.0000  
G00 X23.5196 Y47.4080 
G01 Z-0.0600 F100   
G01 X23.5196 Y47.5880 F100   
G01 X23.4845 Y47.7645 
G01 X23.4156 Y47.9308 
G01 X23.3156 Y48.0804 
G01 X23.1884 Y48.2076 
G01 X23.0388 Y48.3076 
G01 X22.8725 Y48.3765 
G01 X22.6960 Y48.4116 
G01 X22.5160 Y48.4116 
G01 X22.3395 Y48.3765 
G01 X22.1732 Y48.3076 
G01 X22.0236 Y48.2076 
G01 X21.8964 Y48.0804 
G01 X21.7964 Y47.9308 
G01 X21.7275 Y47.7645 
G01 X21.6924 Y47.5880 
G01 X21.6924 Y47.4080 
G01 X21.7275 Y47.2315 
G01 X21.7964 Y47.0652 
G01 X21.8964 Y46.9156 
G01 X22.0236 Y46.7884 
G01 X22.1732 Y46.6884 
G01 X22.3395 Y46.6195 
G01 X22.5160 Y46.5844 
G01 X22.6960 Y46.5844 
G01 X22.8725 Y46.6195 
G01 X23.0388 Y46.6884 
G01 X23.1884 Y46.7884 
G01 X23.3156 Y46.9156 
G01 X23.4156 Y47.0652 
G01 X23.4845 Y47.2315 
G01 X23.5196 Y47.4080 
G00 Z3.0000  
G00 X20.9796 Y47.4080 
G01 Z-0.0600 F100   
G01 X20.9796 Y47.5880 F100   
G01 X20.9445 Y47.7645 
G01 X20.8756 Y47.9308 
G01 X20.7756 Y48.0804 
G01 X20.6484 Y48.2076 
G01 X20.4988 Y48.3076 
G01 X20.3325 Y48.3765 
G01 X20.1560 Y48.4116 
G01 X19.9760 Y48.4116 
G01 X19.7995 Y48.3765 
G01 X19.6332 Y48.3076 
G01 X19.4836 Y48.2076 
G01 X19.3564 Y48.0804 
G01 X19.2564 Y47.9308 
G01 X19.1875 Y47.7645 
G01 X19.1524 Y47.5880 
G01 X19.1524 Y47.4080 
G01 X19.1875 Y47.2315 
G01 X19.2564 Y47.0652 
G01 X19.3564 Y46.9156 
G01 X19.4836 Y46.7884 
G01 X19.6332 Y46.6884 
G01 X19.7995 Y46.6195 
G01 X19.9760 Y46.5844 
G01 X20.1560 Y46.5844 
G01 X20.3325 Y46.6195 
G01 X20.4988 Y46.6884 
G01 X20.6484 Y46.7884 
G01 X20.7756 Y46.9156 
G01 X20.8756 Y47.0652 
G01 X20.9445 Y47.2315 
G01 X20.9796 Y47.4080 
G00 Z3.0000  
G00 X18.4396 Y47.4080 
G01 Z-0.0600 F100   
G01 X18.4396 Y47.5880 F100   
G01 X18.4045 Y47.7645 
G01 X18.3356 Y47.9308 
G01 X18.2356 Y48.0804 
G01 X18.1084 Y48.2076 
G01 X17.9588 Y48.3076 
G01 X17.7925 Y48.3765 
G01 X17.6160 Y48.4116 
G01 X17.4360 Y48.4116 
G01 X17.2595 Y48.3765 
G01 X17.0932 Y48.3076 
G01 X16.9436 Y48.2076 
G01 X16.8164 Y48.0804 
G01 X16.7164 Y47.9308 
G01 X16.6475 Y47.7645 
G01 X16.6124 Y47.5880 
G01 X16.6124 Y47.4080 
G01 X16.6475 Y47.2315 
G01 X16.7164 Y47.0652 
G01 X16.8164 Y46.9156 
G01 X16.9436 Y46.7884 
G01 X17.0932 Y46.6884 
G01 X17.2595 Y46.6195 
G01 X17.4360 Y46.5844 
G01 X17.6160 Y46.5844 
G01 X17.7925 Y46.6195 
G01 X17.9588 Y46.6884 
G01 X18.1084 Y46.7884 
G01 X18.2356 Y46.9156 
G01 X18.3356 Y47.0652 
G01 X18.4045 Y47.2315 
G01 X18.4396 Y47.4080 
G00 Z3.0000  
G00 X26.0596 Y49.9480 
G01 Z-0.0600 F100   
G01 X26.0596 Y50.1280 F100   
G01 X26.0245 Y50.3045 
G01 X25.9556 Y50.4708 
G01 X25.8556 Y50.6204 
G01 X25.7284 Y50.7476 
G01 X25.5788 Y50.8476 
G01 X25.4125 Y50.9165 
G01 X25.2360 Y50.9516 
G01 X25.0560 Y50.9516 
G01 X24.8795 Y50.9165 
G01 X24.7132 Y50.8476 
G01 X24.5636 Y50.7476 
G01 X24.4364 Y50.6204 
G01 X24.3364 Y50.4708 
G01 X24.2675 Y50.3045 
G01 X24.2324 Y50.1280 
G01 X24.2324 Y49.9480 
G01 X24.2675 Y49.7715 
G01 X24.3364 Y49.6052 
G01 X24.4364 Y49.4556 
G01 X24.5636 Y49.3284 
G01 X24.7132 Y49.2284 
G01 X24.8795 Y49.1595 
G01 X25.0560 Y49.1244 
G01 X25.2360 Y49.1244 
G01 X25.4125 Y49.1595 
G01 X25.5788 Y49.2284 
G01 X25.7284 Y49.3284 
G01 X25.8556 Y49.4556 
G01 X25.9556 Y49.6052 
G01 X26.0245 Y49.7715 
G01 X26.0596 Y49.9480 
G00 Z3.0000  
G00 X23.5196 Y49.9480 
G01 Z-0.0600 F100   
G01 X23.5196 Y50.1280 F100   
G01 X23.4845 Y50.3045 
G01 X23.4156 Y50.4708 
G01 X23.3156 Y50.6204 
G01 X23.1884 Y50.7476 
G01 X23.0388 Y50.8476 
G01 X22.8725 Y50.9165 
G01 X22.6960 Y50.9516 
G01 X22.5160 Y50.9516 
G01 X22.3395 Y50.9165 
G01 X22.1732 Y50.8476 
G01 X22.0236 Y50.7476 
G01 X21.8964 Y50.6204 
G01 X21.7964 Y50.4708 
G01 X21.7275 Y50.3045 
G01 X21.6924 Y50.1280 
G01 X21.6924 Y49.9480 
G01 X21.7275 Y49.7715 
G01 X21.7964 Y49.6052 
G01 X21.8964 Y49.4556 
G01 X22.0236 Y49.3284 
G01 X22.1732 Y49.2284 
G01 X22.3395 Y49.1595 
G01 X22.5160 Y49.1244 
G01 X22.6960 Y49.1244 
G01 X22.8725 Y49.1595 
G01 X23.0388 Y49.2284 
G01 X23.1884 Y49.3284 
G01 X23.3156 Y49.4556 
G01 X23.4156 Y49.6052 
G01 X23.4845 Y49.7715 
G01 X23.5196 Y49.9480 
G00 Z3.0000  
G00 X20.9796 Y49.9480 
G01 Z-0.0600 F100   
G01 X20.9796 Y50.1280 F100   
G01 X20.9445 Y50.3045 
G01 X20.8756 Y50.4708 
G01 X20.7756 Y50.6204 
G01 X20.6484 Y50.7476 
G01 X20.4988 Y50.8476 
G01 X20.3325 Y50.9165 
G01 X20.1560 Y50.9516 
G01 X19.9760 Y50.9516 
G01 X19.7995 Y50.9165 
G01 X19.6332 Y50.8476 
G01 X19.4836 Y50.7476 
G01 X19.3564 Y50.6204 
G01 X19.2564 Y50.4708 
G01 X19.1875 Y50.3045 
G01 X19.1524 Y50.1280 
G01 X19.1524 Y49.9480 
G01 X19.1875 Y49.7715 
G01 X19.2564 Y49.6052 
G01 X19.3564 Y49.4556 
G01 X19.4836 Y49.3284 
G01 X19.6332 Y49.2284 
G01 X19.7995 Y49.1595 
G01 X19.9760 Y49.1244 
G01 X20.1560 Y49.1244 
G01 X20.3325 Y49.1595 
G01 X20.4988 Y49.2284 
G01 X20.6484 Y49.3284 
G01 X20.7756 Y49.4556 
G01 X20.8756 Y49.6052 
G01 X20.9445 Y49.7715 
G01 X20.9796 Y49.9480 
G00 Z3.0000  
G00 X18.4396 Y49.9480 
G01 Z-0.0600 F100   
G01 X18.4396 Y50.1280 F100   
G01 X18.4045 Y50.3045 
G01 X18.3356 Y50.4708 
G01 X18.2356 Y50.6204 
G01 X18.1084 Y50.7476 
G01 X17.9588 Y50.8476 
G01 X17.7925 Y50.9165 
G01 X17.6160 Y50.9516 
G01 X17.4360 Y50.9516 
G01 X17.2595 Y50.9165 
G01 X17.0932 Y50.8476 
G01 X16.9436 Y50.7476 
G01 X16.8164 Y50.6204 
G01 X16.7164 Y50.4708 
G01 X16.6475 Y50.3045 
G01 X16.6124 Y50.1280 
G01 X16.6124 Y49.9480 
G01 X16.6475 Y49.7715 
G01 X16.7164 Y49.6052 
G01 X16.8164 Y49.4556 
G01 X16.9436 Y49.3284 
G01 X17.0932 Y49.2284 
G01 X17.2595 Y49.1595 
G01 X17.4360 Y49.1244 
G01 X17.6160 Y49.1244 
G01 X17.7925 Y49.1595 
G01 X17.9588 Y49.2284 
G01 X18.1084 Y49.3284 
G01 X18.2356 Y49.4556 
G01 X18.3356 Y49.6052 
G01 X18.4045 Y49.7715 
G01 X18.4396 Y49.9480 
G00 Z3.0000  
G00 X26.0596 Y52.4880 
G01 Z-0.0600 F100   
G01 X26.0596 Y52.6680 F100   
G01 X26.0245 Y52.8445 
G01 X25.9556 Y53.0108 
G01 X25.8556 Y53.1604 
G01 X25.7284 Y53.2876 
G01 X25.5788 Y53.3876 
G01 X25.4125 Y53.4565 
G01 X25.2360 Y53.4916 
G01 X25.0560 Y53.4916 
G01 X24.8795 Y53.4565 
G01 X24.7132 Y53.3876 
G01 X24.5636 Y53.2876 
G01 X24.4364 Y53.1604 
G01 X24.3364 Y53.0108 
G01 X24.2675 Y52.8445 
G01 X24.2324 Y52.6680 
G01 X24.2324 Y52.4880 
G01 X24.2675 Y52.3115 
G01 X24.3364 Y52.1452 
G01 X24.4364 Y51.9956 
G01 X24.5636 Y51.8684 
G01 X24.7132 Y51.7684 
G01 X24.8795 Y51.6995 
G01 X25.0560 Y51.6644 
G01 X25.2360 Y51.6644 
G01 X25.4125 Y51.6995 
G01 X25.5788 Y51.7684 
G01 X25.7284 Y51.8684 
G01 X25.8556 Y51.9956 
G01 X25.9556 Y52.1452 
G01 X26.0245 Y52.3115 
G01 X26.0596 Y52.4880 
G00 Z3.0000  
G00 X23.5196 Y52.4880 
G01 Z-0.0600 F100   
G01 X23.5196 Y52.6680 F100   
G01 X23.4845 Y52.8445 
G01 X23.4156 Y53.0108 
G01 X23.3156 Y53.1604 
G01 X23.1884 Y53.2876 
G01 X23.0388 Y53.3876 
G01 X22.8725 Y53.4565 
G01 X22.6960 Y53.4916 
G01 X22.5160 Y53.4916 
G01 X22.3395 Y53.4565 
G01 X22.1732 Y53.3876 
G01 X22.0236 Y53.2876 
G01 X21.8964 Y53.1604 
G01 X21.7964 Y53.0108 
G01 X21.7275 Y52.8445 
G01 X21.6924 Y52.6680 
G01 X21.6924 Y52.4880 
G01 X21.7275 Y52.3115 
G01 X21.7964 Y52.1452 
G01 X21.8964 Y51.9956 
G01 X22.0236 Y51.8684 
G01 X22.1732 Y51.7684 
G01 X22.3395 Y51.6995 
G01 X22.5160 Y51.6644 
G01 X22.6960 Y51.6644 
G01 X22.8725 Y51.6995 
G01 X23.0388 Y51.7684 
G01 X23.1884 Y51.8684 
G01 X23.3156 Y51.9956 
G01 X23.4156 Y52.1452 
G01 X23.4845 Y52.3115 
G01 X23.5196 Y52.4880 
G00 Z3.0000  
G00 X20.9796 Y52.4880 
G01 Z-0.0600 F100   
G01 X20.9796 Y52.6680 F100   
G01 X20.9445 Y52.8445 
G01 X20.8756 Y53.0108 
G01 X20.7756 Y53.1604 
G01 X20.6484 Y53.2876 
G01 X20.4988 Y53.3876 
G01 X20.3325 Y53.4565 
G01 X20.1560 Y53.4916 
G01 X19.9760 Y53.4916 
G01 X19.7995 Y53.4565 
G01 X19.6332 Y53.3876 
G01 X19.4836 Y53.2876 
G01 X19.3564 Y53.1604 
G01 X19.2564 Y53.0108 
G01 X19.1875 Y52.8445 
G01 X19.1524 Y52.6680 
G01 X19.1524 Y52.4880 
G01 X19.1875 Y52.3115 
G01 X19.2564 Y52.1452 
G01 X19.3564 Y51.9956 
G01 X19.4836 Y51.8684 
G01 X19.6332 Y51.7684 
G01 X19.7995 Y51.6995 
G01 X19.9760 Y51.6644 
G01 X20.1560 Y51.6644 
G01 X20.3325 Y51.6995 
G01 X20.4988 Y51.7684 
G01 X20.6484 Y51.8684 
G01 X20.7756 Y51.9956 
G01 X20.8756 Y52.1452 
G01 X20.9445 Y52.3115 
G01 X20.9796 Y52.4880 
G00 Z3.0000  
G00 X18.4396 Y52.4880 
G01 Z-0.0600 F100   
G01 X18.4396 Y52.6680 F100   
G01 X18.4045 Y52.8445 
G01 X18.3356 Y53.0108 
G01 X18.2356 Y53.1604 
G01 X18.1084 Y53.2876 
G01 X17.9588 Y53.3876 
G01 X17.7925 Y53.4565 
G01 X17.6160 Y53.4916 
G01 X17.4360 Y53.4916 
G01 X17.2595 Y53.4565 
G01 X17.0932 Y53.3876 
G01 X16.9436 Y53.2876 
G01 X16.8164 Y53.1604 
G01 X16.7164 Y53.0108 
G01 X16.6475 Y52.8445 
G01 X16.6124 Y52.6680 
G01 X16.6124 Y52.4880 
G01 X16.6475 Y52.3115 
G01 X16.7164 Y52.1452 
G01 X16.8164 Y51.9956 
G01 X16.9436 Y51.8684 
G01 X17.0932 Y51.7684 
G01 X17.2595 Y51.6995 
G01 X17.4360 Y51.6644 
G01 X17.6160 Y51.6644 
G01 X17.7925 Y51.6995 
G01 X17.9588 Y51.7684 
G01 X18.1084 Y51.8684 
G01 X18.2356 Y51.9956 
G01 X18.3356 Y52.1452 
G01 X18.4045 Y52.3115 
G01 X18.4396 Y52.4880 
G00 Z3.0000  
G00 X37.2118 Y13.5121 
G01 Z-0.0600 F100   
G01 X37.2118 Y0.9659  F100   
G01 X37.2377 Y0.8692  
G01 X37.2878 Y0.7826  
G01 X37.3586 Y0.7118  
G01 X37.4452 Y0.6617  
G01 X37.5419 Y0.6358  
G01 X37.6421 Y0.6358  
G01 X37.7388 Y0.6617  
G01 X37.8254 Y0.7118  
G01 X37.8962 Y0.7826  
G01 X37.9463 Y0.8692  
G01 X37.9722 Y0.9659  
G01 X37.9722 Y13.5121 
G01 X37.9463 Y13.6088 
G01 X37.8962 Y13.6954 
G01 X37.8254 Y13.7662 
G01 X37.7388 Y13.8163 
G01 X37.6421 Y13.8422 
G01 X37.5419 Y13.8422 
G01 X37.4452 Y13.8163 
G01 X37.3586 Y13.7662 
G01 X37.2878 Y13.6954 
G01 X37.2377 Y13.6088 
G01 X37.2118 Y13.5121 
G00 Z3.0000  
G00 X34.6718 Y7.4161  
G01 Z-0.0600 F100   
G01 X34.6718 Y0.9659  F100   
G01 X34.6977 Y0.8692  
G01 X34.7478 Y0.7826  
G01 X34.8186 Y0.7118  
G01 X34.9052 Y0.6617  
G01 X35.0019 Y0.6358  
G01 X35.1021 Y0.6358  
G01 X35.1988 Y0.6617  
G01 X35.2854 Y0.7118  
G01 X35.3562 Y0.7826  
G01 X35.4063 Y0.8692  
G01 X35.4322 Y0.9659  
G01 X35.4322 Y7.4161  
G01 X35.4063 Y7.5128  
G01 X35.3562 Y7.5994  
G01 X35.2854 Y7.6702  
G01 X35.1988 Y7.7203  
G01 X35.1021 Y7.7462  
G01 X35.0019 Y7.7462  
G01 X34.9052 Y7.7203  
G01 X34.8186 Y7.6702  
G01 X34.7478 Y7.5994  
G01 X34.6977 Y7.5128  
G01 X34.6718 Y7.4161  
G00 Z3.0000  
G00 X32.1318 Y7.4161  
G01 Z-0.0600 F100   
G01 X32.1318 Y0.9659  F100   
G01 X32.1577 Y0.8692  
G01 X32.2078 Y0.7826  
G01 X32.2786 Y0.7118  
G01 X32.3652 Y0.6617  
G01 X32.4619 Y0.6358  
G01 X32.5621 Y0.6358  
G01 X32.6588 Y0.6617  
G01 X32.7454 Y0.7118  
G01 X32.8162 Y0.7826  
G01 X32.8663 Y0.8692  
G01 X32.8922 Y0.9659  
G01 X32.8922 Y7.4161  
G01 X32.8663 Y7.5128  
G01 X32.8162 Y7.5994  
G01 X32.7454 Y7.6702  
G01 X32.6588 Y7.7203  
G01 X32.5621 Y7.7462  
G01 X32.4619 Y7.7462  
G01 X32.3652 Y7.7203  
G01 X32.2786 Y7.6702  
G01 X32.2078 Y7.5994  
G01 X32.1577 Y7.5128  
G01 X32.1318 Y7.4161  
G00 Z3.0000  
G00 X29.5918 Y7.4161  
G01 Z-0.0600 F100   
G01 X29.5918 Y1.2199  F100   
G01 X29.6177 Y1.1232  
G01 X29.6678 Y1.0366  
G01 X29.7386 Y0.9658  
G01 X29.8252 Y0.9157  
G01 X29.9219 Y0.8898  
G01 X30.0221 Y0.8898  
G01 X30.1188 Y0.9157  
G01 X30.2054 Y0.9658  
G01 X30.2762 Y1.0366  
G01 X30.3263 Y1.1232  
G01 X30.3522 Y1.2199  
G01 X30.3522 Y7.4161  
G01 X30.3263 Y7.5128  
G01 X30.2762 Y7.5994  
G01 X30.2054 Y7.6702  
G01 X30.1188 Y7.7203  
G01 X30.0221 Y7.7462  
G01 X29.9219 Y7.7462  
G01 X29.8252 Y7.7203  
G01 X29.7386 Y7.6702  
G01 X29.6678 Y7.5994  
G01 X29.6177 Y7.5128  
G01 X29.5918 Y7.4161  
G00 Z3.0000  
G00 X27.0518 Y7.4161  
G01 Z-0.0600 F100   
G01 X27.0518 Y0.9659  F100   
G01 X27.0777 Y0.8692  
G01 X27.1278 Y0.7826  
G01 X27.1986 Y0.7118  
G01 X27.2852 Y0.6617  
G01 X27.3819 Y0.6358  
G01 X27.4821 Y0.6358  
G01 X27.5788 Y0.6617  
G01 X27.6654 Y0.7118  
G01 X27.7362 Y0.7826  
G01 X27.7863 Y0.8692  
G01 X27.8122 Y0.9659  
G01 X27.8122 Y7.4161  
G01 X27.7863 Y7.5128  
G01 X27.7362 Y7.5994  
G01 X27.6654 Y7.6702  
G01 X27.5788 Y7.7203  
G01 X27.4821 Y7.7462  
G01 X27.3819 Y7.7462  
G01 X27.2852 Y7.7203  
G01 X27.1986 Y7.6702  
G01 X27.1278 Y7.5994  
G01 X27.0777 Y7.5128  
G01 X27.0518 Y7.4161  
G00 Z3.0000  
G00 X24.5118 Y13.7661 
G01 Z-0.0600 F100   
G01 X24.5118 Y0.9659  F100   
G01 X24.5377 Y0.8692  
G01 X24.5878 Y0.7826  
G01 X24.6586 Y0.7118  
G01 X24.7452 Y0.6617  
G01 X24.8419 Y0.6358  
G01 X24.9421 Y0.6358  
G01 X25.0388 Y0.6617  
G01 X25.1254 Y0.7118  
G01 X25.1962 Y0.7826  
G01 X25.2463 Y0.8692  
G01 X25.2722 Y0.9659  
G01 X25.2722 Y13.7661 
G01 X25.2463 Y13.8628 
G01 X25.1962 Y13.9494 
G01 X25.1254 Y14.0202 
G01 X25.0388 Y14.0703 
G01 X24.9421 Y14.0962 
G01 X24.8419 Y14.0962 
G01 X24.7452 Y14.0703 
G01 X24.6586 Y14.0202 
G01 X24.5878 Y13.9494 
G01 X24.5377 Y13.8628 
G01 X24.5118 Y13.7661 
G00 Z3.0000  
G00 X21.9718 Y7.6701  
G01 Z-0.0600 F100   
G01 X21.9718 Y0.9659  F100   
G01 X21.9977 Y0.8692  
G01 X22.0478 Y0.7826  
G01 X22.1186 Y0.7118  
G01 X22.2052 Y0.6617  
G01 X22.3019 Y0.6358  
G01 X22.4021 Y0.6358  
G01 X22.4988 Y0.6617  
G01 X22.5854 Y0.7118  
G01 X22.6562 Y0.7826  
G01 X22.7063 Y0.8692  
G01 X22.7322 Y0.9659  
G01 X22.7322 Y7.6701  
G01 X22.7063 Y7.7668  
G01 X22.6562 Y7.8534  
G01 X22.5854 Y7.9242  
G01 X22.4988 Y7.9743  
G01 X22.4021 Y8.0002  
G01 X22.3019 Y8.0002  
G01 X22.2052 Y7.9743  
G01 X22.1186 Y7.9242  
G01 X22.0478 Y7.8534  
G01 X21.9977 Y7.7668  
G01 X21.9718 Y7.6701  
G00 Z3.0000  
G00 X19.4318 Y7.4161  
G01 Z-0.0600 F100   
G01 X19.4318 Y0.9659  F100   
G01 X19.4577 Y0.8692  
G01 X19.5078 Y0.7826  
G01 X19.5785 Y0.7118  
G01 X19.6652 Y0.6617  
G01 X19.7619 Y0.6358  
G01 X19.8621 Y0.6358  
G01 X19.9588 Y0.6617  
G01 X20.0454 Y0.7118  
G01 X20.1162 Y0.7826  
G01 X20.1663 Y0.8692  
G01 X20.1922 Y0.9659  
G01 X20.1922 Y7.4161  
G01 X20.1663 Y7.5128  
G01 X20.1162 Y7.5994  
G01 X20.0454 Y7.6702  
G01 X19.9588 Y7.7203  
G01 X19.8621 Y7.7462  
G01 X19.7619 Y7.7462  
G01 X19.6652 Y7.7203  
G01 X19.5785 Y7.6702  
G01 X19.5078 Y7.5994  
G01 X19.4577 Y7.5128  
G01 X19.4318 Y7.4161  
G00 Z3.0000  
G00 X16.8918 Y7.4161  
G01 Z-0.0600 F100   
G01 X16.8918 Y1.2199  F100   
G01 X16.9177 Y1.1232  
G01 X16.9678 Y1.0366  
G01 X17.0386 Y0.9658  
G01 X17.1252 Y0.9157  
G01 X17.2219 Y0.8898  
G01 X17.3221 Y0.8898  
G01 X17.4187 Y0.9157  
G01 X17.5054 Y0.9658  
G01 X17.5762 Y1.0366  
G01 X17.6263 Y1.1232  
G01 X17.6522 Y1.2199  
G01 X17.6522 Y7.4161  
G01 X17.6263 Y7.5128  
G01 X17.5762 Y7.5994  
G01 X17.5054 Y7.6702  
G01 X17.4187 Y7.7203  
G01 X17.3221 Y7.7462  
G01 X17.2219 Y7.7462  
G01 X17.1252 Y7.7203  
G01 X17.0386 Y7.6702  
G01 X16.9678 Y7.5994  
G01 X16.9177 Y7.5128  
G01 X16.8918 Y7.4161  
G00 Z3.0000  
G00 X14.3518 Y7.4161  
G01 Z-0.0600 F100   
G01 X14.3518 Y0.9659  F100   
G01 X14.3777 Y0.8692  
G01 X14.4278 Y0.7826  
G01 X14.4985 Y0.7118  
G01 X14.5852 Y0.6617  
G01 X14.6819 Y0.6358  
G01 X14.7821 Y0.6358  
G01 X14.8788 Y0.6617  
G01 X14.9654 Y0.7118  
G01 X15.0362 Y0.7826  
G01 X15.0863 Y0.8692  
G01 X15.1122 Y0.9659  
G01 X15.1122 Y7.4161  
G01 X15.0863 Y7.5128  
G01 X15.0362 Y7.5994  
G01 X14.9654 Y7.6702  
G01 X14.8788 Y7.7203  
G01 X14.7821 Y7.7462  
G01 X14.6819 Y7.7462  
G01 X14.5852 Y7.7203  
G01 X14.4985 Y7.6702  
G01 X14.4278 Y7.5994  
G01 X14.3777 Y7.5128  
G01 X14.3518 Y7.4161  
G00 Z3.0000  
G00 X11.8118 Y13.5121 
G01 Z-0.0600 F100   
G01 X11.8118 Y0.9659  F100   
G01 X11.8377 Y0.8692  
G01 X11.8878 Y0.7826  
G01 X11.9586 Y0.7118  
G01 X12.0452 Y0.6617  
G01 X12.1419 Y0.6358  
G01 X12.2421 Y0.6358  
G01 X12.3388 Y0.6617  
G01 X12.4254 Y0.7118  
G01 X12.4962 Y0.7826  
G01 X12.5463 Y0.8692  
G01 X12.5722 Y0.9659  
G01 X12.5722 Y13.5121 
G01 X12.5463 Y13.6088 
G01 X12.4962 Y13.6954 
G01 X12.4254 Y13.7662 
G01 X12.3388 Y13.8163 
G01 X12.2421 Y13.8422 
G01 X12.1419 Y13.8422 
G01 X12.0452 Y13.8163 
G01 X11.9586 Y13.7662 
G01 X11.8878 Y13.6954 
G01 X11.8377 Y13.6088 
G01 X11.8118 Y13.5121 
G00 Z3.0000  
G00 X9.2718  Y7.4161  
G01 Z-0.0600 F100   
G01 X9.2718  Y0.9659  F100   
G01 X9.2977  Y0.8692  
G01 X9.3478  Y0.7826  
G01 X9.4185  Y0.7118  
G01 X9.5052  Y0.6617  
G01 X9.6019  Y0.6358  
G01 X9.7021  Y0.6358  
G01 X9.7988  Y0.6617  
G01 X9.8854  Y0.7118  
G01 X9.9562  Y0.7826  
G01 X10.0063 Y0.8692  
G01 X10.0322 Y0.9659  
G01 X10.0322 Y7.4161  
G01 X10.0063 Y7.5128  
G01 X9.9562  Y7.5994  
G01 X9.8854  Y7.6702  
G01 X9.7988  Y7.7203  
G01 X9.7021  Y7.7462  
G01 X9.6019  Y7.7462  
G01 X9.5052  Y7.7203  
G01 X9.4185  Y7.6702  
G01 X9.3478  Y7.5994  
G01 X9.2977  Y7.5128  
G01 X9.2718  Y7.4161  
G00 Z3.0000  
G00 X6.7318  Y7.4161  
G01 Z-0.0600 F100   
G01 X6.7318  Y0.9659  F100   
G01 X6.7577  Y0.8692  
G01 X6.8078  Y0.7826  
G01 X6.8786  Y0.7118  
G01 X6.9652  Y0.6617  
G01 X7.0619  Y0.6358  
G01 X7.1621  Y0.6358  
G01 X7.2588  Y0.6617  
G01 X7.3454  Y0.7118  
G01 X7.4162  Y0.7826  
G01 X7.4663  Y0.8692  
G01 X7.4922  Y0.9659  
G01 X7.4922  Y7.4161  
G01 X7.4663  Y7.5128  
G01 X7.4162  Y7.5994  
G01 X7.3454  Y7.6702  
G01 X7.2588  Y7.7203  
G01 X7.1621  Y7.7462  
G01 X7.0619  Y7.7462  
G01 X6.9652  Y7.7203  
G01 X6.8786  Y7.6702  
G01 X6.8078  Y7.5994  
G01 X6.7577  Y7.5128  
G01 X6.7318  Y7.4161  
G00 Z3.0000  
G00 X4.1918  Y7.4161  
G01 Z-0.0600 F100   
G01 X4.1918  Y1.2199  F100   
G01 X4.2177  Y1.1232  
G01 X4.2678  Y1.0366  
G01 X4.3386  Y0.9658  
G01 X4.4252  Y0.9157  
G01 X4.5219  Y0.8898  
G01 X4.6221  Y0.8898  
G01 X4.7188  Y0.9157  
G01 X4.8054  Y0.9658  
G01 X4.8762  Y1.0366  
G01 X4.9263  Y1.1232  
G01 X4.9522  Y1.2199  
G01 X4.9522  Y7.4161  
G01 X4.9263  Y7.5128  
G01 X4.8762  Y7.5994  
G01 X4.8054  Y7.6702  
G01 X4.7188  Y7.7203  
G01 X4.6221  Y7.7462  
G01 X4.5219  Y7.7462  
G01 X4.4252  Y7.7203  
G01 X4.3386  Y7.6702  
G01 X4.2678  Y7.5994  
G01 X4.2177  Y7.5128  
G01 X4.1918  Y7.4161  
G00 Z3.0000  
G00 X1.6518  Y7.4161  
G01 Z-0.0600 F100   
G01 X1.6518  Y0.9659  F100   
G01 X1.6777  Y0.8692  
G01 X1.7278  Y0.7826  
G01 X1.7986  Y0.7118  
G01 X1.8852  Y0.6617  
G01 X1.9819  Y0.6358  
G01 X2.0821  Y0.6358  
G01 X2.1787  Y0.6617  
G01 X2.2654  Y0.7118  
G01 X2.3362  Y0.7826  
G01 X2.3863  Y0.8692  
G01 X2.4122  Y0.9659  
G01 X2.4122  Y7.4161  
G01 X2.3863  Y7.5128  
G01 X2.3362  Y7.5994  
G01 X2.2654  Y7.6702  
G01 X2.1787  Y7.7203  
G01 X2.0821  Y7.7462  
G01 X1.9819  Y7.7462  
G01 X1.8852  Y7.7203  
G01 X1.7986  Y7.6702  
G01 X1.7278  Y7.5994  
G01 X1.6777  Y7.5128  
G01 X1.6518  Y7.4161  
G00 Z3.0000  
G00 X13.0070 Y42.8234 
G01 Z-0.0600 F100   
G01 X12.9214 Y42.8234 F100   
G01 X12.9214 Y45.1366 
G01 X15.2550 Y45.1366 
G01 X15.2827 Y45.1481 
G01 X15.3039 Y45.1693 
G01 X15.3154 Y45.1970 
G01 X15.3154 Y53.6090 
G01 X15.3039 Y53.6367 
G01 X15.2827 Y53.6579 
G01 X15.2550 Y53.6694 
G01 X10.6530 Y53.6694 
G01 X10.6253 Y53.6579 
G01 X10.6041 Y53.6367 
G01 X10.5926 Y53.6090 
G01 X10.5926 Y45.1970 
G01 X10.6041 Y45.1693 
G01 X10.6253 Y45.1481 
G01 X10.6530 Y45.1366 
G01 X11.9706 Y45.1366 
G01 X11.9706 Y42.8234 
G01 X11.3770 Y42.8234 
G01 X11.3493 Y42.8119 
G01 X11.3281 Y42.7907 
G01 X11.3166 Y42.7630 
G01 X11.3166 Y41.4330 
G01 X11.3281 Y41.4053 
G01 X11.3493 Y41.3841 
G01 X11.3770 Y41.3726 
G01 X13.0070 Y41.3726 
G01 X13.0347 Y41.3841 
G01 X13.0559 Y41.4053 
G01 X13.0674 Y41.4330 
G01 X13.0674 Y42.7630 
G01 X13.0559 Y42.7907 
G01 X13.0347 Y42.8119 
G01 X13.0070 Y42.8234 
G00 Z3.0000  
G00 X7.9270  Y42.8234 
G01 Z-0.0600 F100   
G01 X7.3334  Y42.8234 F100   
G01 X7.3334  Y45.1366 
G01 X7.6350  Y45.1366 
G01 X7.6627  Y45.1481 
G01 X7.6839  Y45.1693 
G01 X7.6954  Y45.1970 
G01 X7.6954  Y53.6090 
G01 X7.6839  Y53.6367 
G01 X7.6627  Y53.6579 
G01 X7.6350  Y53.6694 
G01 X3.0330  Y53.6694 
G01 X3.0053  Y53.6579 
G01 X2.9841  Y53.6367 
G01 X2.9726  Y53.6090 
G01 X2.9726  Y45.1970 
G01 X2.9841  Y45.1693 
G01 X3.0053  Y45.1481 
G01 X3.0330  Y45.1366 
G01 X6.3826  Y45.1366 
G01 X6.3826  Y42.8234 
G01 X6.2970  Y42.8234 
G01 X6.2693  Y42.8119 
G01 X6.2481  Y42.7907 
G01 X6.2366  Y42.7630 
G01 X6.2366  Y41.4330 
G01 X6.2481  Y41.4053 
G01 X6.2693  Y41.3841 
G01 X6.2970  Y41.3726 
G01 X7.9270  Y41.3726 
G01 X7.9547  Y41.3841 
G01 X7.9759  Y41.4053 
G01 X7.9874  Y41.4330 
G01 X7.9874  Y42.7630 
G01 X7.9759  Y42.7907 
G01 X7.9547  Y42.8119 
G01 X7.9270  Y42.8234 
G00 Z3.0000  
G00 X7.9270  Y40.9234 
G01 Z-0.0600 F100   
G01 X6.2970  Y40.9234 F100   
G01 X6.2693  Y40.9119 
G01 X6.2481  Y40.8907 
G01 X6.2366  Y40.8630 
G01 X6.2366  Y39.5330 
G01 X6.2481  Y39.5053 
G01 X6.2693  Y39.4841 
G01 X6.2970  Y39.4726 
G01 X7.9270  Y39.4726 
G01 X7.9547  Y39.4841 
G01 X7.9759  Y39.5053 
G01 X7.9874  Y39.5330 
G01 X7.9874  Y39.6566 
G01 X11.3166 Y39.6566 
G01 X11.3166 Y39.5330 
G01 X11.3281 Y39.5053 
G01 X11.3493 Y39.4841 
G01 X11.3770 Y39.4726 
G01 X13.0070 Y39.4726 
G01 X13.0347 Y39.4841 
G01 X13.0559 Y39.5053 
G01 X13.0674 Y39.5330 
G01 X13.0674 Y40.8630 
G01 X13.0559 Y40.8907 
G01 X13.0347 Y40.9119 
G01 X13.0070 Y40.9234 
G01 X11.3770 Y40.9234 
G01 X11.3493 Y40.9119 
G01 X11.3281 Y40.8907 
G01 X11.3166 Y40.8630 
G01 X11.3166 Y40.6074 
G01 X7.9874  Y40.6074 
G01 X7.9874  Y40.8630 
G01 X7.9759  Y40.8907 
G01 X7.9547  Y40.9119 
G01 X7.9270  Y40.9234 
G00 Z3.0000  
G00 X28.6914 Y26.3210 
G01 Z-0.0600 F100   
G01 X28.6914 Y29.0510 F100   
G01 X28.6799 Y29.0787 
G01 X28.6587 Y29.0999 
G01 X28.6310 Y29.1114 
G01 X27.0010 Y29.1114 
G01 X26.9733 Y29.0999 
G01 X26.9521 Y29.0787 
G01 X26.9406 Y29.0510 
G01 X26.9406 Y26.3210 
G01 X26.9521 Y26.2933 
G01 X26.9733 Y26.2721 
G01 X27.0010 Y26.2606 
G01 X28.6310 Y26.2606 
G01 X28.6587 Y26.2721 
G01 X28.6799 Y26.2933 
G01 X28.6914 Y26.3210 
G00 Z3.0000  
G00 X25.8914 Y26.3210 
G01 Z-0.0600 F100   
G01 X25.8914 Y29.0510 F100   
G01 X25.8799 Y29.0787 
G01 X25.8587 Y29.0999 
G01 X25.8310 Y29.1114 
G01 X24.2010 Y29.1114 
G01 X24.1733 Y29.0999 
G01 X24.1521 Y29.0787 
G01 X24.1406 Y29.0510 
G01 X24.1406 Y26.3210 
G01 X24.1521 Y26.2933 
G01 X24.1733 Y26.2721 
G01 X24.2010 Y26.2606 
G01 X25.8310 Y26.2606 
G01 X25.8587 Y26.2721 
G01 X25.8799 Y26.2933 
G01 X25.8914 Y26.3210 
G00 Z3.0000  
G00 X27.5834 Y16.5070 
G01 Z-0.0600 F100   
G01 X27.5834 Y18.0370 F100   
G01 X27.5719 Y18.0647 
G01 X27.5507 Y18.0859 
G01 X27.5230 Y18.0974 
G01 X26.1930 Y18.0974 
G01 X26.1653 Y18.0859 
G01 X26.1441 Y18.0647 
G01 X26.1326 Y18.0370 
G01 X26.1326 Y16.5070 
G01 X26.1441 Y16.4793 
G01 X26.1653 Y16.4581 
G01 X26.1930 Y16.4466 
G01 X27.5230 Y16.4466 
G01 X27.5507 Y16.4581 
G01 X27.5719 Y16.4793 
G01 X27.5834 Y16.5070 
G00 Z3.0000  
G00 X25.6834 Y16.5070 
G01 Z-0.0600 F100   
G01 X25.6834 Y18.0370 F100   
G01 X25.6719 Y18.0647 
G01 X25.6507 Y18.0859 
G01 X25.6230 Y18.0974 
G01 X24.2930 Y18.0974 
G01 X24.2653 Y18.0859 
G01 X24.2441 Y18.0647 
G01 X24.2326 Y18.0370 
G01 X24.2326 Y16.5070 
G01 X24.2441 Y16.4793 
G01 X24.2653 Y16.4581 
G01 X24.2930 Y16.4466 
G01 X25.6230 Y16.4466 
G01 X25.6507 Y16.4581 
G01 X25.6719 Y16.4793 
G01 X25.6834 Y16.5070 
G00 Z3.0000  
G00 X28.6914 Y21.4370 
G01 Z-0.0600 F100   
G01 X28.6914 Y23.2670 F100   
G01 X28.6799 Y23.2947 
G01 X28.6587 Y23.3159 
G01 X28.6310 Y23.3274 
G01 X27.0010 Y23.3274 
G01 X26.9733 Y23.3159 
G01 X26.9521 Y23.2947 
G01 X26.9406 Y23.2670 
G01 X26.9406 Y21.4370 
G01 X26.9521 Y21.4093 
G01 X26.9733 Y21.3881 
G01 X27.0010 Y21.3766 
G01 X28.6310 Y21.3766 
G01 X28.6587 Y21.3881 
G01 X28.6799 Y21.4093 
G01 X28.6914 Y21.4370 
G00 Z3.0000  
G00 X25.8914 Y21.4370 
G01 Z-0.0600 F100   
G01 X25.8914 Y23.2670 F100   
G01 X25.8799 Y23.2947 
G01 X25.8587 Y23.3159 
G01 X25.8310 Y23.3274 
G01 X24.2010 Y23.3274 
G01 X24.1733 Y23.3159 
G01 X24.1521 Y23.2947 
G01 X24.1406 Y23.2670 
G01 X24.1406 Y21.4370 
G01 X24.1521 Y21.4093 
G01 X24.1733 Y21.3881 
G01 X24.2010 Y21.3766 
G01 X25.8310 Y21.3766 
G01 X25.8587 Y21.3881 
G01 X25.8799 Y21.4093 
G01 X25.8914 Y21.4370 
G00 Z3.0000  
G00 X36.9164 Y22.5192 
G01 Z-0.0600 F100   
G01 X36.9164 Y22.6928 F100   
G01 X36.8893 Y22.8641 
G01 X36.8356 Y23.0292 
G01 X36.7569 Y23.1838 
G01 X36.6549 Y23.3242 
G01 X36.5322 Y23.4469 
G01 X36.3918 Y23.5489 
G01 X36.2372 Y23.6276 
G01 X36.0721 Y23.6813 
G01 X35.9008 Y23.7084 
G01 X35.7272 Y23.7084 
G01 X35.5559 Y23.6813 
G01 X35.3908 Y23.6276 
G01 X35.2362 Y23.5489 
G01 X35.0958 Y23.4469 
G01 X34.9731 Y23.3242 
G01 X34.8711 Y23.1838 
G01 X34.7924 Y23.0292 
G01 X34.7387 Y22.8641 
G01 X34.7116 Y22.6928 
G01 X34.7116 Y22.5192 
G01 X34.7387 Y22.3479 
G01 X34.7924 Y22.1828 
G01 X34.8711 Y22.0282 
G01 X34.9731 Y21.8878 
G01 X35.0958 Y21.7651 
G01 X35.2362 Y21.6631 
G01 X35.3908 Y21.5844 
G01 X35.5559 Y21.5307 
G01 X35.7272 Y21.5036 
G01 X35.9008 Y21.5036 
G01 X36.0721 Y21.5307 
G01 X36.2372 Y21.5844 
G01 X36.3918 Y21.6631 
G01 X36.5322 Y21.7651 
G01 X36.6549 Y21.8878 
G01 X36.7569 Y22.0282 
G01 X36.8356 Y22.1828 
G01 X36.8893 Y22.3479 
G01 X36.9164 Y22.5192 
G00 Z3.0000  
G00 X36.8546 Y16.9361 
G01 Z-0.0600 F100   
G01 X36.8546 Y17.0999 F100   
G01 X36.8290 Y17.2617 
G01 X36.7784 Y17.4175 
G01 X36.7040 Y17.5634 
G01 X36.6077 Y17.6959 
G01 X36.4919 Y17.8117 
G01 X36.3594 Y17.9080 
G01 X36.2135 Y17.9824 
G01 X36.0577 Y18.0330 
G01 X35.8959 Y18.0586 
G01 X35.7321 Y18.0586 
G01 X35.5703 Y18.0330 
G01 X35.4145 Y17.9824 
G01 X35.2686 Y17.9080 
G01 X35.1361 Y17.8117 
G01 X35.0203 Y17.6959 
G01 X34.9240 Y17.5634 
G01 X34.8496 Y17.4175 
G01 X34.7990 Y17.2617 
G01 X34.7734 Y17.0999 
G01 X34.7734 Y16.9361 
G01 X34.7990 Y16.7743 
G01 X34.8496 Y16.6185 
G01 X34.9240 Y16.4726 
G01 X35.0203 Y16.3401 
G01 X35.1361 Y16.2243 
G01 X35.2686 Y16.1280 
G01 X35.4145 Y16.0536 
G01 X35.5703 Y16.0030 
G01 X35.7321 Y15.9774 
G01 X35.8959 Y15.9774 
G01 X36.0577 Y16.0030 
G01 X36.2135 Y16.0536 
G01 X36.3594 Y16.1280 
G01 X36.4919 Y16.2243 
G01 X36.6077 Y16.3401 
G01 X36.7040 Y16.4726 
G01 X36.7784 Y16.6185 
G01 X36.8290 Y16.7743 
G01 X36.8546 Y16.9361 
G00 Z3.0000  
G00 X36.8546 Y27.8581 
G01 Z-0.0600 F100   
G01 X36.8546 Y28.0219 F100   
G01 X36.8290 Y28.1837 
G01 X36.7784 Y28.3395 
G01 X36.7040 Y28.4854 
G01 X36.6077 Y28.6179 
G01 X36.4919 Y28.7337 
G01 X36.3594 Y28.8300 
G01 X36.2135 Y28.9044 
G01 X36.0577 Y28.9550 
G01 X35.8959 Y28.9806 
G01 X35.7321 Y28.9806 
G01 X35.5703 Y28.9550 
G01 X35.4145 Y28.9044 
G01 X35.2686 Y28.8300 
G01 X35.1361 Y28.7337 
G01 X35.0203 Y28.6179 
G01 X34.9240 Y28.4854 
G01 X34.8496 Y28.3395 
G01 X34.7990 Y28.1837 
G01 X34.7734 Y28.0219 
G01 X34.7734 Y27.8581 
G01 X34.7990 Y27.6963 
G01 X34.8496 Y27.5405 
G01 X34.9240 Y27.3946 
G01 X35.0203 Y27.2621 
G01 X35.1361 Y27.1463 
G01 X35.2686 Y27.0500 
G01 X35.4145 Y26.9756 
G01 X35.5703 Y26.9250 
G01 X35.7321 Y26.8994 
G01 X35.8959 Y26.8994 
G01 X36.0577 Y26.9250 
G01 X36.2135 Y26.9756 
G01 X36.3594 Y27.0500 
G01 X36.4919 Y27.1463 
G01 X36.6077 Y27.2621 
G01 X36.7040 Y27.3946 
G01 X36.7784 Y27.5405 
G01 X36.8290 Y27.6963 
G01 X36.8546 Y27.8581 
G00 Z3.0000  
G00 X1.9786  Y36.6784 
G01 Z-0.0600 F100   
G01 X33.8354 Y36.6784 F100   
G01 X33.9386 Y36.7060 
G01 X34.0310 Y36.7594 
G01 X34.1066 Y36.8350 
G01 X34.1600 Y36.9274 
G01 X34.1876 Y37.0306 
G01 X34.1876 Y37.1374 
G01 X34.1600 Y37.2406 
G01 X34.1066 Y37.3330 
G01 X34.0310 Y37.4086 
G01 X33.9386 Y37.4620 
G01 X33.8354 Y37.4896 
G01 X1.9786  Y37.4896 
G01 X1.8754  Y37.4620 
G01 X1.7830  Y37.4086 
G01 X1.7074  Y37.3330 
G01 X1.6540  Y37.2406 
G01 X1.6264  Y37.1374 
G01 X1.6264  Y37.0306 
G01 X1.6540  Y36.9274 
G01 X1.7074  Y36.8350 
G01 X1.7830  Y36.7594 
G01 X1.8754  Y36.7060 
G01 X1.9786  Y36.6784 
G00 Z3.0000  
G00 X2.7121  Y16.4854 
G01 Z-0.0600 F100   
G01 X11.5119 Y16.4854 F100   
G01 X11.6737 Y16.5110 
G01 X11.8295 Y16.5616 
G01 X11.9754 Y16.6360 
G01 X12.1079 Y16.7323 
G01 X12.2237 Y16.8481 
G01 X12.3200 Y16.9806 
G01 X12.3944 Y17.1265 
G01 X12.4450 Y17.2823 
G01 X12.4706 Y17.4441 
G01 X12.4706 Y17.6079 
G01 X12.4450 Y17.7697 
G01 X12.3944 Y17.9255 
G01 X12.3200 Y18.0714 
G01 X12.2237 Y18.2039 
G01 X12.1079 Y18.3197 
G01 X11.9754 Y18.4160 
G01 X11.8295 Y18.4904 
G01 X11.6737 Y18.5410 
G01 X11.5119 Y18.5666 
G01 X2.7121  Y18.5666 
G01 X2.5503  Y18.5410 
G01 X2.3945  Y18.4904 
G01 X2.2486  Y18.4160 
G01 X2.1161  Y18.3197 
G01 X2.0003  Y18.2039 
G01 X1.9040  Y18.0714 
G01 X1.8296  Y17.9255 
G01 X1.7790  Y17.7697 
G01 X1.7534  Y17.6079 
G01 X1.7534  Y17.4441 
G01 X1.7790  Y17.2823 
G01 X1.8296  Y17.1265 
G01 X1.9040  Y16.9806 
G01 X2.0003  Y16.8481 
G01 X2.1161  Y16.7323 
G01 X2.2486  Y16.6360 
G01 X2.3945  Y16.5616 
G01 X2.5503  Y16.5110 
G01 X2.7121  Y16.4854 
G00 Z3.0000  
G00 X2.4575  Y21.5146 
G01 Z-0.0600 F100   
G01 X17.6085 Y21.5146 F100   
G01 X17.7703 Y21.5468 
G01 X17.9227 Y21.6099 
G01 X18.0598 Y21.7015 
G01 X18.1764 Y21.8182 
G01 X18.2681 Y21.9553 
G01 X18.3312 Y22.1077 
G01 X18.3634 Y22.2695 
G01 X18.3634 Y22.4345 
G01 X18.3312 Y22.5963 
G01 X18.2681 Y22.7487 
G01 X18.1764 Y22.8858 
G01 X18.0598 Y23.0024 
G01 X17.9227 Y23.0941 
G01 X17.7703 Y23.1572 
G01 X17.6085 Y23.1894 
G01 X2.4575  Y23.1894 
G01 X2.2957  Y23.1572 
G01 X2.1433  Y23.0941 
G01 X2.0062  Y23.0024 
G01 X1.8895  Y22.8858 
G01 X1.7979  Y22.7487 
G01 X1.7348  Y22.5963 
G01 X1.7026  Y22.4345 
G01 X1.7026  Y22.2695 
G01 X1.7348  Y22.1077 
G01 X1.7979  Y21.9553 
G01 X1.8895  Y21.8182 
G01 X2.0062  Y21.7015 
G01 X2.1433  Y21.6099 
G01 X2.2957  Y21.5468 
G01 X2.4575  Y21.5146 
G00 Z3.0000  
G00 X2.2160  Y26.9756 
G01 Z-0.0600 F100   
G01 X22.1680 Y26.9756 F100   
G01 X22.3052 Y27.0029 
G01 X22.4345 Y27.0565 
G01 X22.5509 Y27.1342 
G01 X22.6498 Y27.2331 
G01 X22.7275 Y27.3495 
G01 X22.7811 Y27.4788 
G01 X22.8084 Y27.6160 
G01 X22.8084 Y27.7560 
G01 X22.7811 Y27.8932 
G01 X22.7275 Y28.0225 
G01 X22.6498 Y28.1389 
G01 X22.5509 Y28.2378 
G01 X22.4345 Y28.3155 
G01 X22.3052 Y28.3691 
G01 X22.1680 Y28.3964 
G01 X2.2160  Y28.3964 
G01 X2.0788  Y28.3691 
G01 X1.9495  Y28.3155 
G01 X1.8331  Y28.2378 
G01 X1.7342  Y28.1389 
G01 X1.6564  Y28.0225 
G01 X1.6029  Y27.8932 
G01 X1.5756  Y27.7560 
G01 X1.5756  Y27.6160 
G01 X1.6029  Y27.4788 
G01 X1.6564  Y27.3495 
G01 X1.7342  Y27.2331 
G01 X1.8331  Y27.1342 
G01 X1.9495  Y27.0565 
G01 X2.0788  Y27.0029 
G01 X2.2160  Y26.9756 
G00 Z3.0000  
G00 X2.2192  Y32.5128 
G01 Z-0.0600 F100   
G01 X27.2448 Y32.5128 F100   
G01 X27.3738 Y32.5474 
G01 X27.4894 Y32.6141 
G01 X27.5839 Y32.7086 
G01 X27.6506 Y32.8242 
G01 X27.6852 Y32.9532 
G01 X27.6852 Y33.0868 
G01 X27.6506 Y33.2158 
G01 X27.5839 Y33.3314 
G01 X27.4894 Y33.4259 
G01 X27.3738 Y33.4926 
G01 X27.2448 Y33.5272 
G01 X2.2192  Y33.5272 
G01 X2.0902  Y33.4926 
G01 X1.9746  Y33.4259 
G01 X1.8801  Y33.3314 
G01 X1.8134  Y33.2158 
G01 X1.7788  Y33.0868 
G01 X1.7788  Y32.9532 
G01 X1.8134  Y32.8242 
G01 X1.8801  Y32.7086 
G01 X1.9746  Y32.6141 
G01 X2.0902  Y32.5474 
G01 X2.2192  Y32.5128 
G00 Z3.0000  
G00 X26.1866 Y44.8761 
G01 Z-0.0600 F100   
G01 X26.1866 Y45.0399 F100   
G01 X26.1610 Y45.2017 
G01 X26.1104 Y45.3575 
G01 X26.0360 Y45.5034 
G01 X25.9397 Y45.6359 
G01 X25.8239 Y45.7517 
G01 X25.6914 Y45.8480 
G01 X25.5455 Y45.9224 
G01 X25.3897 Y45.9730 
G01 X25.2279 Y45.9986 
G01 X25.0641 Y45.9986 
G01 X24.9023 Y45.9730 
G01 X24.7465 Y45.9224 
G01 X24.6006 Y45.8480 
G01 X24.4681 Y45.7517 
G01 X24.3523 Y45.6359 
G01 X24.2560 Y45.5034 
G01 X24.1816 Y45.3575 
G01 X24.1310 Y45.2017 
G01 X24.1054 Y45.0399 
G01 X24.1054 Y44.8761 
G01 X24.1310 Y44.7143 
G01 X24.1816 Y44.5585 
G01 X24.2560 Y44.4126 
G01 X24.3523 Y44.2801 
G01 X24.4681 Y44.1643 
G01 X24.6006 Y44.0680 
G01 X24.7465 Y43.9936 
G01 X24.9023 Y43.9430 
G01 X25.0641 Y43.9174 
G01 X25.2279 Y43.9174 
G01 X25.3897 Y43.9430 
G01 X25.5455 Y43.9936 
G01 X25.6914 Y44.0680 
G01 X25.8239 Y44.1643 
G01 X25.9397 Y44.2801 
G01 X26.0360 Y44.4126 
G01 X26.1104 Y44.5585 
G01 X26.1610 Y44.7143 
G01 X26.1866 Y44.8761 
G00 Z3.0000  
G00 X23.6466 Y44.8761 
G01 Z-0.0600 F100   
G01 X23.6466 Y45.0399 F100   
G01 X23.6210 Y45.2017 
G01 X23.5704 Y45.3575 
G01 X23.4960 Y45.5034 
G01 X23.3997 Y45.6359 
G01 X23.2839 Y45.7517 
G01 X23.1514 Y45.8480 
G01 X23.0054 Y45.9224 
G01 X22.8497 Y45.9730 
G01 X22.6879 Y45.9986 
G01 X22.5241 Y45.9986 
G01 X22.3623 Y45.9730 
G01 X22.2065 Y45.9224 
G01 X22.0606 Y45.8480 
G01 X21.9281 Y45.7517 
G01 X21.8123 Y45.6359 
G01 X21.7160 Y45.5034 
G01 X21.6416 Y45.3575 
G01 X21.5910 Y45.2017 
G01 X21.5654 Y45.0399 
G01 X21.5654 Y44.8761 
G01 X21.5910 Y44.7143 
G01 X21.6416 Y44.5585 
G01 X21.7160 Y44.4126 
G01 X21.8123 Y44.2801 
G01 X21.9281 Y44.1643 
G01 X22.0606 Y44.0680 
G01 X22.2065 Y43.9936 
G01 X22.3623 Y43.9430 
G01 X22.5241 Y43.9174 
G01 X22.6879 Y43.9174 
G01 X22.8497 Y43.9430 
G01 X23.0054 Y43.9936 
G01 X23.1514 Y44.0680 
G01 X23.2839 Y44.1643 
G01 X23.3997 Y44.2801 
G01 X23.4960 Y44.4126 
G01 X23.5704 Y44.5585 
G01 X23.6210 Y44.7143 
G01 X23.6466 Y44.8761 
G00 Z3.0000  
G00 X21.1066 Y44.8761 
G01 Z-0.0600 F100   
G01 X21.1066 Y45.0399 F100   
G01 X21.0810 Y45.2017 
G01 X21.0304 Y45.3575 
G01 X20.9560 Y45.5034 
G01 X20.8597 Y45.6359 
G01 X20.7439 Y45.7517 
G01 X20.6114 Y45.8480 
G01 X20.4655 Y45.9224 
G01 X20.3097 Y45.9730 
G01 X20.1479 Y45.9986 
G01 X19.9841 Y45.9986 
G01 X19.8223 Y45.9730 
G01 X19.6665 Y45.9224 
G01 X19.5206 Y45.8480 
G01 X19.3881 Y45.7517 
G01 X19.2723 Y45.6359 
G01 X19.1760 Y45.5034 
G01 X19.1016 Y45.3575 
G01 X19.0510 Y45.2017 
G01 X19.0254 Y45.0399 
G01 X19.0254 Y44.8761 
G01 X19.0510 Y44.7143 
G01 X19.1016 Y44.5585 
G01 X19.1760 Y44.4126 
G01 X19.2723 Y44.2801 
G01 X19.3881 Y44.1643 
G01 X19.5206 Y44.0680 
G01 X19.6665 Y43.9936 
G01 X19.8223 Y43.9430 
G01 X19.9841 Y43.9174 
G01 X20.1479 Y43.9174 
G01 X20.3097 Y43.9430 
G01 X20.4655 Y43.9936 
G01 X20.6114 Y44.0680 
G01 X20.7439 Y44.1643 
G01 X20.8597 Y44.2801 
G01 X20.9560 Y44.4126 
G01 X21.0304 Y44.5585 
G01 X21.0810 Y44.7143 
G01 X21.1066 Y44.8761 
G00 Z3.0000  
G00 X18.5666 Y44.8761 
G01 Z-0.0600 F100   
G01 X18.5666 Y45.0399 F100   
G01 X18.5410 Y45.2017 
G01 X18.4904 Y45.3575 
G01 X18.4160 Y45.5034 
G01 X18.3197 Y45.6359 
G01 X18.2039 Y45.7517 
G01 X18.0714 Y45.8480 
G01 X17.9255 Y45.9224 
G01 X17.7697 Y45.9730 
G01 X17.6079 Y45.9986 
G01 X17.4441 Y45.9986 
G01 X17.2823 Y45.9730 
G01 X17.1265 Y45.9224 
G01 X16.9806 Y45.8480 
G01 X16.8481 Y45.7517 
G01 X16.7323 Y45.6359 
G01 X16.6360 Y45.5034 
G01 X16.5616 Y45.3575 
G01 X16.5110 Y45.2017 
G01 X16.4854 Y45.0399 
G01 X16.4854 Y44.8761 
G01 X16.5110 Y44.7143 
G01 X16.5616 Y44.5585 
G01 X16.6360 Y44.4126 
G01 X16.7323 Y44.2801 
G01 X16.8481 Y44.1643 
G01 X16.9806 Y44.0680 
G01 X17.1265 Y43.9936 
G01 X17.2823 Y43.9430 
G01 X17.4441 Y43.9174 
G01 X17.6079 Y43.9174 
G01 X17.7697 Y43.9430 
G01 X17.9255 Y43.9936 
G01 X18.0714 Y44.0680 
G01 X18.2039 Y44.1643 
G01 X18.3197 Y44.2801 
G01 X18.4160 Y44.4126 
G01 X18.4904 Y44.5585 
G01 X18.5410 Y44.7143 
G01 X18.5666 Y44.8761 
G00 Z3.0000  
G00 X26.1866 Y47.4161 
G01 Z-0.0600 F100   
G01 X26.1866 Y47.5799 F100   
G01 X26.1610 Y47.7417 
G01 X26.1104 Y47.8974 
G01 X26.0360 Y48.0434 
G01 X25.9397 Y48.1759 
G01 X25.8239 Y48.2917 
G01 X25.6914 Y48.3880 
G01 X25.5455 Y48.4624 
G01 X25.3897 Y48.5130 
G01 X25.2279 Y48.5386 
G01 X25.0641 Y48.5386 
G01 X24.9023 Y48.5130 
G01 X24.7465 Y48.4624 
G01 X24.6006 Y48.3880 
G01 X24.4681 Y48.2917 
G01 X24.3523 Y48.1759 
G01 X24.2560 Y48.0434 
G01 X24.1816 Y47.8974 
G01 X24.1310 Y47.7417 
G01 X24.1054 Y47.5799 
G01 X24.1054 Y47.4161 
G01 X24.1310 Y47.2543 
G01 X24.1816 Y47.0985 
G01 X24.2560 Y46.9526 
G01 X24.3523 Y46.8201 
G01 X24.4681 Y46.7043 
G01 X24.6006 Y46.6080 
G01 X24.7465 Y46.5336 
G01 X24.9023 Y46.4830 
G01 X25.0641 Y46.4574 
G01 X25.2279 Y46.4574 
G01 X25.3897 Y46.4830 
G01 X25.5455 Y46.5336 
G01 X25.6914 Y46.6080 
G01 X25.8239 Y46.7043 
G01 X25.9397 Y46.8201 
G01 X26.0360 Y46.9526 
G01 X26.1104 Y47.0985 
G01 X26.1610 Y47.2543 
G01 X26.1866 Y47.4161 
G00 Z3.0000  
G00 X23.6466 Y47.4161 
G01 Z-0.0600 F100   
G01 X23.6466 Y47.5799 F100   
G01 X23.6210 Y47.7417 
G01 X23.5704 Y47.8974 
G01 X23.4960 Y48.0434 
G01 X23.3997 Y48.1759 
G01 X23.2839 Y48.2917 
G01 X23.1514 Y48.3880 
G01 X23.0054 Y48.4624 
G01 X22.8497 Y48.5130 
G01 X22.6879 Y48.5386 
G01 X22.5241 Y48.5386 
G01 X22.3623 Y48.5130 
G01 X22.2065 Y48.4624 
G01 X22.0606 Y48.3880 
G01 X21.9281 Y48.2917 
G01 X21.8123 Y48.1759 
G01 X21.7160 Y48.0434 
G01 X21.6416 Y47.8974 
G01 X21.5910 Y47.7417 
G01 X21.5654 Y47.5799 
G01 X21.5654 Y47.4161 
G01 X21.5910 Y47.2543 
G01 X21.6416 Y47.0985 
G01 X21.7160 Y46.9526 
G01 X21.8123 Y46.8201 
G01 X21.9281 Y46.7043 
G01 X22.0606 Y46.6080 
G01 X22.2065 Y46.5336 
G01 X22.3623 Y46.4830 
G01 X22.5241 Y46.4574 
G01 X22.6879 Y46.4574 
G01 X22.8497 Y46.4830 
G01 X23.0054 Y46.5336 
G01 X23.1514 Y46.6080 
G01 X23.2839 Y46.7043 
G01 X23.3997 Y46.8201 
G01 X23.4960 Y46.9526 
G01 X23.5704 Y47.0985 
G01 X23.6210 Y47.2543 
G01 X23.6466 Y47.4161 
G00 Z3.0000  
G00 X21.1066 Y47.4161 
G01 Z-0.0600 F100   
G01 X21.1066 Y47.5799 F100   
G01 X21.0810 Y47.7417 
G01 X21.0304 Y47.8974 
G01 X20.9560 Y48.0434 
G01 X20.8597 Y48.1759 
G01 X20.7439 Y48.2917 
G01 X20.6114 Y48.3880 
G01 X20.4655 Y48.4624 
G01 X20.3097 Y48.5130 
G01 X20.1479 Y48.5386 
G01 X19.9841 Y48.5386 
G01 X19.8223 Y48.5130 
G01 X19.6665 Y48.4624 
G01 X19.5206 Y48.3880 
G01 X19.3881 Y48.2917 
G01 X19.2723 Y48.1759 
G01 X19.1760 Y48.0434 
G01 X19.1016 Y47.8974 
G01 X19.0510 Y47.7417 
G01 X19.0254 Y47.5799 
G01 X19.0254 Y47.4161 
G01 X19.0510 Y47.2543 
G01 X19.1016 Y47.0985 
G01 X19.1760 Y46.9526 
G01 X19.2723 Y46.8201 
G01 X19.3881 Y46.7043 
G01 X19.5206 Y46.6080 
G01 X19.6665 Y46.5336 
G01 X19.8223 Y46.4830 
G01 X19.9841 Y46.4574 
G01 X20.1479 Y46.4574 
G01 X20.3097 Y46.4830 
G01 X20.4655 Y46.5336 
G01 X20.6114 Y46.6080 
G01 X20.7439 Y46.7043 
G01 X20.8597 Y46.8201 
G01 X20.9560 Y46.9526 
G01 X21.0304 Y47.0985 
G01 X21.0810 Y47.2543 
G01 X21.1066 Y47.4161 
G00 Z3.0000  
G00 X18.5666 Y47.4161 
G01 Z-0.0600 F100   
G01 X18.5666 Y47.5799 F100   
G01 X18.5410 Y47.7417 
G01 X18.4904 Y47.8974 
G01 X18.4160 Y48.0434 
G01 X18.3197 Y48.1759 
G01 X18.2039 Y48.2917 
G01 X18.0714 Y48.3880 
G01 X17.9255 Y48.4624 
G01 X17.7697 Y48.5130 
G01 X17.6079 Y48.5386 
G01 X17.4441 Y48.5386 
G01 X17.2823 Y48.5130 
G01 X17.1265 Y48.4624 
G01 X16.9806 Y48.3880 
G01 X16.8481 Y48.2917 
G01 X16.7323 Y48.1759 
G01 X16.6360 Y48.0434 
G01 X16.5616 Y47.8974 
G01 X16.5110 Y47.7417 
G01 X16.4854 Y47.5799 
G01 X16.4854 Y47.4161 
G01 X16.5110 Y47.2543 
G01 X16.5616 Y47.0985 
G01 X16.6360 Y46.9526 
G01 X16.7323 Y46.8201 
G01 X16.8481 Y46.7043 
G01 X16.9806 Y46.6080 
G01 X17.1265 Y46.5336 
G01 X17.2823 Y46.4830 
G01 X17.4441 Y46.4574 
G01 X17.6079 Y46.4574 
G01 X17.7697 Y46.4830 
G01 X17.9255 Y46.5336 
G01 X18.0714 Y46.6080 
G01 X18.2039 Y46.7043 
G01 X18.3197 Y46.8201 
G01 X18.4160 Y46.9526 
G01 X18.4904 Y47.0985 
G01 X18.5410 Y47.2543 
G01 X18.5666 Y47.4161 
G00 Z3.0000  
G00 X26.1866 Y49.9561 
G01 Z-0.0600 F100   
G01 X26.1866 Y50.1199 F100   
G01 X26.1610 Y50.2817 
G01 X26.1104 Y50.4375 
G01 X26.0360 Y50.5834 
G01 X25.9397 Y50.7159 
G01 X25.8239 Y50.8317 
G01 X25.6914 Y50.9280 
G01 X25.5455 Y51.0024 
G01 X25.3897 Y51.0530 
G01 X25.2279 Y51.0786 
G01 X25.0641 Y51.0786 
G01 X24.9023 Y51.0530 
G01 X24.7465 Y51.0024 
G01 X24.6006 Y50.9280 
G01 X24.4681 Y50.8317 
G01 X24.3523 Y50.7159 
G01 X24.2560 Y50.5834 
G01 X24.1816 Y50.4375 
G01 X24.1310 Y50.2817 
G01 X24.1054 Y50.1199 
G01 X24.1054 Y49.9561 
G01 X24.1310 Y49.7943 
G01 X24.1816 Y49.6385 
G01 X24.2560 Y49.4926 
G01 X24.3523 Y49.3601 
G01 X24.4681 Y49.2443 
G01 X24.6006 Y49.1480 
G01 X24.7465 Y49.0736 
G01 X24.9023 Y49.0230 
G01 X25.0641 Y48.9974 
G01 X25.2279 Y48.9974 
G01 X25.3897 Y49.0230 
G01 X25.5455 Y49.0736 
G01 X25.6914 Y49.1480 
G01 X25.8239 Y49.2443 
G01 X25.9397 Y49.3601 
G01 X26.0360 Y49.4926 
G01 X26.1104 Y49.6385 
G01 X26.1610 Y49.7943 
G01 X26.1866 Y49.9561 
G00 Z3.0000  
G00 X23.6466 Y49.9561 
G01 Z-0.0600 F100   
G01 X23.6466 Y50.1199 F100   
G01 X23.6210 Y50.2817 
G01 X23.5704 Y50.4375 
G01 X23.4960 Y50.5834 
G01 X23.3997 Y50.7159 
G01 X23.2839 Y50.8317 
G01 X23.1514 Y50.9280 
G01 X23.0054 Y51.0024 
G01 X22.8497 Y51.0530 
G01 X22.6879 Y51.0786 
G01 X22.5241 Y51.0786 
G01 X22.3623 Y51.0530 
G01 X22.2065 Y51.0024 
G01 X22.0606 Y50.9280 
G01 X21.9281 Y50.8317 
G01 X21.8123 Y50.7159 
G01 X21.7160 Y50.5834 
G01 X21.6416 Y50.4375 
G01 X21.5910 Y50.2817 
G01 X21.5654 Y50.1199 
G01 X21.5654 Y49.9561 
G01 X21.5910 Y49.7943 
G01 X21.6416 Y49.6385 
G01 X21.7160 Y49.4926 
G01 X21.8123 Y49.3601 
G01 X21.9281 Y49.2443 
G01 X22.0606 Y49.1480 
G01 X22.2065 Y49.0736 
G01 X22.3623 Y49.0230 
G01 X22.5241 Y48.9974 
G01 X22.6879 Y48.9974 
G01 X22.8497 Y49.0230 
G01 X23.0054 Y49.0736 
G01 X23.1514 Y49.1480 
G01 X23.2839 Y49.2443 
G01 X23.3997 Y49.3601 
G01 X23.4960 Y49.4926 
G01 X23.5704 Y49.6385 
G01 X23.6210 Y49.7943 
G01 X23.6466 Y49.9561 
G00 Z3.0000  
G00 X21.1066 Y49.9561 
G01 Z-0.0600 F100   
G01 X21.1066 Y50.1199 F100   
G01 X21.0810 Y50.2817 
G01 X21.0304 Y50.4375 
G01 X20.9560 Y50.5834 
G01 X20.8597 Y50.7159 
G01 X20.7439 Y50.8317 
G01 X20.6114 Y50.9280 
G01 X20.4655 Y51.0024 
G01 X20.3097 Y51.0530 
G01 X20.1479 Y51.0786 
G01 X19.9841 Y51.0786 
G01 X19.8223 Y51.0530 
G01 X19.6665 Y51.0024 
G01 X19.5206 Y50.9280 
G01 X19.3881 Y50.8317 
G01 X19.2723 Y50.7159 
G01 X19.1760 Y50.5834 
G01 X19.1016 Y50.4375 
G01 X19.0510 Y50.2817 
G01 X19.0254 Y50.1199 
G01 X19.0254 Y49.9561 
G01 X19.0510 Y49.7943 
G01 X19.1016 Y49.6385 
G01 X19.1760 Y49.4926 
G01 X19.2723 Y49.3601 
G01 X19.3881 Y49.2443 
G01 X19.5206 Y49.1480 
G01 X19.6665 Y49.0736 
G01 X19.8223 Y49.0230 
G01 X19.9841 Y48.9974 
G01 X20.1479 Y48.9974 
G01 X20.3097 Y49.0230 
G01 X20.4655 Y49.0736 
G01 X20.6114 Y49.1480 
G01 X20.7439 Y49.2443 
G01 X20.8597 Y49.3601 
G01 X20.9560 Y49.4926 
G01 X21.0304 Y49.6385 
G01 X21.0810 Y49.7943 
G01 X21.1066 Y49.9561 
G00 Z3.0000  
G00 X18.5666 Y49.9561 
G01 Z-0.0600 F100   
G01 X18.5666 Y50.1199 F100   
G01 X18.5410 Y50.2817 
G01 X18.4904 Y50.4375 
G01 X18.4160 Y50.5834 
G01 X18.3197 Y50.7159 
G01 X18.2039 Y50.8317 
G01 X18.0714 Y50.9280 
G01 X17.9255 Y51.0024 
G01 X17.7697 Y51.0530 
G01 X17.6079 Y51.0786 
G01 X17.4441 Y51.0786 
G01 X17.2823 Y51.0530 
G01 X17.1265 Y51.0024 
G01 X16.9806 Y50.9280 
G01 X16.8481 Y50.8317 
G01 X16.7323 Y50.7159 
G01 X16.6360 Y50.5834 
G01 X16.5616 Y50.4375 
G01 X16.5110 Y50.2817 
G01 X16.4854 Y50.1199 
G01 X16.4854 Y49.9561 
G01 X16.5110 Y49.7943 
G01 X16.5616 Y49.6385 
G01 X16.6360 Y49.4926 
G01 X16.7323 Y49.3601 
G01 X16.8481 Y49.2443 
G01 X16.9806 Y49.1480 
G01 X17.1265 Y49.0736 
G01 X17.2823 Y49.0230 
G01 X17.4441 Y48.9974 
G01 X17.6079 Y48.9974 
G01 X17.7697 Y49.0230 
G01 X17.9255 Y49.0736 
G01 X18.0714 Y49.1480 
G01 X18.2039 Y49.2443 
G01 X18.3197 Y49.3601 
G01 X18.4160 Y49.4926 
G01 X18.4904 Y49.6385 
G01 X18.5410 Y49.7943 
G01 X18.5666 Y49.9561 
G00 Z3.0000  
G00 X26.1866 Y52.4961 
G01 Z-0.0600 F100   
G01 X26.1866 Y52.6599 F100   
G01 X26.1610 Y52.8217 
G01 X26.1104 Y52.9775 
G01 X26.0360 Y53.1234 
G01 X25.9397 Y53.2559 
G01 X25.8239 Y53.3717 
G01 X25.6914 Y53.4680 
G01 X25.5455 Y53.5424 
G01 X25.3897 Y53.5930 
G01 X25.2279 Y53.6186 
G01 X25.0641 Y53.6186 
G01 X24.9023 Y53.5930 
G01 X24.7465 Y53.5424 
G01 X24.6006 Y53.4680 
G01 X24.4681 Y53.3717 
G01 X24.3523 Y53.2559 
G01 X24.2560 Y53.1234 
G01 X24.1816 Y52.9775 
G01 X24.1310 Y52.8217 
G01 X24.1054 Y52.6599 
G01 X24.1054 Y52.4961 
G01 X24.1310 Y52.3343 
G01 X24.1816 Y52.1785 
G01 X24.2560 Y52.0326 
G01 X24.3523 Y51.9001 
G01 X24.4681 Y51.7843 
G01 X24.6006 Y51.6880 
G01 X24.7465 Y51.6136 
G01 X24.9023 Y51.5630 
G01 X25.0641 Y51.5374 
G01 X25.2279 Y51.5374 
G01 X25.3897 Y51.5630 
G01 X25.5455 Y51.6136 
G01 X25.6914 Y51.6880 
G01 X25.8239 Y51.7843 
G01 X25.9397 Y51.9001 
G01 X26.0360 Y52.0326 
G01 X26.1104 Y52.1785 
G01 X26.1610 Y52.3343 
G01 X26.1866 Y52.4961 
G00 Z3.0000  
G00 X23.6466 Y52.4961 
G01 Z-0.0600 F100   
G01 X23.6466 Y52.6599 F100   
G01 X23.6210 Y52.8217 
G01 X23.5704 Y52.9775 
G01 X23.4960 Y53.1234 
G01 X23.3997 Y53.2559 
G01 X23.2839 Y53.3717 
G01 X23.1514 Y53.4680 
G01 X23.0054 Y53.5424 
G01 X22.8497 Y53.5930 
G01 X22.6879 Y53.6186 
G01 X22.5241 Y53.6186 
G01 X22.3623 Y53.5930 
G01 X22.2065 Y53.5424 
G01 X22.0606 Y53.4680 
G01 X21.9281 Y53.3717 
G01 X21.8123 Y53.2559 
G01 X21.7160 Y53.1234 
G01 X21.6416 Y52.9775 
G01 X21.5910 Y52.8217 
G01 X21.5654 Y52.6599 
G01 X21.5654 Y52.4961 
G01 X21.5910 Y52.3343 
G01 X21.6416 Y52.1785 
G01 X21.7160 Y52.0326 
G01 X21.8123 Y51.9001 
G01 X21.9281 Y51.7843 
G01 X22.0606 Y51.6880 
G01 X22.2065 Y51.6136 
G01 X22.3623 Y51.5630 
G01 X22.5241 Y51.5374 
G01 X22.6879 Y51.5374 
G01 X22.8497 Y51.5630 
G01 X23.0054 Y51.6136 
G01 X23.1514 Y51.6880 
G01 X23.2839 Y51.7843 
G01 X23.3997 Y51.9001 
G01 X23.4960 Y52.0326 
G01 X23.5704 Y52.1785 
G01 X23.6210 Y52.3343 
G01 X23.6466 Y52.4961 
G00 Z3.0000  
G00 X21.1066 Y52.4961 
G01 Z-0.0600 F100   
G01 X21.1066 Y52.6599 F100   
G01 X21.0810 Y52.8217 
G01 X21.0304 Y52.9775 
G01 X20.9560 Y53.1234 
G01 X20.8597 Y53.2559 
G01 X20.7439 Y53.3717 
G01 X20.6114 Y53.4680 
G01 X20.4655 Y53.5424 
G01 X20.3097 Y53.5930 
G01 X20.1479 Y53.6186 
G01 X19.9841 Y53.6186 
G01 X19.8223 Y53.5930 
G01 X19.6665 Y53.5424 
G01 X19.5206 Y53.4680 
G01 X19.3881 Y53.3717 
G01 X19.2723 Y53.2559 
G01 X19.1760 Y53.1234 
G01 X19.1016 Y52.9775 
G01 X19.0510 Y52.8217 
G01 X19.0254 Y52.6599 
G01 X19.0254 Y52.4961 
G01 X19.0510 Y52.3343 
G01 X19.1016 Y52.1785 
G01 X19.1760 Y52.0326 
G01 X19.2723 Y51.9001 
G01 X19.3881 Y51.7843 
G01 X19.5206 Y51.6880 
G01 X19.6665 Y51.6136 
G01 X19.8223 Y51.5630 
G01 X19.9841 Y51.5374 
G01 X20.1479 Y51.5374 
G01 X20.3097 Y51.5630 
G01 X20.4655 Y51.6136 
G01 X20.6114 Y51.6880 
G01 X20.7439 Y51.7843 
G01 X20.8597 Y51.9001 
G01 X20.9560 Y52.0326 
G01 X21.0304 Y52.1785 
G01 X21.0810 Y52.3343 
G01 X21.1066 Y52.4961 
G00 Z3.0000  
G00 X18.5666 Y52.4961 
G01 Z-0.0600 F100   
G01 X18.5666 Y52.6599 F100   
G01 X18.5410 Y52.8217 
G01 X18.4904 Y52.9775 
G01 X18.4160 Y53.1234 
G01 X18.3197 Y53.2559 
G01 X18.2039 Y53.3717 
G01 X18.0714 Y53.4680 
G01 X17.9255 Y53.5424 
G01 X17.7697 Y53.5930 
G01 X17.6079 Y53.6186 
G01 X17.4441 Y53.6186 
G01 X17.2823 Y53.5930 
G01 X17.1265 Y53.5424 
G01 X16.9806 Y53.4680 
G01 X16.8481 Y53.3717 
G01 X16.7323 Y53.2559 
G01 X16.6360 Y53.1234 
G01 X16.5616 Y52.9775 
G01 X16.5110 Y52.8217 
G01 X16.4854 Y52.6599 
G01 X16.4854 Y52.4961 
G01 X16.5110 Y52.3343 
G01 X16.5616 Y52.1785 
G01 X16.6360 Y52.0326 
G01 X16.7323 Y51.9001 
G01 X16.8481 Y51.7843 
G01 X16.9806 Y51.6880 
G01 X17.1265 Y51.6136 
G01 X17.2823 Y51.5630 
G01 X17.4441 Y51.5374 
G01 X17.6079 Y51.5374 
G01 X17.7697 Y51.5630 
G01 X17.9255 Y51.6136 
G01 X18.0714 Y51.6880 
G01 X18.2039 Y51.7843 
G01 X18.3197 Y51.9001 
G01 X18.4160 Y52.0326 
G01 X18.4904 Y52.1785 
G01 X18.5410 Y52.3343 
G01 X18.5666 Y52.4961 
G00 Z3.0000  
G00 X37.0848 Y13.5288 
G01 Z-0.0600 F100   
G01 X37.0848 Y0.9492  F100   
G01 X37.1194 Y0.8202  
G01 X37.1861 Y0.7046  
G01 X37.2806 Y0.6101  
G01 X37.3962 Y0.5434  
G01 X37.5252 Y0.5088  
G01 X37.6588 Y0.5088  
G01 X37.7878 Y0.5434  
G01 X37.9034 Y0.6101  
G01 X37.9979 Y0.7046  
G01 X38.0646 Y0.8202  
G01 X38.0992 Y0.9492  
G01 X38.0992 Y13.5288 
G01 X38.0646 Y13.6578 
G01 X37.9979 Y13.7734 
G01 X37.9034 Y13.8679 
G01 X37.7878 Y13.9346 
G01 X37.6588 Y13.9692 
G01 X37.5252 Y13.9692 
G01 X37.3962 Y13.9346 
G01 X37.2806 Y13.8679 
G01 X37.1861 Y13.7734 
G01 X37.1194 Y13.6578 
G01 X37.0848 Y13.5288 
G00 Z3.0000  
G00 X34.5448 Y7.4328  
G01 Z-0.0600 F100   
G01 X34.5448 Y0.9492  F100   
G01 X34.5794 Y0.8202  
G01 X34.6461 Y0.7046  
G01 X34.7406 Y0.6101  
G01 X34.8562 Y0.5434  
G01 X34.9852 Y0.5088  
G01 X35.1188 Y0.5088  
G01 X35.2478 Y0.5434  
G01 X35.3634 Y0.6101  
G01 X35.4579 Y0.7046  
G01 X35.5246 Y0.8202  
G01 X35.5592 Y0.9492  
G01 X35.5592 Y7.4328  
G01 X35.5246 Y7.5618  
G01 X35.4579 Y7.6774  
G01 X35.3634 Y7.7719  
G01 X35.2478 Y7.8386  
G01 X35.1188 Y7.8732  
G01 X34.9852 Y7.8732  
G01 X34.8562 Y7.8386  
G01 X34.7406 Y7.7719  
G01 X34.6461 Y7.6774  
G01 X34.5794 Y7.5618  
G01 X34.5448 Y7.4328  
G00 Z3.0000  
G00 X32.0048 Y7.4328  
G01 Z-0.0600 F100   
G01 X32.0048 Y0.9492  F100   
G01 X32.0394 Y0.8202  
G01 X32.1061 Y0.7046  
G01 X32.2006 Y0.6101  
G01 X32.3162 Y0.5434  
G01 X32.4452 Y0.5088  
G01 X32.5788 Y0.5088  
G01 X32.7078 Y0.5434  
G01 X32.8234 Y0.6101  
G01 X32.9179 Y0.7046  
G01 X32.9846 Y0.8202  
G01 X33.0192 Y0.9492  
G01 X33.0192 Y7.4328  
G01 X32.9846 Y7.5618  
G01 X32.9179 Y7.6774  
G01 X32.8234 Y7.7719  
G01 X32.7078 Y7.8386  
G01 X32.5788 Y7.8732  
G01 X32.4452 Y7.8732  
G01 X32.3162 Y7.8386  
G01 X32.2006 Y7.7719  
G01 X32.1061 Y7.6774  
G01 X32.0394 Y7.5618  
G01 X32.0048 Y7.4328  
G00 Z3.0000  
G00 X29.4648 Y7.4328  
G01 Z-0.0600 F100   
G01 X29.4648 Y1.2032  F100   
G01 X29.4994 Y1.0742  
G01 X29.5661 Y0.9586  
G01 X29.6606 Y0.8641  
G01 X29.7762 Y0.7974  
G01 X29.9052 Y0.7628  
G01 X30.0388 Y0.7628  
G01 X30.1678 Y0.7974  
G01 X30.2834 Y0.8641  
G01 X30.3779 Y0.9586  
G01 X30.4446 Y1.0742  
G01 X30.4792 Y1.2032  
G01 X30.4792 Y7.4328  
G01 X30.4446 Y7.5618  
G01 X30.3779 Y7.6774  
G01 X30.2834 Y7.7719  
G01 X30.1678 Y7.8386  
G01 X30.0388 Y7.8732  
G01 X29.9052 Y7.8732  
G01 X29.7762 Y7.8386  
G01 X29.6606 Y7.7719  
G01 X29.5661 Y7.6774  
G01 X29.4994 Y7.5618  
G01 X29.4648 Y7.4328  
G00 Z3.0000  
G00 X26.9248 Y7.4328  
G01 Z-0.0600 F100   
G01 X26.9248 Y0.9492  F100   
G01 X26.9594 Y0.8202  
G01 X27.0261 Y0.7046  
G01 X27.1206 Y0.6101  
G01 X27.2362 Y0.5434  
G01 X27.3652 Y0.5088  
G01 X27.4988 Y0.5088  
G01 X27.6278 Y0.5434  
G01 X27.7434 Y0.6101  
G01 X27.8379 Y0.7046  
G01 X27.9046 Y0.8202  
G01 X27.9392 Y0.9492  
G01 X27.9392 Y7.4328  
G01 X27.9046 Y7.5618  
G01 X27.8379 Y7.6774  
G01 X27.7434 Y7.7719  
G01 X27.6278 Y7.8386  
G01 X27.4988 Y7.8732  
G01 X27.3652 Y7.8732  
G01 X27.2362 Y7.8386  
G01 X27.1206 Y7.7719  
G01 X27.0261 Y7.6774  
G01 X26.9594 Y7.5618  
G01 X26.9248 Y7.4328  
G00 Z3.0000  
G00 X24.3848 Y13.7828 
G01 Z-0.0600 F100   
G01 X24.3848 Y0.9492  F100   
G01 X24.4194 Y0.8202  
G01 X24.4861 Y0.7046  
G01 X24.5806 Y0.6101  
G01 X24.6962 Y0.5434  
G01 X24.8252 Y0.5088  
G01 X24.9588 Y0.5088  
G01 X25.0878 Y0.5434  
G01 X25.2034 Y0.6101  
G01 X25.2979 Y0.7046  
G01 X25.3646 Y0.8202  
G01 X25.3992 Y0.9492  
G01 X25.3992 Y13.7828 
G01 X25.3646 Y13.9118 
G01 X25.2979 Y14.0274 
G01 X25.2034 Y14.1219 
G01 X25.0878 Y14.1886 
G01 X24.9588 Y14.2232 
G01 X24.8252 Y14.2232 
G01 X24.6962 Y14.1886 
G01 X24.5806 Y14.1219 
G01 X24.4861 Y14.0274 
G01 X24.4194 Y13.9118 
G01 X24.3848 Y13.7828 
G00 Z3.0000  
G00 X21.8448 Y7.6868  
G01 Z-0.0600 F100   
G01 X21.8448 Y0.9492  F100   
G01 X21.8794 Y0.8202  
G01 X21.9461 Y0.7046  
G01 X22.0406 Y0.6101  
G01 X22.1562 Y0.5434  
G01 X22.2852 Y0.5088  
G01 X22.4188 Y0.5088  
G01 X22.5478 Y0.5434  
G01 X22.6634 Y0.6101  
G01 X22.7579 Y0.7046  
G01 X22.8246 Y0.8202  
G01 X22.8592 Y0.9492  
G01 X22.8592 Y7.6868  
G01 X22.8246 Y7.8158  
G01 X22.7579 Y7.9314  
G01 X22.6634 Y8.0259  
G01 X22.5478 Y8.0926  
G01 X22.4188 Y8.1272  
G01 X22.2852 Y8.1272  
G01 X22.1562 Y8.0926  
G01 X22.0406 Y8.0259  
G01 X21.9461 Y7.9314  
G01 X21.8794 Y7.8158  
G01 X21.8448 Y7.6868  
G00 Z3.0000  
G00 X19.3048 Y7.4328  
G01 Z-0.0600 F100   
G01 X19.3048 Y0.9492  F100   
G01 X19.3394 Y0.8202  
G01 X19.4061 Y0.7046  
G01 X19.5006 Y0.6101  
G01 X19.6162 Y0.5434  
G01 X19.7452 Y0.5088  
G01 X19.8788 Y0.5088  
G01 X20.0078 Y0.5434  
G01 X20.1234 Y0.6101  
G01 X20.2179 Y0.7046  
G01 X20.2846 Y0.8202  
G01 X20.3192 Y0.9492  
G01 X20.3192 Y7.4328  
G01 X20.2846 Y7.5618  
G01 X20.2179 Y7.6774  
G01 X20.1234 Y7.7719  
G01 X20.0078 Y7.8386  
G01 X19.8788 Y7.8732  
G01 X19.7452 Y7.8732  
G01 X19.6162 Y7.8386  
G01 X19.5006 Y7.7719  
G01 X19.4061 Y7.6774  
G01 X19.3394 Y7.5618  
G01 X19.3048 Y7.4328  
G00 Z3.0000  
G00 X16.7648 Y7.4328  
G01 Z-0.0600 F100   
G01 X16.7648 Y1.2032  F100   
G01 X16.7994 Y1.0742  
G01 X16.8661 Y0.9586  
G01 X16.9606 Y0.8641  
G01 X17.0762 Y0.7974  
G01 X17.2052 Y0.7628  
G01 X17.3388 Y0.7628  
G01 X17.4678 Y0.7974  
G01 X17.5834 Y0.8641  
G01 X17.6779 Y0.9586  
G01 X17.7446 Y1.0742  
G01 X17.7792 Y1.2032  
G01 X17.7792 Y7.4328  
G01 X17.7446 Y7.5618  
G01 X17.6779 Y7.6774  
G01 X17.5834 Y7.7719  
G01 X17.4678 Y7.8386  
G01 X17.3388 Y7.8732  
G01 X17.2052 Y7.8732  
G01 X17.0762 Y7.8386  
G01 X16.9606 Y7.7719  
G01 X16.8661 Y7.6774  
G01 X16.7994 Y7.5618  
G01 X16.7648 Y7.4328  
G00 Z3.0000  
G00 X14.2248 Y7.4328  
G01 Z-0.0600 F100   
G01 X14.2248 Y0.9492  F100   
G01 X14.2594 Y0.8202  
G01 X14.3261 Y0.7046  
G01 X14.4206 Y0.6101  
G01 X14.5362 Y0.5434  
G01 X14.6652 Y0.5088  
G01 X14.7988 Y0.5088  
G01 X14.9278 Y0.5434  
G01 X15.0434 Y0.6101  
G01 X15.1379 Y0.7046  
G01 X15.2046 Y0.8202  
G01 X15.2392 Y0.9492  
G01 X15.2392 Y7.4328  
G01 X15.2046 Y7.5618  
G01 X15.1379 Y7.6774  
G01 X15.0434 Y7.7719  
G01 X14.9278 Y7.8386  
G01 X14.7988 Y7.8732  
G01 X14.6652 Y7.8732  
G01 X14.5362 Y7.8386  
G01 X14.4206 Y7.7719  
G01 X14.3261 Y7.6774  
G01 X14.2594 Y7.5618  
G01 X14.2248 Y7.4328  
G00 Z3.0000  
G00 X11.6848 Y13.5288 
G01 Z-0.0600 F100   
G01 X11.6848 Y0.9492  F100   
G01 X11.7194 Y0.8202  
G01 X11.7861 Y0.7046  
G01 X11.8806 Y0.6101  
G01 X11.9962 Y0.5434  
G01 X12.1252 Y0.5088  
G01 X12.2588 Y0.5088  
G01 X12.3878 Y0.5434  
G01 X12.5034 Y0.6101  
G01 X12.5979 Y0.7046  
G01 X12.6646 Y0.8202  
G01 X12.6992 Y0.9492  
G01 X12.6992 Y13.5288 
G01 X12.6646 Y13.6578 
G01 X12.5979 Y13.7734 
G01 X12.5034 Y13.8679 
G01 X12.3878 Y13.9346 
G01 X12.2588 Y13.9692 
G01 X12.1252 Y13.9692 
G01 X11.9962 Y13.9346 
G01 X11.8806 Y13.8679 
G01 X11.7861 Y13.7734 
G01 X11.7194 Y13.6578 
G01 X11.6848 Y13.5288 
G00 Z3.0000  
G00 X9.1448  Y7.4328  
G01 Z-0.0600 F100   
G01 X9.1448  Y0.9492  F100   
G01 X9.1794  Y0.8202  
G01 X9.2461  Y0.7046  
G01 X9.3406  Y0.6101  
G01 X9.4562  Y0.5434  
G01 X9.5852  Y0.5088  
G01 X9.7188  Y0.5088  
G01 X9.8478  Y0.5434  
G01 X9.9634  Y0.6101  
G01 X10.0579 Y0.7046  
G01 X10.1246 Y0.8202  
G01 X10.1592 Y0.9492  
G01 X10.1592 Y7.4328  
G01 X10.1246 Y7.5618  
G01 X10.0579 Y7.6774  
G01 X9.9634  Y7.7719  
G01 X9.8478  Y7.8386  
G01 X9.7188  Y7.8732  
G01 X9.5852  Y7.8732  
G01 X9.4562  Y7.8386  
G01 X9.3406  Y7.7719  
G01 X9.2461  Y7.6774  
G01 X9.1794  Y7.5618  
G01 X9.1448  Y7.4328  
G00 Z3.0000  
G00 X6.6048  Y7.4328  
G01 Z-0.0600 F100   
G01 X6.6048  Y0.9492  F100   
G01 X6.6394  Y0.8202  
G01 X6.7061  Y0.7046  
G01 X6.8006  Y0.6101  
G01 X6.9162  Y0.5434  
G01 X7.0452  Y0.5088  
G01 X7.1788  Y0.5088  
G01 X7.3078  Y0.5434  
G01 X7.4234  Y0.6101  
G01 X7.5179  Y0.7046  
G01 X7.5846  Y0.8202  
G01 X7.6192  Y0.9492  
G01 X7.6192  Y7.4328  
G01 X7.5846  Y7.5618  
G01 X7.5179  Y7.6774  
G01 X7.4234  Y7.7719  
G01 X7.3078  Y7.8386  
G01 X7.1788  Y7.8732  
G01 X7.0452  Y7.8732  
G01 X6.9162  Y7.8386  
G01 X6.8006  Y7.7719  
G01 X6.7061  Y7.6774  
G01 X6.6394  Y7.5618  
G01 X6.6048  Y7.4328  
G00 Z3.0000  
G00 X4.0648  Y7.4328  
G01 Z-0.0600 F100   
G01 X4.0648  Y1.2032  F100   
G01 X4.0994  Y1.0742  
G01 X4.1661  Y0.9586  
G01 X4.2606  Y0.8641  
G01 X4.3762  Y0.7974  
G01 X4.5052  Y0.7628  
G01 X4.6388  Y0.7628  
G01 X4.7678  Y0.7974  
G01 X4.8834  Y0.8641  
G01 X4.9779  Y0.9586  
G01 X5.0446  Y1.0742  
G01 X5.0792  Y1.2032  
G01 X5.0792  Y7.4328  
G01 X5.0446  Y7.5618  
G01 X4.9779  Y7.6774  
G01 X4.8834  Y7.7719  
G01 X4.7678  Y7.8386  
G01 X4.6388  Y7.8732  
G01 X4.5052  Y7.8732  
G01 X4.3762  Y7.8386  
G01 X4.2606  Y7.7719  
G01 X4.1661  Y7.6774  
G01 X4.0994  Y7.5618  
G01 X4.0648  Y7.4328  
G00 Z3.0000  
G00 X1.5248  Y7.4328  
G01 Z-0.0600 F100   
G01 X1.5248  Y0.9492  F100   
G01 X1.5594  Y0.8202  
G01 X1.6261  Y0.7046  
G01 X1.7206  Y0.6101  
G01 X1.8362  Y0.5434  
G01 X1.9652  Y0.5088  
G01 X2.0988  Y0.5088  
G01 X2.2278  Y0.5434  
G01 X2.3434  Y0.6101  
G01 X2.4379  Y0.7046  
G01 X2.5046  Y0.8202  
G01 X2.5392  Y0.9492  
G01 X2.5392  Y7.4328  
G01 X2.5046  Y7.5618  
G01 X2.4379  Y7.6774  
G01 X2.3434  Y7.7719  
G01 X2.2278  Y7.8386  
G01 X2.0988  Y7.8732  
G01 X1.9652  Y7.8732  
G01 X1.8362  Y7.8386  
G01 X1.7206  Y7.7719  
G01 X1.6261  Y7.6774  
G01 X1.5594  Y7.5618  
G01 X1.5248  Y7.4328  
G00 Z3.0000  
G00 X11.3517 Y42.9504 
G01 Z-0.0600 F100   
G01 X11.2773 Y42.9196 F100   
G01 X11.2204 Y42.8627 
G01 X11.1896 Y42.7883 
G01 X11.1896 Y41.4077 
G01 X11.2204 Y41.3333 
G01 X11.2773 Y41.2764 
G01 X11.3517 Y41.2456 
G01 X13.0323 Y41.2456 
G01 X13.1067 Y41.2764 
G01 X13.1636 Y41.3333 
G01 X13.1944 Y41.4077 
G01 X13.1944 Y42.7883 
G01 X13.1636 Y42.8627 
G01 X13.1067 Y42.9196 
G01 X13.0484 Y42.9437 
G01 X13.0484 Y45.0096 
G01 X15.2803 Y45.0096 
G01 X15.3547 Y45.0404 
G01 X15.4116 Y45.0973 
G01 X15.4424 Y45.1717 
G01 X15.4424 Y53.6343 
G01 X15.4116 Y53.7087 
G01 X15.3547 Y53.7656 
G01 X15.2803 Y53.7964 
G01 X10.6277 Y53.7964 
G01 X10.5533 Y53.7656 
G01 X10.4964 Y53.7087 
G01 X10.4656 Y53.6343 
G01 X10.4656 Y45.1717 
G01 X10.4964 Y45.0973 
G01 X10.5533 Y45.0404 
G01 X10.6277 Y45.0096 
G01 X11.8436 Y45.0096 
G01 X11.8436 Y42.9504 
G01 X11.3517 Y42.9504 
G00 Z3.0000  
G00 X7.9523  Y42.9504 
G01 Z-0.0600 F100   
G01 X7.4604  Y42.9504 F100   
G01 X7.4604  Y45.0096 
G01 X7.6603  Y45.0096 
G01 X7.7347  Y45.0404 
G01 X7.7916  Y45.0973 
G01 X7.8224  Y45.1717 
G01 X7.8224  Y53.6343 
G01 X7.7916  Y53.7087 
G01 X7.7347  Y53.7656 
G01 X7.6603  Y53.7964 
G01 X3.0077  Y53.7964 
G01 X2.9333  Y53.7656 
G01 X2.8764  Y53.7087 
G01 X2.8456  Y53.6343 
G01 X2.8456  Y45.1717 
G01 X2.8764  Y45.0973 
G01 X2.9333  Y45.0404 
G01 X3.0077  Y45.0096 
G01 X6.2556  Y45.0096 
G01 X6.2556  Y42.9437 
G01 X6.1973  Y42.9196 
G01 X6.1404  Y42.8627 
G01 X6.1096  Y42.7883 
G01 X6.1096  Y41.4077 
G01 X6.1404  Y41.3333 
G01 X6.1973  Y41.2764 
G01 X6.2717  Y41.2456 
G01 X7.9523  Y41.2456 
G01 X8.0267  Y41.2764 
G01 X8.0836  Y41.3333 
G01 X8.1144  Y41.4077 
G01 X8.1144  Y42.7883 
G01 X8.0836  Y42.8627 
G01 X8.0267  Y42.9196 
G01 X7.9523  Y42.9504 
G00 Z3.0000  
G00 X7.9523  Y41.0504 
G01 Z-0.0600 F100   
G01 X6.2717  Y41.0504 F100   
G01 X6.1973  Y41.0196 
G01 X6.1404  Y40.9627 
G01 X6.1096  Y40.8883 
G01 X6.1096  Y39.5077 
G01 X6.1404  Y39.4333 
G01 X6.1973  Y39.3764 
G01 X6.2717  Y39.3456 
G01 X7.9523  Y39.3456 
G01 X8.0267  Y39.3764 
G01 X8.0836  Y39.4333 
G01 X8.1144  Y39.5077 
G01 X8.1144  Y39.5296 
G01 X11.1896 Y39.5296 
G01 X11.1896 Y39.5077 
G01 X11.2204 Y39.4333 
G01 X11.2773 Y39.3764 
G01 X11.3517 Y39.3456 
G01 X13.0323 Y39.3456 
G01 X13.1067 Y39.3764 
G01 X13.1636 Y39.4333 
G01 X13.1944 Y39.5077 
G01 X13.1944 Y40.8883 
G01 X13.1636 Y40.9627 
G01 X13.1067 Y41.0196 
G01 X13.0323 Y41.0504 
G01 X11.3517 Y41.0504 
G01 X11.2773 Y41.0196 
G01 X11.2204 Y40.9627 
G01 X11.1896 Y40.8883 
G01 X11.1896 Y40.7344 
G01 X8.1144  Y40.7344 
G01 X8.1144  Y40.8883 
G01 X8.0836  Y40.9627 
G01 X8.0267  Y41.0196 
G01 X7.9523  Y41.0504 
G00 Z3.0000  
G00 X28.8184 Y26.2957 
G01 Z-0.0600 F100   
G01 X28.8184 Y29.0763 F100   
G01 X28.7876 Y29.1507 
G01 X28.7307 Y29.2076 
G01 X28.6563 Y29.2384 
G01 X26.9757 Y29.2384 
G01 X26.9013 Y29.2076 
G01 X26.8444 Y29.1507 
G01 X26.8136 Y29.0763 
G01 X26.8136 Y26.2957 
G01 X26.8444 Y26.2213 
G01 X26.9013 Y26.1644 
G01 X26.9757 Y26.1336 
G01 X28.6563 Y26.1336 
G01 X28.7307 Y26.1644 
G01 X28.7876 Y26.2213 
G01 X28.8184 Y26.2957 
G00 Z3.0000  
G00 X26.0184 Y26.2957 
G01 Z-0.0600 F100   
G01 X26.0184 Y29.0763 F100   
G01 X25.9876 Y29.1507 
G01 X25.9306 Y29.2076 
G01 X25.8563 Y29.2384 
G01 X24.1757 Y29.2384 
G01 X24.1013 Y29.2076 
G01 X24.0444 Y29.1507 
G01 X24.0136 Y29.0763 
G01 X24.0136 Y26.2957 
G01 X24.0444 Y26.2213 
G01 X24.1013 Y26.1644 
G01 X24.1757 Y26.1336 
G01 X25.8563 Y26.1336 
G01 X25.9306 Y26.1644 
G01 X25.9876 Y26.2213 
G01 X26.0184 Y26.2957 
G00 Z3.0000  
G00 X27.7104 Y16.4817 
G01 Z-0.0600 F100   
G01 X27.7104 Y18.0623 F100   
G01 X27.6796 Y18.1366 
G01 X27.6227 Y18.1936 
G01 X27.5483 Y18.2244 
G01 X26.1677 Y18.2244 
G01 X26.0933 Y18.1936 
G01 X26.0364 Y18.1366 
G01 X26.0056 Y18.0623 
G01 X26.0056 Y16.4817 
G01 X26.0364 Y16.4073 
G01 X26.0933 Y16.3504 
G01 X26.1677 Y16.3196 
G01 X27.5483 Y16.3196 
G01 X27.6227 Y16.3504 
G01 X27.6796 Y16.4073 
G01 X27.7104 Y16.4817 
G00 Z3.0000  
G00 X25.8104 Y16.4817 
G01 Z-0.0600 F100   
G01 X25.8104 Y18.0623 F100   
G01 X25.7796 Y18.1366 
G01 X25.7227 Y18.1936 
G01 X25.6483 Y18.2244 
G01 X24.2677 Y18.2244 
G01 X24.1933 Y18.1936 
G01 X24.1364 Y18.1366 
G01 X24.1056 Y18.0623 
G01 X24.1056 Y16.4817 
G01 X24.1364 Y16.4073 
G01 X24.1933 Y16.3504 
G01 X24.2677 Y16.3196 
G01 X25.6483 Y16.3196 
G01 X25.7227 Y16.3504 
G01 X25.7796 Y16.4073 
G01 X25.8104 Y16.4817 
G00 Z3.0000  
G00 X28.8184 Y21.4117 
G01 Z-0.0600 F100   
G01 X28.8184 Y23.2923 F100   
G01 X28.7876 Y23.3666 
G01 X28.7307 Y23.4236 
G01 X28.6563 Y23.4544 
G01 X26.9757 Y23.4544 
G01 X26.9013 Y23.4236 
G01 X26.8444 Y23.3666 
G01 X26.8136 Y23.2923 
G01 X26.8136 Y21.4117 
G01 X26.8444 Y21.3373 
G01 X26.9013 Y21.2804 
G01 X26.9757 Y21.2496 
G01 X28.6563 Y21.2496 
G01 X28.7307 Y21.2804 
G01 X28.7876 Y21.3373 
G01 X28.8184 Y21.4117 
G00 Z3.0000  
G00 X26.0184 Y21.4117 
G01 Z-0.0600 F100   
G01 X26.0184 Y23.2923 F100   
G01 X25.9876 Y23.3666 
G01 X25.9306 Y23.4236 
G01 X25.8563 Y23.4544 
G01 X24.1757 Y23.4544 
G01 X24.1013 Y23.4236 
G01 X24.0444 Y23.3666 
G01 X24.0136 Y23.2923 
G01 X24.0136 Y21.4117 
G01 X24.0444 Y21.3373 
G01 X24.1013 Y21.2804 
G01 X24.1757 Y21.2496 
G01 X25.8563 Y21.2496 
G01 X25.9306 Y21.2804 
G01 X25.9876 Y21.3373 
G01 X26.0184 Y21.4117 
G00 Z3.0000  
G00 Z12.0000 
M05
M02
